(.../Documents/src/pcbgcode/pcb-gcode.ulp)
(Copyright 2005 - 2009 by John Johnson)
(See readme.txt for licensing terms.)
(This file generated from the board:)
(.../docs/examples/04151_lcdi2c.brd)
(Current profile is .../pcbgcode-work/profiles/mach.pp  )
(This file generated 12/26/12 5:14 PM)
(Settings from pcb-machine.h)
(  Tool Size)
(0.0050  )
(Z Axis Settings)
(  High     Up        Down     Drill)
(0.5000  	0.1000  	-0.0070 	-0.0320 )
(spindle on time = 3.0000)
(milling depth = -0.0100)
(text depth = -0.0050)
(tool change at 0.5000  0.6000  1.0000  )
(feed rate xy = F20    )
(feed rate z  = F10    )
(Settings from pcb-defaults.h)
(isolate min = 0.0010)
(isolate max = 0.0200)
(isolate step = 0.0030)
(Generated bottom outlines, bottom drill, )
(Unit of measure: inch)
(Inch Mode)
G20
(Absolute Coordinates)
G90
G00 X0.0000  Y0.0000  
M03
G04 P3.000000
G00 Z0.1000  
G00 X-0.8366 Y0.6021  
G01 Z-0.0070 F10    
G01 X-0.8366 Y0.6778  F20    
G01 X-0.8314 Y0.6905  
G01 X-0.8217 Y0.7002  
G01 X-0.8090 Y0.7054  
G01 X-0.7953 Y0.7054  
G01 X-0.7826 Y0.7002  
G01 X-0.7729 Y0.6905  
G01 X-0.7676 Y0.6778  
G01 X-0.7676 Y0.6021  
G01 X-0.7729 Y0.5894  
G01 X-0.7826 Y0.5797  
G01 X-0.7885 Y0.5772  
G01 X-0.7885 Y0.5702  
G01 X-0.8802 Y0.4785  
G01 X-0.8898 Y0.4785  
G01 X-1.3935 Y0.4785  
G01 X-1.3935 Y0.3548  
G01 X-1.3652 Y0.3265  
G01 X-1.3585 Y0.3198  
G01 X-1.3585 Y0.2645  
G01 X-1.3557 Y0.2645  
G01 X-1.3355 Y0.2443  
G01 X-1.3355 Y0.2218  
G01 X-1.3052 Y0.1915  
G01 X-1.0348 Y0.1915  
G01 X-0.9548 Y0.2715  
G01 X-0.9452 Y0.2715  
G01 X-0.6655 Y0.2715  
G01 X-0.6655 Y0.2769  
G01 X-0.6602 Y0.2895  
G01 X-0.6505 Y0.2992  
G01 X-0.6379 Y0.3045  
G01 X-0.5621 Y0.3045  
G01 X-0.5495 Y0.2992  
G01 X-0.5398 Y0.2895  
G01 X-0.5345 Y0.2769  
G01 X-0.5345 Y0.2631  
G01 X-0.5398 Y0.2505  
G01 X-0.5495 Y0.2408  
G01 X-0.5621 Y0.2355  
G01 X-0.6379 Y0.2355  
G01 X-0.6505 Y0.2408  
G01 X-0.6583 Y0.2485  
G01 X-0.9452 Y0.2485  
G01 X-1.0185 Y0.1752  
G01 X-1.0252 Y0.1685  
G01 X-1.3052 Y0.1685  
G01 X-1.3148 Y0.1685  
G01 X-1.3487 Y0.2025  
G01 X-1.3557 Y0.1955  
G01 X-1.3843 Y0.1955  
G01 X-1.4045 Y0.2157  
G01 X-1.4045 Y0.2443  
G01 X-1.3843 Y0.2645  
G01 X-1.3815 Y0.2645  
G01 X-1.3815 Y0.3102  
G01 X-1.4165 Y0.3452  
G01 X-1.4165 Y0.3548  
G01 X-1.4165 Y0.4948  
G01 X-1.4165 Y0.5302  
G01 X-1.4165 Y0.5352  
G01 X-1.4165 Y0.9054  
G01 X-1.5149 Y1.0085  
G01 X-1.5249 Y1.0085  
G01 X-1.5321 Y1.0055  
G01 X-1.6079 Y1.0055  
G01 X-1.6151 Y1.0085  
G01 X-1.6602 Y1.0085  
G01 X-1.7185 Y0.9502  
G01 X-1.7252 Y0.9435  
G01 X-1.7885 Y0.9435  
G01 X-1.7885 Y0.7145  
G01 X-1.7857 Y0.7145  
G01 X-1.7655 Y0.6943  
G01 X-1.7655 Y0.6657  
G01 X-1.7857 Y0.6455  
G01 X-1.8143 Y0.6455  
G01 X-1.8273 Y0.6585  
G01 X-1.8927 Y0.6585  
G01 X-1.9057 Y0.6455  
G01 X-1.9343 Y0.6455  
G01 X-1.9473 Y0.6585  
G01 X-2.0127 Y0.6585  
G01 X-2.0257 Y0.6455  
G01 X-2.0543 Y0.6455  
G01 X-2.0745 Y0.6657  
G01 X-2.0745 Y0.6943  
G01 X-2.0543 Y0.7145  
G01 X-2.0257 Y0.7145  
G01 X-2.0055 Y0.6943  
G01 X-2.0055 Y0.6815  
G01 X-1.9545 Y0.6815  
G01 X-1.9545 Y0.6943  
G01 X-1.9343 Y0.7145  
G01 X-1.9057 Y0.7145  
G01 X-1.8855 Y0.6943  
G01 X-1.8855 Y0.6815  
G01 X-1.8345 Y0.6815  
G01 X-1.8345 Y0.6943  
G01 X-1.8143 Y0.7145  
G01 X-1.8115 Y0.7145  
G01 X-1.8115 Y0.9435  
G01 X-1.8852 Y0.9435  
G01 X-1.8948 Y0.9435  
G01 X-1.9315 Y0.9802  
G01 X-1.9315 Y0.9898  
G01 X-1.9315 Y1.0652  
G01 X-1.9748 Y1.1085  
G01 X-2.0352 Y1.1085  
G01 X-2.0885 Y1.0552  
G01 X-2.0885 Y1.0348  
G01 X-2.0885 Y1.0252  
G01 X-2.1785 Y0.9352  
G01 X-2.1852 Y0.9285  
G01 X-2.3552 Y0.9285  
G01 X-2.3648 Y0.9285  
G01 X-2.4148 Y0.9785  
G01 X-2.4215 Y0.9852  
G01 X-2.4215 Y1.0752  
G01 X-2.4215 Y1.0848  
G01 X-2.3115 Y1.1948  
G01 X-2.3048 Y1.2015  
G01 X-1.8315 Y1.2015  
G01 X-1.8315 Y1.2352  
G01 X-1.8315 Y1.2448  
G01 X-1.7815 Y1.2948  
G01 X-1.7748 Y1.3015  
G01 X-1.4802 Y1.3015  
G01 X-1.4735 Y1.2948  
G01 X-1.4563 Y1.2775  
G01 X-1.4543 Y1.2795  
G01 X-1.4257 Y1.2795  
G01 X-1.4055 Y1.2593  
G01 X-1.4055 Y1.2307  
G01 X-1.4257 Y1.2105  
G01 X-1.4285 Y1.2105  
G01 X-1.4285 Y1.1448  
G01 X-1.4152 Y1.1315  
G01 X-1.3148 Y1.1315  
G01 X-1.2800 Y1.1662  
G01 X-1.2794 Y1.1682  
G01 X-1.2768 Y1.1694  
G01 X-1.2765 Y1.1698  
G01 X-1.2765 Y1.1993  
G01 X-1.2493 Y1.2265  
G01 X-1.2107 Y1.2265  
G01 X-1.1835 Y1.1993  
G01 X-1.1835 Y1.1607  
G01 X-1.1890 Y1.1553  
G01 X-1.1552 Y1.1215  
G01 X-0.4952 Y1.1215  
G01 X-0.4885 Y1.1148  
G01 X-0.4082 Y1.0345  
G01 X-0.3957 Y1.0345  
G01 X-0.3755 Y1.0143  
G01 X-0.3755 Y1.0015  
G01 X-0.3285 Y1.0015  
G01 X-0.3285 Y1.0159  
G01 X-0.3059 Y1.0385  
G01 X-0.2741 Y1.0385  
G01 X-0.2515 Y1.0159  
G01 X-0.2515 Y0.9841  
G01 X-0.2741 Y0.9615  
G01 X-0.3059 Y0.9615  
G01 X-0.3229 Y0.9785  
G01 X-0.3827 Y0.9785  
G01 X-0.3957 Y0.9655  
G01 X-0.4243 Y0.9655  
G01 X-0.4445 Y0.9857  
G01 X-0.4445 Y1.0143  
G01 X-0.4325 Y1.0263  
G01 X-0.5048 Y1.0985  
G01 X-1.1552 Y1.0985  
G01 X-1.1648 Y1.0985  
G01 X-1.2053 Y1.1390  
G01 X-1.2107 Y1.1335  
G01 X-1.2493 Y1.1335  
G01 X-1.2647 Y1.1490  
G01 X-1.2985 Y1.1152  
G01 X-1.3052 Y1.1085  
G01 X-1.4152 Y1.1085  
G01 X-1.4248 Y1.1085  
G01 X-1.4448 Y1.1285  
G01 X-1.4515 Y1.1352  
G01 X-1.4515 Y1.2105  
G01 X-1.4543 Y1.2105  
G01 X-1.4745 Y1.2307  
G01 X-1.4745 Y1.2593  
G01 X-1.4725 Y1.2613  
G01 X-1.4898 Y1.2785  
G01 X-1.7652 Y1.2785  
G01 X-1.8085 Y1.2352  
G01 X-1.8085 Y1.1948  
G01 X-1.7747 Y1.1610  
G01 X-1.7693 Y1.1665  
G01 X-1.7307 Y1.1665  
G01 X-1.7035 Y1.1393  
G01 X-1.7035 Y1.1007  
G01 X-1.7307 Y1.0735  
G01 X-1.7693 Y1.0735  
G01 X-1.7965 Y1.1007  
G01 X-1.7965 Y1.1393  
G01 X-1.7910 Y1.1447  
G01 X-1.8248 Y1.1785  
G01 X-2.2952 Y1.1785  
G01 X-2.3985 Y1.0752  
G01 X-2.3985 Y0.9948  
G01 X-2.3552 Y0.9515  
G01 X-2.1948 Y0.9515  
G01 X-2.1115 Y1.0348  
G01 X-2.1115 Y1.0648  
G01 X-2.1048 Y1.0715  
G01 X-2.0448 Y1.1315  
G01 X-2.0352 Y1.1315  
G01 X-1.9652 Y1.1315  
G01 X-1.9585 Y1.1248  
G01 X-1.9085 Y1.0748  
G01 X-1.9085 Y1.0652  
G01 X-1.9085 Y0.9898  
G01 X-1.8852 Y0.9665  
G01 X-1.7952 Y0.9665  
G01 X-1.7348 Y0.9665  
G01 X-1.6698 Y1.0315  
G01 X-1.6602 Y1.0315  
G01 X-1.6348 Y1.0315  
G01 X-1.6355 Y1.0331  
G01 X-1.6355 Y1.0469  
G01 X-1.6302 Y1.0595  
G01 X-1.6205 Y1.0692  
G01 X-1.6079 Y1.0745  
G01 X-1.5321 Y1.0745  
G01 X-1.5195 Y1.0692  
G01 X-1.5098 Y1.0595  
G01 X-1.5045 Y1.0469  
G01 X-1.5045 Y1.0331  
G01 X-1.5052 Y1.0315  
G01 X-1.5050 Y1.0314  
G01 X-1.5018 Y1.0281  
G01 X-1.4985 Y1.0248  
G01 X-1.4985 Y1.0246  
G01 X-1.3969 Y0.9181  
G01 X-1.3935 Y0.9148  
G01 X-1.3935 Y0.9146  
G01 X-1.3934 Y0.9145  
G01 X-1.3935 Y0.9099  
G01 X-1.3935 Y0.5498  
G01 X-1.3885 Y0.5448  
G01 X-1.3885 Y0.5352  
G01 X-1.3935 Y0.5302  
G01 X-1.3935 Y0.5015  
G01 X-0.8898 Y0.5015  
G01 X-0.8145 Y0.5767  
G01 X-0.8217 Y0.5797  
G01 X-0.8314 Y0.5894  
G01 X-0.8366 Y0.6021  
G00 Z0.1000  
G00 X-0.8070 Y0.8579  
G01 Z-0.0070 F10    
G01 X-0.8070 Y0.7822  F20    
G01 X-0.8122 Y0.7695  
G01 X-0.8220 Y0.7598  
G01 X-0.8335 Y0.7550  
G01 X-0.8335 Y0.7502  
G01 X-0.8402 Y0.7435  
G01 X-0.8702 Y0.7135  
G01 X-0.8798 Y0.7135  
G01 X-0.9102 Y0.7135  
G01 X-0.9452 Y0.6785  
G01 X-0.9548 Y0.6785  
G01 X-1.3252 Y0.6785  
G01 X-1.3485 Y0.6552  
G01 X-1.3485 Y0.6148  
G01 X-1.3081 Y0.5744  
G01 X-1.3079 Y0.5745  
G01 X-1.2321 Y0.5745  
G01 X-1.2195 Y0.5692  
G01 X-1.2098 Y0.5595  
G01 X-1.2045 Y0.5469  
G01 X-1.2045 Y0.5331  
G01 X-1.2098 Y0.5205  
G01 X-1.2195 Y0.5108  
G01 X-1.2321 Y0.5055  
G01 X-1.3079 Y0.5055  
G01 X-1.3205 Y0.5108  
G01 X-1.3302 Y0.5205  
G01 X-1.3355 Y0.5331  
G01 X-1.3355 Y0.5469  
G01 X-1.3302 Y0.5595  
G01 X-1.3280 Y0.5618  
G01 X-1.3715 Y0.6052  
G01 X-1.3715 Y0.6148  
G01 X-1.3715 Y0.6648  
G01 X-1.3648 Y0.6715  
G01 X-1.3348 Y0.7015  
G01 X-1.3252 Y0.7015  
G01 X-0.9548 Y0.7015  
G01 X-0.9265 Y0.7298  
G01 X-0.9198 Y0.7365  
G01 X-0.8798 Y0.7365  
G01 X-0.8578 Y0.7585  
G01 X-0.8610 Y0.7598  
G01 X-0.8707 Y0.7695  
G01 X-0.8760 Y0.7822  
G01 X-0.8760 Y0.8579  
G01 X-0.8707 Y0.8706  
G01 X-0.8610 Y0.8803  
G01 X-0.8484 Y0.8856  
G01 X-0.8346 Y0.8856  
G01 X-0.8220 Y0.8803  
G01 X-0.8122 Y0.8706  
G01 X-0.8070 Y0.8579  
G00 Z0.1000  
G00 X-0.7579 Y0.6021  
G01 Z-0.0070 F10    
G01 X-0.7579 Y0.6778  F20    
G01 X-0.7526 Y0.6905  
G01 X-0.7429 Y0.7002  
G01 X-0.7302 Y0.7054  
G01 X-0.7165 Y0.7054  
G01 X-0.7038 Y0.7002  
G01 X-0.6941 Y0.6905  
G01 X-0.6889 Y0.6778  
G01 X-0.6889 Y0.6021  
G01 X-0.6941 Y0.5894  
G01 X-0.7038 Y0.5797  
G01 X-0.7085 Y0.5778  
G01 X-0.7085 Y0.5702  
G01 X-0.7152 Y0.5635  
G01 X-0.8402 Y0.4385  
G01 X-0.8498 Y0.4385  
G01 X-1.2045 Y0.4385  
G01 X-1.2045 Y0.4331  
G01 X-1.2098 Y0.4205  
G01 X-1.2195 Y0.4108  
G01 X-1.2321 Y0.4055  
G01 X-1.3079 Y0.4055  
G01 X-1.3205 Y0.4108  
G01 X-1.3302 Y0.4205  
G01 X-1.3355 Y0.4331  
G01 X-1.3355 Y0.4469  
G01 X-1.3302 Y0.4595  
G01 X-1.3205 Y0.4692  
G01 X-1.3079 Y0.4745  
G01 X-1.2321 Y0.4745  
G01 X-1.2195 Y0.4692  
G01 X-1.2117 Y0.4615  
G01 X-0.8498 Y0.4615  
G01 X-0.7349 Y0.5764  
G01 X-0.7429 Y0.5797  
G01 X-0.7526 Y0.5894  
G01 X-0.7579 Y0.6021  
G00 Z0.1000  
G00 X-0.8857 Y0.8579  
G01 Z-0.0070 F10    
G01 X-0.8857 Y0.7822  F20    
G01 X-0.8910 Y0.7695  
G01 X-0.9007 Y0.7598  
G01 X-0.9134 Y0.7546  
G01 X-0.9271 Y0.7546  
G01 X-0.9398 Y0.7598  
G01 X-0.9495 Y0.7695  
G01 X-0.9547 Y0.7822  
G01 X-0.9547 Y0.8085  
G01 X-1.1602 Y0.8085  
G01 X-1.1902 Y0.7785  
G01 X-1.1998 Y0.7785  
G01 X-1.3348 Y0.7785  
G01 X-1.3415 Y0.7852  
G01 X-1.3565 Y0.8002  
G01 X-1.3565 Y0.8098  
G01 X-1.3565 Y0.9802  
G01 X-1.5015 Y1.1252  
G01 X-1.5015 Y1.1348  
G01 X-1.5015 Y1.1355  
G01 X-1.5043 Y1.1355  
G01 X-1.5245 Y1.1557  
G01 X-1.5245 Y1.1843  
G01 X-1.5225 Y1.1863  
G01 X-1.5248 Y1.1885  
G01 X-1.7081 Y1.1885  
G01 X-1.7109 Y1.1876  
G01 X-1.7127 Y1.1885  
G01 X-1.7148 Y1.1885  
G01 X-1.7152 Y1.1890  
G01 X-1.7237 Y1.1806  
G01 X-1.7407 Y1.1735  
G01 X-1.7592 Y1.1735  
G01 X-1.7763 Y1.1806  
G01 X-1.7894 Y1.1937  
G01 X-1.7965 Y1.2107  
G01 X-1.7965 Y1.2292  
G01 X-1.7894 Y1.2463  
G01 X-1.7763 Y1.2594  
G01 X-1.7592 Y1.2665  
G01 X-1.7407 Y1.2665  
G01 X-1.7237 Y1.2594  
G01 X-1.7106 Y1.2463  
G01 X-1.7035 Y1.2292  
G01 X-1.7035 Y1.2115  
G01 X-1.5152 Y1.2115  
G01 X-1.5085 Y1.2048  
G01 X-1.5063 Y1.2025  
G01 X-1.5043 Y1.2045  
G01 X-1.4757 Y1.2045  
G01 X-1.4555 Y1.1843  
G01 X-1.4555 Y1.1557  
G01 X-1.4757 Y1.1355  
G01 X-1.4785 Y1.1355  
G01 X-1.4785 Y1.1348  
G01 X-1.3450 Y1.0013  
G01 X-1.3448 Y1.0015  
G01 X-1.3352 Y1.0015  
G01 X-0.5445 Y1.0015  
G01 X-0.5445 Y1.0143  
G01 X-0.5243 Y1.0345  
G01 X-0.4957 Y1.0345  
G01 X-0.4755 Y1.0143  
G01 X-0.4755 Y0.9857  
G01 X-0.4957 Y0.9655  
G01 X-0.5243 Y0.9655  
G01 X-0.5373 Y0.9785  
G01 X-1.3335 Y0.9785  
G01 X-1.3335 Y0.9517  
G01 X-1.3302 Y0.9595  
G01 X-1.3205 Y0.9692  
G01 X-1.3079 Y0.9745  
G01 X-1.2321 Y0.9745  
G01 X-1.2195 Y0.9692  
G01 X-1.2098 Y0.9595  
G01 X-1.2064 Y0.9515  
G01 X-0.4695 Y0.9515  
G01 X-0.4693 Y0.9517  
G01 X-0.4648 Y0.9515  
G01 X-0.4602 Y0.9515  
G01 X-0.4601 Y0.9513  
G01 X-0.4598 Y0.9513  
G01 X-0.4567 Y0.9480  
G01 X-0.4535 Y0.9448  
G01 X-0.4535 Y0.9445  
G01 X-0.3300 Y0.8115  
G01 X-0.3285 Y0.8115  
G01 X-0.3285 Y0.8159  
G01 X-0.3059 Y0.8385  
G01 X-0.2741 Y0.8385  
G01 X-0.2515 Y0.8159  
G01 X-0.2515 Y0.7841  
G01 X-0.2741 Y0.7615  
G01 X-0.3059 Y0.7615  
G01 X-0.3285 Y0.7841  
G01 X-0.3285 Y0.7885  
G01 X-0.3305 Y0.7885  
G01 X-0.3307 Y0.7883  
G01 X-0.3352 Y0.7885  
G01 X-0.3398 Y0.7885  
G01 X-0.3399 Y0.7887  
G01 X-0.3402 Y0.7887  
G01 X-0.3433 Y0.7920  
G01 X-0.3465 Y0.7952  
G01 X-0.3465 Y0.7955  
G01 X-0.4700 Y0.9285  
G01 X-1.2064 Y0.9285  
G01 X-1.2098 Y0.9205  
G01 X-1.2195 Y0.9108  
G01 X-1.2321 Y0.9055  
G01 X-1.3079 Y0.9055  
G01 X-1.3205 Y0.9108  
G01 X-1.3302 Y0.9205  
G01 X-1.3335 Y0.9283  
G01 X-1.3335 Y0.8517  
G01 X-1.3302 Y0.8595  
G01 X-1.3205 Y0.8692  
G01 X-1.3079 Y0.8745  
G01 X-1.2321 Y0.8745  
G01 X-1.2195 Y0.8692  
G01 X-1.2098 Y0.8595  
G01 X-1.2089 Y0.8574  
G01 X-1.1548 Y0.9115  
G01 X-1.1452 Y0.9115  
G01 X-0.4952 Y0.9115  
G01 X-0.4885 Y0.9048  
G01 X-0.3452 Y0.7615  
G01 X-0.2448 Y0.7615  
G01 X-0.2254 Y0.7809  
G01 X-0.2285 Y0.7841  
G01 X-0.2285 Y0.8159  
G01 X-0.2059 Y0.8385  
G01 X-0.1741 Y0.8385  
G01 X-0.1515 Y0.8159  
G01 X-0.1515 Y0.7841  
G01 X-0.1741 Y0.7615  
G01 X-0.2059 Y0.7615  
G01 X-0.2091 Y0.7646  
G01 X-0.2285 Y0.7452  
G01 X-0.2352 Y0.7385  
G01 X-0.3452 Y0.7385  
G01 X-0.3548 Y0.7385  
G01 X-0.5048 Y0.8885  
G01 X-1.1452 Y0.8885  
G01 X-1.1985 Y0.8352  
G01 X-1.2052 Y0.8285  
G01 X-1.2064 Y0.8285  
G01 X-1.2098 Y0.8205  
G01 X-1.2195 Y0.8108  
G01 X-1.2321 Y0.8055  
G01 X-1.3079 Y0.8055  
G01 X-1.3205 Y0.8108  
G01 X-1.3302 Y0.8205  
G01 X-1.3335 Y0.8283  
G01 X-1.3335 Y0.8098  
G01 X-1.3252 Y0.8015  
G01 X-1.1998 Y0.8015  
G01 X-1.1765 Y0.8248  
G01 X-1.1698 Y0.8315  
G01 X-0.9547 Y0.8315  
G01 X-0.9547 Y0.8579  
G01 X-0.9495 Y0.8706  
G01 X-0.9398 Y0.8803  
G01 X-0.9271 Y0.8856  
G01 X-0.9134 Y0.8856  
G01 X-0.9007 Y0.8803  
G01 X-0.8910 Y0.8706  
G01 X-0.8857 Y0.8579  
G00 Z0.1000  
G00 X-1.5321 Y0.3055  
G01 Z-0.0070 F10    
G01 X-1.5882 Y0.3055  F20    
G01 X-1.7415 Y0.1523  
G01 X-1.7441 Y0.1490  
G01 X-1.7448 Y0.1490  
G01 X-1.7452 Y0.1485  
G01 X-1.7494 Y0.1485  
G01 X-1.7845 Y0.1450  
G01 X-1.7845 Y0.1431  
G01 X-1.7898 Y0.1305  
G01 X-1.7995 Y0.1208  
G01 X-1.8121 Y0.1155  
G01 X-1.8879 Y0.1155  
G01 X-1.9005 Y0.1208  
G01 X-1.9102 Y0.1305  
G01 X-1.9155 Y0.1431  
G01 X-1.9155 Y0.1569  
G01 X-1.9151 Y0.1578  
G01 X-1.9743 Y0.2085  
G01 X-1.9748 Y0.2085  
G01 X-1.9778 Y0.2116  
G01 X-1.9811 Y0.2144  
G01 X-1.9811 Y0.2149  
G01 X-1.9815 Y0.2152  
G01 X-1.9815 Y0.2196  
G01 X-1.9818 Y0.2239  
G01 X-1.9815 Y0.2243  
G01 X-1.9815 Y0.3957  
G01 X-2.0254 Y0.4458  
G01 X-2.0257 Y0.4455  
G01 X-2.0543 Y0.4455  
G01 X-2.0745 Y0.4657  
G01 X-2.0745 Y0.4943  
G01 X-2.0543 Y0.5145  
G01 X-2.0257 Y0.5145  
G01 X-2.0055 Y0.4943  
G01 X-2.0055 Y0.4657  
G01 X-2.0091 Y0.4621  
G01 X-1.9616 Y0.4079  
G01 X-1.9585 Y0.4048  
G01 X-1.9585 Y0.4043  
G01 X-1.9582 Y0.4040  
G01 X-1.9585 Y0.3996  
G01 X-1.9585 Y0.2253  
G01 X-1.9025 Y0.1773  
G01 X-1.9005 Y0.1792  
G01 X-1.8879 Y0.1845  
G01 X-1.8121 Y0.1845  
G01 X-1.7995 Y0.1792  
G01 X-1.7898 Y0.1695  
G01 X-1.7890 Y0.1677  
G01 X-1.7552 Y0.1710  
G01 X-1.6170 Y0.3093  
G01 X-1.6205 Y0.3108  
G01 X-1.6302 Y0.3205  
G01 X-1.6355 Y0.3331  
G01 X-1.6355 Y0.3469  
G01 X-1.6302 Y0.3595  
G01 X-1.6205 Y0.3692  
G01 X-1.6079 Y0.3745  
G01 X-1.5321 Y0.3745  
G01 X-1.5195 Y0.3692  
G01 X-1.5098 Y0.3595  
G01 X-1.5045 Y0.3469  
G01 X-1.5045 Y0.3331  
G01 X-1.5098 Y0.3205  
G01 X-1.5195 Y0.3108  
G01 X-1.5321 Y0.3055  
G00 Z0.1000  
G00 X-1.5321 Y0.4055  
G01 Z-0.0070 F10    
G01 X-1.6079 Y0.4055  F20    
G01 X-1.6205 Y0.4108  
G01 X-1.6302 Y0.4205  
G01 X-1.6336 Y0.4285  
G01 X-1.6352 Y0.4285  
G01 X-1.7920 Y0.2718  
G01 X-1.7898 Y0.2695  
G01 X-1.7845 Y0.2569  
G01 X-1.7845 Y0.2431  
G01 X-1.7898 Y0.2305  
G01 X-1.7995 Y0.2208  
G01 X-1.8121 Y0.2155  
G01 X-1.8879 Y0.2155  
G01 X-1.9005 Y0.2208  
G01 X-1.9102 Y0.2305  
G01 X-1.9155 Y0.2431  
G01 X-1.9155 Y0.2569  
G01 X-1.9154 Y0.2570  
G01 X-1.9343 Y0.2735  
G01 X-1.9348 Y0.2735  
G01 X-1.9379 Y0.2766  
G01 X-1.9412 Y0.2795  
G01 X-1.9412 Y0.2799  
G01 X-1.9415 Y0.2802  
G01 X-1.9415 Y0.2846  
G01 X-1.9418 Y0.2890  
G01 X-1.9415 Y0.2893  
G01 X-1.9415 Y0.4527  
G01 X-1.9545 Y0.4657  
G01 X-1.9545 Y0.4943  
G01 X-1.9343 Y0.5145  
G01 X-1.9057 Y0.5145  
G01 X-1.8855 Y0.4943  
G01 X-1.8855 Y0.4657  
G01 X-1.9057 Y0.4455  
G01 X-1.9185 Y0.4455  
G01 X-1.9185 Y0.2902  
G01 X-1.9031 Y0.2767  
G01 X-1.9005 Y0.2792  
G01 X-1.8879 Y0.2845  
G01 X-1.8121 Y0.2845  
G01 X-1.8119 Y0.2844  
G01 X-1.6448 Y0.4515  
G01 X-1.6352 Y0.4515  
G01 X-1.6336 Y0.4515  
G01 X-1.6302 Y0.4595  
G01 X-1.6205 Y0.4692  
G01 X-1.6079 Y0.4745  
G01 X-1.5321 Y0.4745  
G01 X-1.5195 Y0.4692  
G01 X-1.5098 Y0.4595  
G01 X-1.5045 Y0.4469  
G01 X-1.5045 Y0.4331  
G01 X-1.5098 Y0.4205  
G01 X-1.5195 Y0.4108  
G01 X-1.5321 Y0.4055  
G00 Z0.1000  
G00 X-1.5321 Y0.5055  
G01 Z-0.0070 F10    
G01 X-1.6079 Y0.5055  F20    
G01 X-1.6205 Y0.5108  
G01 X-1.6268 Y0.5170  
G01 X-1.6685 Y0.4752  
G01 X-1.6752 Y0.4685  
G01 X-1.7655 Y0.4685  
G01 X-1.7655 Y0.4657  
G01 X-1.7857 Y0.4455  
G01 X-1.8082 Y0.4455  
G01 X-1.8385 Y0.4152  
G01 X-1.8385 Y0.3845  
G01 X-1.8121 Y0.3845  
G01 X-1.7995 Y0.3792  
G01 X-1.7898 Y0.3695  
G01 X-1.7845 Y0.3569  
G01 X-1.7845 Y0.3431  
G01 X-1.7898 Y0.3305  
G01 X-1.7995 Y0.3208  
G01 X-1.8121 Y0.3155  
G01 X-1.8879 Y0.3155  
G01 X-1.9005 Y0.3208  
G01 X-1.9102 Y0.3305  
G01 X-1.9155 Y0.3431  
G01 X-1.9155 Y0.3569  
G01 X-1.9102 Y0.3695  
G01 X-1.9005 Y0.3792  
G01 X-1.8879 Y0.3845  
G01 X-1.8615 Y0.3845  
G01 X-1.8615 Y0.4248  
G01 X-1.8548 Y0.4315  
G01 X-1.8275 Y0.4587  
G01 X-1.8345 Y0.4657  
G01 X-1.8345 Y0.4943  
G01 X-1.8143 Y0.5145  
G01 X-1.7857 Y0.5145  
G01 X-1.7655 Y0.4943  
G01 X-1.7655 Y0.4915  
G01 X-1.6848 Y0.4915  
G01 X-1.6355 Y0.5408  
G01 X-1.6355 Y0.5469  
G01 X-1.6302 Y0.5595  
G01 X-1.6205 Y0.5692  
G01 X-1.6079 Y0.5745  
G01 X-1.5321 Y0.5745  
G01 X-1.5195 Y0.5692  
G01 X-1.5098 Y0.5595  
G01 X-1.5045 Y0.5469  
G01 X-1.5045 Y0.5331  
G01 X-1.5098 Y0.5205  
G01 X-1.5195 Y0.5108  
G01 X-1.5321 Y0.5055  
G00 Z0.1000  
G00 X-1.5321 Y0.7055  
G01 Z-0.0070 F10    
G01 X-1.6079 Y0.7055  F20    
G01 X-1.6205 Y0.7108  
G01 X-1.6302 Y0.7205  
G01 X-1.6315 Y0.7235  
G01 X-1.6402 Y0.7235  
G01 X-1.6485 Y0.7152  
G01 X-1.6485 Y0.5752  
G01 X-1.6552 Y0.5685  
G01 X-1.6852 Y0.5385  
G01 X-1.6948 Y0.5385  
G01 X-2.0652 Y0.5385  
G01 X-2.0985 Y0.5052  
G01 X-2.0985 Y0.4698  
G01 X-2.0552 Y0.4265  
G01 X-2.0252 Y0.4265  
G01 X-2.0185 Y0.4198  
G01 X-1.9985 Y0.3998  
G01 X-1.9985 Y0.3902  
G01 X-1.9985 Y0.1848  
G01 X-1.9052 Y0.0915  
G01 X-0.5398 Y0.0915  
G01 X-0.2515 Y0.3798  
G01 X-0.2515 Y0.4452  
G01 X-0.2515 Y0.4548  
G01 X-0.2254 Y0.4809  
G01 X-0.2285 Y0.4841  
G01 X-0.2285 Y0.5159  
G01 X-0.2059 Y0.5385  
G01 X-0.1741 Y0.5385  
G01 X-0.1515 Y0.5159  
G01 X-0.1515 Y0.4841  
G01 X-0.1741 Y0.4615  
G01 X-0.2059 Y0.4615  
G01 X-0.2091 Y0.4646  
G01 X-0.2285 Y0.4452  
G01 X-0.2285 Y0.3798  
G01 X-0.2285 Y0.3702  
G01 X-0.5302 Y0.0685  
G01 X-0.5398 Y0.0685  
G01 X-1.9148 Y0.0685  
G01 X-1.9215 Y0.0752  
G01 X-2.0148 Y0.1685  
G01 X-2.0215 Y0.1752  
G01 X-2.0215 Y0.3902  
G01 X-2.0348 Y0.4035  
G01 X-2.0552 Y0.4035  
G01 X-2.0648 Y0.4035  
G01 X-2.1215 Y0.4602  
G01 X-2.1215 Y0.4698  
G01 X-2.1215 Y0.5148  
G01 X-2.1148 Y0.5215  
G01 X-2.0815 Y0.5548  
G01 X-2.0748 Y0.5615  
G01 X-1.6948 Y0.5615  
G01 X-1.6715 Y0.5848  
G01 X-1.6715 Y0.7152  
G01 X-1.6715 Y0.7248  
G01 X-1.6565 Y0.7398  
G01 X-1.6498 Y0.7465  
G01 X-1.6355 Y0.7465  
G01 X-1.6355 Y0.7469  
G01 X-1.6302 Y0.7595  
G01 X-1.6205 Y0.7692  
G01 X-1.6079 Y0.7745  
G01 X-1.5321 Y0.7745  
G01 X-1.5195 Y0.7692  
G01 X-1.5098 Y0.7595  
G01 X-1.5065 Y0.7517  
G01 X-1.5065 Y0.7773  
G01 X-1.5071 Y0.7785  
G01 X-1.6252 Y0.7785  
G01 X-1.6348 Y0.7785  
G01 X-1.6548 Y0.7985  
G01 X-1.6615 Y0.8052  
G01 X-1.6615 Y0.8552  
G01 X-1.6615 Y0.8648  
G01 X-1.6315 Y0.8948  
G01 X-1.6248 Y0.9015  
G01 X-1.4945 Y0.9015  
G01 X-1.4943 Y0.9017  
G01 X-1.4897 Y0.9015  
G01 X-1.4852 Y0.9015  
G01 X-1.4850 Y0.9013  
G01 X-1.4847 Y0.9013  
G01 X-1.4817 Y0.8980  
G01 X-1.4785 Y0.8948  
G01 X-1.4785 Y0.8945  
G01 X-1.4267 Y0.8379  
G01 X-1.4235 Y0.8348  
G01 X-1.4235 Y0.8345  
G01 X-1.4233 Y0.8343  
G01 X-1.4235 Y0.8297  
G01 X-1.4235 Y0.6208  
G01 X-1.4229 Y0.6169  
G01 X-1.4235 Y0.6162  
G01 X-1.4235 Y0.6152  
G01 X-1.4263 Y0.6124  
G01 X-1.4385 Y0.5962  
G01 X-1.4385 Y0.1748  
G01 X-1.4152 Y0.1515  
G01 X-0.6148 Y0.1515  
G01 X-0.3915 Y0.3748  
G01 X-0.3915 Y0.4052  
G01 X-0.3915 Y0.4148  
G01 X-0.3254 Y0.4809  
G01 X-0.3285 Y0.4841  
G01 X-0.3285 Y0.5159  
G01 X-0.3059 Y0.5385  
G01 X-0.2741 Y0.5385  
G01 X-0.2515 Y0.5159  
G01 X-0.2515 Y0.4841  
G01 X-0.2741 Y0.4615  
G01 X-0.3059 Y0.4615  
G01 X-0.3091 Y0.4646  
G01 X-0.3685 Y0.4052  
G01 X-0.3685 Y0.3652  
G01 X-0.3752 Y0.3585  
G01 X-0.5985 Y0.1352  
G01 X-0.6052 Y0.1285  
G01 X-1.4248 Y0.1285  
G01 X-1.4315 Y0.1352  
G01 X-1.4615 Y0.1652  
G01 X-1.4615 Y0.1748  
G01 X-1.4615 Y0.5992  
G01 X-1.4621 Y0.6031  
G01 X-1.4615 Y0.6038  
G01 X-1.4615 Y0.6048  
G01 X-1.4587 Y0.6076  
G01 X-1.4465 Y0.6238  
G01 X-1.4465 Y0.8255  
G01 X-1.4951 Y0.8785  
G01 X-1.6152 Y0.8785  
G01 X-1.6385 Y0.8552  
G01 X-1.6385 Y0.8148  
G01 X-1.6252 Y0.8015  
G01 X-1.5027 Y0.8015  
G01 X-1.5009 Y0.8024  
G01 X-1.4981 Y0.8015  
G01 X-1.4952 Y0.8015  
G01 X-1.4938 Y0.8000  
G01 X-1.4918 Y0.7994  
G01 X-1.4905 Y0.7968  
G01 X-1.4885 Y0.7948  
G01 X-1.4885 Y0.7927  
G01 X-1.4855 Y0.7868  
G01 X-1.4835 Y0.7848  
G01 X-1.4835 Y0.7827  
G01 X-1.4826 Y0.7809  
G01 X-1.4835 Y0.7781  
G01 X-1.4835 Y0.6705  
G01 X-1.4831 Y0.6663  
G01 X-1.4835 Y0.6658  
G01 X-1.4835 Y0.6652  
G01 X-1.4865 Y0.6622  
G01 X-1.5045 Y0.6406  
G01 X-1.5045 Y0.6331  
G01 X-1.5098 Y0.6205  
G01 X-1.5195 Y0.6108  
G01 X-1.5321 Y0.6055  
G01 X-1.6079 Y0.6055  
G01 X-1.6205 Y0.6108  
G01 X-1.6302 Y0.6205  
G01 X-1.6355 Y0.6331  
G01 X-1.6355 Y0.6469  
G01 X-1.6302 Y0.6595  
G01 X-1.6205 Y0.6692  
G01 X-1.6079 Y0.6745  
G01 X-1.5321 Y0.6745  
G01 X-1.5195 Y0.6692  
G01 X-1.5146 Y0.6644  
G01 X-1.5065 Y0.6742  
G01 X-1.5065 Y0.7283  
G01 X-1.5098 Y0.7205  
G01 X-1.5195 Y0.7108  
G01 X-1.5321 Y0.7055  
G00 Z0.1000  
G00 X-1.5321 Y0.8055  
G01 Z-0.0070 F10    
G01 X-1.6079 Y0.8055  F20    
G01 X-1.6205 Y0.8108  
G01 X-1.6302 Y0.8205  
G01 X-1.6355 Y0.8331  
G01 X-1.6355 Y0.8469  
G01 X-1.6302 Y0.8595  
G01 X-1.6205 Y0.8692  
G01 X-1.6079 Y0.8745  
G01 X-1.5321 Y0.8745  
G01 X-1.5195 Y0.8692  
G01 X-1.5098 Y0.8595  
G01 X-1.5064 Y0.8515  
G01 X-1.5043 Y0.8515  
G01 X-1.5040 Y0.8518  
G01 X-1.4996 Y0.8515  
G01 X-1.4952 Y0.8515  
G01 X-1.4949 Y0.8512  
G01 X-1.4945 Y0.8512  
G01 X-1.4916 Y0.8479  
G01 X-1.4885 Y0.8448  
G01 X-1.4885 Y0.8443  
G01 X-1.4566 Y0.8079  
G01 X-1.4535 Y0.8048  
G01 X-1.4535 Y0.8043  
G01 X-1.4532 Y0.8040  
G01 X-1.4535 Y0.7996  
G01 X-1.4535 Y0.6505  
G01 X-1.4531 Y0.6463  
G01 X-1.4535 Y0.6458  
G01 X-1.4535 Y0.6452  
G01 X-1.4565 Y0.6422  
G01 X-1.4785 Y0.6158  
G01 X-1.4785 Y0.1448  
G01 X-1.4552 Y0.1215  
G01 X-0.5848 Y0.1215  
G01 X-0.3254 Y0.3809  
G01 X-0.3285 Y0.3841  
G01 X-0.3285 Y0.4159  
G01 X-0.3059 Y0.4385  
G01 X-0.2741 Y0.4385  
G01 X-0.2515 Y0.4159  
G01 X-0.2515 Y0.3841  
G01 X-0.2741 Y0.3615  
G01 X-0.3059 Y0.3615  
G01 X-0.3091 Y0.3646  
G01 X-0.5685 Y0.1052  
G01 X-0.5752 Y0.0985  
G01 X-1.4552 Y0.0985  
G01 X-1.4648 Y0.0985  
G01 X-1.5015 Y0.1352  
G01 X-1.5015 Y0.1448  
G01 X-1.5015 Y0.6195  
G01 X-1.5019 Y0.6237  
G01 X-1.5015 Y0.6242  
G01 X-1.5015 Y0.6248  
G01 X-1.4985 Y0.6278  
G01 X-1.4765 Y0.6542  
G01 X-1.4765 Y0.7957  
G01 X-1.5052 Y0.8285  
G01 X-1.5064 Y0.8285  
G01 X-1.5098 Y0.8205  
G01 X-1.5195 Y0.8108  
G01 X-1.5321 Y0.8055  
G00 Z0.1000  
G00 X-1.2321 Y0.6055  
G01 Z-0.0070 F10    
G01 X-1.3079 Y0.6055  F20    
G01 X-1.3205 Y0.6108  
G01 X-1.3302 Y0.6205  
G01 X-1.3355 Y0.6331  
G01 X-1.3355 Y0.6469  
G01 X-1.3302 Y0.6595  
G01 X-1.3205 Y0.6692  
G01 X-1.3079 Y0.6745  
G01 X-1.2321 Y0.6745  
G01 X-1.2195 Y0.6692  
G01 X-1.2098 Y0.6595  
G01 X-1.2045 Y0.6469  
G01 X-1.2045 Y0.6415  
G01 X-0.9154 Y0.6415  
G01 X-0.9154 Y0.6778  
G01 X-0.9101 Y0.6905  
G01 X-0.9004 Y0.7002  
G01 X-0.8877 Y0.7054  
G01 X-0.8740 Y0.7054  
G01 X-0.8613 Y0.7002  
G01 X-0.8516 Y0.6905  
G01 X-0.8464 Y0.6778  
G01 X-0.8464 Y0.6021  
G01 X-0.8516 Y0.5894  
G01 X-0.8613 Y0.5797  
G01 X-0.8740 Y0.5744  
G01 X-0.8877 Y0.5744  
G01 X-0.9004 Y0.5797  
G01 X-0.9101 Y0.5894  
G01 X-0.9154 Y0.6021  
G01 X-0.9154 Y0.6185  
G01 X-1.2117 Y0.6185  
G01 X-1.2195 Y0.6108  
G01 X-1.2321 Y0.6055  
G00 Z0.1000  
G00 X-0.3285 Y0.6841  
G01 Z-0.0070 F10    
G01 X-0.3285 Y0.7159  F20    
G01 X-0.3059 Y0.7385  
G01 X-0.2741 Y0.7385  
G01 X-0.2515 Y0.7159  
G01 X-0.2515 Y0.6841  
G01 X-0.2741 Y0.6615  
G01 X-0.3059 Y0.6615  
G01 X-0.3285 Y0.6841  
G00 Z0.1000  
G00 X-0.3285 Y0.5841  
G01 Z-0.0070 F10    
G01 X-0.3285 Y0.6159  F20    
G01 X-0.3059 Y0.6385  
G01 X-0.2741 Y0.6385  
G01 X-0.2515 Y0.6159  
G01 X-0.2515 Y0.5841  
G01 X-0.2741 Y0.5615  
G01 X-0.3059 Y0.5615  
G01 X-0.3285 Y0.5841  
G00 Z0.1000  
G00 X-0.2285 Y0.8841  
G01 Z-0.0070 F10    
G01 X-0.2285 Y0.9159  F20    
G01 X-0.2254 Y0.9191  
G01 X-0.2448 Y0.9385  
G01 X-0.4348 Y0.9385  
G01 X-0.4415 Y0.9452  
G01 X-0.4715 Y0.9752  
G01 X-0.4715 Y0.9848  
G01 X-0.4715 Y1.0152  
G01 X-0.4948 Y1.0385  
G01 X-1.2045 Y1.0385  
G01 X-1.2045 Y1.0331  
G01 X-1.2098 Y1.0205  
G01 X-1.2195 Y1.0108  
G01 X-1.2321 Y1.0055  
G01 X-1.3079 Y1.0055  
G01 X-1.3205 Y1.0108  
G01 X-1.3302 Y1.0205  
G01 X-1.3355 Y1.0331  
G01 X-1.3355 Y1.0469  
G01 X-1.3302 Y1.0595  
G01 X-1.3205 Y1.0692  
G01 X-1.3079 Y1.0745  
G01 X-1.2321 Y1.0745  
G01 X-1.2195 Y1.0692  
G01 X-1.2117 Y1.0615  
G01 X-0.4948 Y1.0615  
G01 X-0.4852 Y1.0615  
G01 X-0.4552 Y1.0315  
G01 X-0.4485 Y1.0248  
G01 X-0.4485 Y0.9848  
G01 X-0.4252 Y0.9615  
G01 X-0.2448 Y0.9615  
G01 X-0.2352 Y0.9615  
G01 X-0.2091 Y0.9354  
G01 X-0.2059 Y0.9385  
G01 X-0.1741 Y0.9385  
G01 X-0.1515 Y0.9159  
G01 X-0.1515 Y0.8841  
G01 X-0.1741 Y0.8615  
G01 X-0.2059 Y0.8615  
G01 X-0.2285 Y0.8841  
G00 Z0.1000  
G00 X-0.2285 Y0.6841  
G01 Z-0.0070 F10    
G01 X-0.2285 Y0.7159  F20    
G01 X-0.2059 Y0.7385  
G01 X-0.1741 Y0.7385  
G01 X-0.1515 Y0.7159  
G01 X-0.1515 Y0.6841  
G01 X-0.1741 Y0.6615  
G01 X-0.2059 Y0.6615  
G01 X-0.2285 Y0.6841  
G00 Z0.1000  
G00 X-0.2285 Y0.5841  
G01 Z-0.0070 F10    
G01 X-0.2285 Y0.6159  F20    
G01 X-0.2059 Y0.6385  
G01 X-0.1741 Y0.6385  
G01 X-0.1515 Y0.6159  
G01 X-0.1515 Y0.5841  
G01 X-0.1741 Y0.5615  
G01 X-0.2059 Y0.5615  
G01 X-0.2285 Y0.5841  
G00 Z0.1000  
G00 X-0.2285 Y0.3841  
G01 Z-0.0070 F10    
G01 X-0.2285 Y0.4159  F20    
G01 X-0.2059 Y0.4385  
G01 X-0.1741 Y0.4385  
G01 X-0.1515 Y0.4159  
G01 X-0.1515 Y0.3841  
G01 X-0.1741 Y0.3615  
G01 X-0.1822 Y0.3615  
G01 X-0.4985 Y0.0452  
G01 X-0.5052 Y0.0385  
G01 X-2.0498 Y0.0385  
G01 X-2.0565 Y0.0452  
G01 X-2.0698 Y0.0585  
G01 X-2.0765 Y0.0652  
G01 X-2.0765 Y0.3740  
G01 X-2.1536 Y0.4285  
G01 X-2.1548 Y0.4285  
G01 X-2.1574 Y0.4312  
G01 X-2.1605 Y0.4334  
G01 X-2.1607 Y0.4344  
G01 X-2.1615 Y0.4352  
G01 X-2.1615 Y0.4390  
G01 X-2.1621 Y0.4427  
G01 X-2.1615 Y0.4436  
G01 X-2.1615 Y0.5252  
G01 X-2.1615 Y0.5348  
G01 X-2.0948 Y0.6015  
G01 X-2.0852 Y0.6015  
G01 X-1.7548 Y0.6015  
G01 X-1.7215 Y0.6348  
G01 X-1.7215 Y0.9148  
G01 X-1.7148 Y0.9215  
G01 X-1.6915 Y0.9448  
G01 X-1.6848 Y0.9515  
G01 X-1.6336 Y0.9515  
G01 X-1.6302 Y0.9595  
G01 X-1.6205 Y0.9692  
G01 X-1.6079 Y0.9745  
G01 X-1.5321 Y0.9745  
G01 X-1.5195 Y0.9692  
G01 X-1.5098 Y0.9595  
G01 X-1.5045 Y0.9469  
G01 X-1.5045 Y0.9331  
G01 X-1.5098 Y0.9205  
G01 X-1.5195 Y0.9108  
G01 X-1.5321 Y0.9055  
G01 X-1.6079 Y0.9055  
G01 X-1.6205 Y0.9108  
G01 X-1.6302 Y0.9205  
G01 X-1.6336 Y0.9285  
G01 X-1.6752 Y0.9285  
G01 X-1.6985 Y0.9052  
G01 X-1.6985 Y0.6348  
G01 X-1.6985 Y0.6252  
G01 X-1.7385 Y0.5852  
G01 X-1.7452 Y0.5785  
G01 X-2.0852 Y0.5785  
G01 X-2.1385 Y0.5252  
G01 X-2.1385 Y0.4460  
G01 X-2.0614 Y0.3915  
G01 X-2.0602 Y0.3915  
G01 X-2.0576 Y0.3888  
G01 X-2.0545 Y0.3866  
G01 X-2.0543 Y0.3856  
G01 X-2.0535 Y0.3848  
G01 X-2.0535 Y0.3810  
G01 X-2.0529 Y0.3773  
G01 X-2.0535 Y0.3764  
G01 X-2.0535 Y0.0748  
G01 X-2.0402 Y0.0615  
G01 X-0.5148 Y0.0615  
G01 X-0.2104 Y0.3659  
G01 X-0.2285 Y0.3841  
G00 Z0.1000  
G00 X-0.8379 Y0.4045  
G01 Z-0.0070 F10    
G01 X-0.7621 Y0.4045  F20    
G01 X-0.7495 Y0.3992  
G01 X-0.7457 Y0.3955  
G01 X-0.6998 Y0.4415  
G01 X-0.6902 Y0.4415  
G01 X-0.5598 Y0.4415  
G01 X-0.4915 Y0.5098  
G01 X-0.4915 Y0.5148  
G01 X-0.4848 Y0.5215  
G01 X-0.3448 Y0.6615  
G01 X-0.3352 Y0.6615  
G01 X-0.1738 Y0.6615  
G01 X-0.1415 Y0.6857  
G01 X-0.1415 Y0.8142  
G01 X-0.1738 Y0.8385  
G01 X-0.2352 Y0.8385  
G01 X-0.2448 Y0.8385  
G01 X-0.2709 Y0.8646  
G01 X-0.2741 Y0.8615  
G01 X-0.3059 Y0.8615  
G01 X-0.3285 Y0.8841  
G01 X-0.3285 Y0.9159  
G01 X-0.3059 Y0.9385  
G01 X-0.2741 Y0.9385  
G01 X-0.2515 Y0.9159  
G01 X-0.2515 Y0.8841  
G01 X-0.2546 Y0.8809  
G01 X-0.2352 Y0.8615  
G01 X-0.1708 Y0.8615  
G01 X-0.1669 Y0.8621  
G01 X-0.1662 Y0.8615  
G01 X-0.1652 Y0.8615  
G01 X-0.1624 Y0.8587  
G01 X-0.1262 Y0.8315  
G01 X-0.1252 Y0.8315  
G01 X-0.1224 Y0.8287  
G01 X-0.1193 Y0.8263  
G01 X-0.1192 Y0.8254  
G01 X-0.1185 Y0.8248  
G01 X-0.1185 Y0.8208  
G01 X-0.1179 Y0.8169  
G01 X-0.1185 Y0.8162  
G01 X-0.1185 Y0.6838  
G01 X-0.1179 Y0.6831  
G01 X-0.1185 Y0.6792  
G01 X-0.1185 Y0.6752  
G01 X-0.1192 Y0.6746  
G01 X-0.1193 Y0.6737  
G01 X-0.1224 Y0.6713  
G01 X-0.1252 Y0.6685  
G01 X-0.1262 Y0.6685  
G01 X-0.1624 Y0.6413  
G01 X-0.1652 Y0.6385  
G01 X-0.1662 Y0.6385  
G01 X-0.1669 Y0.6379  
G01 X-0.1708 Y0.6385  
G01 X-0.3352 Y0.6385  
G01 X-0.4685 Y0.5052  
G01 X-0.4685 Y0.5002  
G01 X-0.5435 Y0.4252  
G01 X-0.5502 Y0.4185  
G01 X-0.6902 Y0.4185  
G01 X-0.7345 Y0.3742  
G01 X-0.7345 Y0.3631  
G01 X-0.7398 Y0.3505  
G01 X-0.7495 Y0.3408  
G01 X-0.7621 Y0.3355  
G01 X-0.8379 Y0.3355  
G01 X-0.8505 Y0.3408  
G01 X-0.8602 Y0.3505  
G01 X-0.8655 Y0.3631  
G01 X-0.8655 Y0.3769  
G01 X-0.8602 Y0.3895  
G01 X-0.8505 Y0.3992  
G01 X-0.8379 Y0.4045  
G00 Z0.1000  
G00 X-2.3535 Y1.0078  
G01 Z-0.0070 F10    
G01 X-2.3535 Y1.0522  F20    
G01 X-2.3222 Y1.0835  
G01 X-2.2778 Y1.0835  
G01 X-2.2465 Y1.0522  
G01 X-2.2465 Y1.0498  
G01 X-2.1815 Y1.1148  
G01 X-2.1748 Y1.1215  
G01 X-2.1648 Y1.1215  
G01 X-2.1215 Y1.1648  
G01 X-2.1148 Y1.1715  
G01 X-1.9248 Y1.1715  
G01 X-1.9152 Y1.1715  
G01 X-1.7752 Y1.0315  
G01 X-1.7248 Y1.0315  
G01 X-1.6448 Y1.1115  
G01 X-1.6352 Y1.1115  
G01 X-1.5052 Y1.1115  
G01 X-1.4985 Y1.1048  
G01 X-1.4685 Y1.0748  
G01 X-1.4685 Y1.0652  
G01 X-1.4685 Y1.0446  
G01 X-1.3669 Y0.9381  
G01 X-1.3635 Y0.9348  
G01 X-1.3635 Y0.9346  
G01 X-1.3634 Y0.9345  
G01 X-1.3635 Y0.9299  
G01 X-1.3635 Y0.7753  
G01 X-1.3357 Y0.7515  
G01 X-1.3336 Y0.7515  
G01 X-1.3302 Y0.7595  
G01 X-1.3205 Y0.7692  
G01 X-1.3079 Y0.7745  
G01 X-1.2321 Y0.7745  
G01 X-1.2195 Y0.7692  
G01 X-1.2098 Y0.7595  
G01 X-1.2045 Y0.7469  
G01 X-1.2045 Y0.7331  
G01 X-1.2098 Y0.7205  
G01 X-1.2195 Y0.7108  
G01 X-1.2321 Y0.7055  
G01 X-1.3079 Y0.7055  
G01 X-1.3205 Y0.7108  
G01 X-1.3302 Y0.7205  
G01 X-1.3336 Y0.7285  
G01 X-1.3396 Y0.7285  
G01 X-1.3439 Y0.7282  
G01 X-1.3443 Y0.7285  
G01 X-1.3448 Y0.7285  
G01 X-1.3478 Y0.7316  
G01 X-1.3793 Y0.7585  
G01 X-1.3798 Y0.7585  
G01 X-1.3828 Y0.7616  
G01 X-1.3861 Y0.7644  
G01 X-1.3861 Y0.7649  
G01 X-1.3865 Y0.7652  
G01 X-1.3865 Y0.7696  
G01 X-1.3868 Y0.7739  
G01 X-1.3865 Y0.7743  
G01 X-1.3865 Y0.9254  
G01 X-1.4881 Y1.0319  
G01 X-1.4915 Y1.0352  
G01 X-1.4915 Y1.0354  
G01 X-1.4916 Y1.0355  
G01 X-1.4915 Y1.0401  
G01 X-1.4915 Y1.0652  
G01 X-1.5148 Y1.0885  
G01 X-1.6352 Y1.0885  
G01 X-1.7085 Y1.0152  
G01 X-1.7152 Y1.0085  
G01 X-1.7752 Y1.0085  
G01 X-1.7848 Y1.0085  
G01 X-1.9248 Y1.1485  
G01 X-2.1052 Y1.1485  
G01 X-2.1485 Y1.1052  
G01 X-2.1552 Y1.0985  
G01 X-2.1652 Y1.0985  
G01 X-2.2385 Y1.0252  
G01 X-2.2452 Y1.0185  
G01 X-2.2465 Y1.0185  
G01 X-2.2465 Y1.0078  
G01 X-2.2778 Y0.9765  
G01 X-2.3222 Y0.9765  
G01 X-2.3535 Y1.0078  
G00 Z0.1000  
G00 X-0.1702 Y0.5376  
G01 Z-0.0070 F10    
G01 X-0.1724 Y0.5385  F20    
G01 X-0.3302 Y0.5385  
G01 X-0.5135 Y0.3552  
G01 X-0.5202 Y0.3485  
G01 X-0.6502 Y0.3485  
G01 X-0.6935 Y0.3052  
G01 X-0.7002 Y0.2985  
G01 X-0.9252 Y0.2985  
G01 X-0.9348 Y0.2985  
G01 X-0.9752 Y0.2985  
G01 X-1.0052 Y0.2685  
G01 X-1.0148 Y0.2685  
G01 X-1.0345 Y0.2685  
G01 X-1.0345 Y0.2631  
G01 X-1.0398 Y0.2505  
G01 X-1.0495 Y0.2408  
G01 X-1.0621 Y0.2355  
G01 X-1.1379 Y0.2355  
G01 X-1.1505 Y0.2408  
G01 X-1.1602 Y0.2505  
G01 X-1.1655 Y0.2631  
G01 X-1.1655 Y0.2769  
G01 X-1.1648 Y0.2785  
G01 X-1.2089 Y0.3226  
G01 X-1.2098 Y0.3205  
G01 X-1.2195 Y0.3108  
G01 X-1.2321 Y0.3055  
G01 X-1.2485 Y0.3055  
G01 X-1.2485 Y0.2573  
G01 X-1.2355 Y0.2443  
G01 X-1.2355 Y0.2157  
G01 X-1.2557 Y0.1955  
G01 X-1.2843 Y0.1955  
G01 X-1.3045 Y0.2157  
G01 X-1.3045 Y0.2443  
G01 X-1.2843 Y0.2645  
G01 X-1.2715 Y0.2645  
G01 X-1.2715 Y0.3055  
G01 X-1.3079 Y0.3055  
G01 X-1.3205 Y0.3108  
G01 X-1.3302 Y0.3205  
G01 X-1.3355 Y0.3331  
G01 X-1.3355 Y0.3469  
G01 X-1.3302 Y0.3595  
G01 X-1.3205 Y0.3692  
G01 X-1.3079 Y0.3745  
G01 X-1.2321 Y0.3745  
G01 X-1.2195 Y0.3692  
G01 X-1.2098 Y0.3595  
G01 X-1.2073 Y0.3535  
G01 X-1.1518 Y0.2980  
G01 X-1.1505 Y0.2992  
G01 X-1.1379 Y0.3045  
G01 X-1.0621 Y0.3045  
G01 X-1.0495 Y0.2992  
G01 X-1.0417 Y0.2915  
G01 X-1.0148 Y0.2915  
G01 X-0.9848 Y0.3215  
G01 X-0.9752 Y0.3215  
G01 X-0.9365 Y0.3215  
G01 X-0.9365 Y0.4248  
G01 X-0.9298 Y0.4315  
G01 X-0.9202 Y0.4315  
G01 X-0.8198 Y0.4315  
G01 X-0.6815 Y0.5698  
G01 X-0.6815 Y0.6852  
G01 X-0.7523 Y0.7560  
G01 X-0.7559 Y0.7546  
G01 X-0.7696 Y0.7546  
G01 X-0.7823 Y0.7598  
G01 X-0.7920 Y0.7695  
G01 X-0.7973 Y0.7822  
G01 X-0.7973 Y0.8579  
G01 X-0.7920 Y0.8706  
G01 X-0.7823 Y0.8803  
G01 X-0.7696 Y0.8856  
G01 X-0.7559 Y0.8856  
G01 X-0.7432 Y0.8803  
G01 X-0.7335 Y0.8706  
G01 X-0.7283 Y0.8579  
G01 X-0.7283 Y0.7822  
G01 X-0.7334 Y0.7697  
G01 X-0.6585 Y0.6948  
G01 X-0.6585 Y0.6852  
G01 X-0.6585 Y0.5698  
G01 X-0.6585 Y0.5602  
G01 X-0.8035 Y0.4152  
G01 X-0.8102 Y0.4085  
G01 X-0.9135 Y0.4085  
G01 X-0.9135 Y0.3215  
G01 X-0.7098 Y0.3215  
G01 X-0.6598 Y0.3715  
G01 X-0.6502 Y0.3715  
G01 X-0.5298 Y0.3715  
G01 X-0.3398 Y0.5615  
G01 X-0.3302 Y0.5615  
G01 X-0.1722 Y0.5615  
G01 X-0.1515 Y0.5698  
G01 X-0.1498 Y0.5715  
G01 X-0.1115 Y0.6098  
G01 X-0.1115 Y0.9100  
G01 X-0.1701 Y0.9654  
G01 X-0.1741 Y0.9615  
G01 X-0.2059 Y0.9615  
G01 X-0.2285 Y0.9841  
G01 X-0.2285 Y1.0159  
G01 X-0.2229 Y1.0216  
G01 X-0.3498 Y1.1485  
G01 X-1.0881 Y1.1485  
G01 X-1.0909 Y1.1476  
G01 X-1.0927 Y1.1485  
G01 X-1.0948 Y1.1485  
G01 X-1.0952 Y1.1490  
G01 X-1.1037 Y1.1406  
G01 X-1.1207 Y1.1335  
G01 X-1.1392 Y1.1335  
G01 X-1.1563 Y1.1406  
G01 X-1.1694 Y1.1537  
G01 X-1.1765 Y1.1707  
G01 X-1.1765 Y1.1892  
G01 X-1.1704 Y1.2041  
G01 X-1.2048 Y1.2385  
G01 X-1.2452 Y1.2385  
G01 X-1.3152 Y1.1685  
G01 X-1.3248 Y1.1685  
G01 X-1.3555 Y1.1685  
G01 X-1.3555 Y1.1557  
G01 X-1.3757 Y1.1355  
G01 X-1.4043 Y1.1355  
G01 X-1.4245 Y1.1557  
G01 X-1.4245 Y1.1843  
G01 X-1.4043 Y1.2045  
G01 X-1.3757 Y1.2045  
G01 X-1.3627 Y1.1915  
G01 X-1.3248 Y1.1915  
G01 X-1.2615 Y1.2548  
G01 X-1.2548 Y1.2615  
G01 X-1.2048 Y1.2615  
G01 X-1.1952 Y1.2615  
G01 X-1.1541 Y1.2204  
G01 X-1.1392 Y1.2265  
G01 X-1.1207 Y1.2265  
G01 X-1.1037 Y1.2194  
G01 X-1.0906 Y1.2063  
G01 X-1.0835 Y1.1892  
G01 X-1.0835 Y1.1715  
G01 X-0.3498 Y1.1715  
G01 X-0.3402 Y1.1715  
G01 X-0.2066 Y1.0379  
G01 X-0.2059 Y1.0385  
G01 X-0.1741 Y1.0385  
G01 X-0.1515 Y1.0159  
G01 X-0.1515 Y0.9841  
G01 X-0.1539 Y0.9817  
G01 X-0.0954 Y0.9265  
G01 X-0.0952 Y0.9265  
G01 X-0.0919 Y0.9232  
G01 X-0.0886 Y0.9201  
G01 X-0.0886 Y0.9199  
G01 X-0.0885 Y0.9198  
G01 X-0.0885 Y0.9151  
G01 X-0.0884 Y0.9106  
G01 X-0.0885 Y0.9104  
G01 X-0.0885 Y0.6002  
G01 X-0.0952 Y0.5935  
G01 X-0.1287 Y0.5600  
G01 X-0.1285 Y0.5598  
G01 X-0.1285 Y0.3648  
G01 X-0.1285 Y0.3552  
G01 X-0.4752 Y0.0085  
G01 X-0.4848 Y0.0085  
G01 X-2.2348 Y0.0085  
G01 X-2.2415 Y0.0152  
G01 X-2.3348 Y0.1085  
G01 X-2.3415 Y0.1152  
G01 X-2.3415 Y0.3452  
G01 X-2.3415 Y0.3548  
G01 X-2.3415 Y0.7752  
G01 X-2.3415 Y0.7848  
G01 X-2.2798 Y0.8465  
G01 X-2.2702 Y0.8465  
G01 X-2.1898 Y0.8465  
G01 X-2.0410 Y0.9953  
G01 X-2.0535 Y1.0078  
G01 X-2.0535 Y1.0522  
G01 X-2.0222 Y1.0835  
G01 X-1.9778 Y1.0835  
G01 X-1.9465 Y1.0522  
G01 X-1.9465 Y1.0078  
G01 X-1.9778 Y0.9765  
G01 X-2.0222 Y0.9765  
G01 X-2.0247 Y0.9790  
G01 X-2.1735 Y0.8302  
G01 X-2.1802 Y0.8235  
G01 X-2.2702 Y0.8235  
G01 X-2.3185 Y0.7752  
G01 X-2.3185 Y0.3615  
G01 X-2.2136 Y0.3615  
G01 X-2.2102 Y0.3695  
G01 X-2.2005 Y0.3792  
G01 X-2.1879 Y0.3845  
G01 X-2.1121 Y0.3845  
G01 X-2.0995 Y0.3792  
G01 X-2.0898 Y0.3695  
G01 X-2.0845 Y0.3569  
G01 X-2.0845 Y0.3431  
G01 X-2.0898 Y0.3305  
G01 X-2.0995 Y0.3208  
G01 X-2.1030 Y0.3193  
G01 X-2.0985 Y0.3148  
G01 X-2.0985 Y0.3052  
G01 X-2.0985 Y0.2783  
G01 X-2.0898 Y0.2695  
G01 X-2.0845 Y0.2569  
G01 X-2.0845 Y0.2431  
G01 X-2.0898 Y0.2305  
G01 X-2.0995 Y0.2208  
G01 X-2.1030 Y0.2193  
G01 X-2.0985 Y0.2148  
G01 X-2.0985 Y0.2052  
G01 X-2.0985 Y0.1783  
G01 X-2.0898 Y0.1695  
G01 X-2.0845 Y0.1569  
G01 X-2.0845 Y0.1431  
G01 X-2.0898 Y0.1305  
G01 X-2.0995 Y0.1208  
G01 X-2.1121 Y0.1155  
G01 X-2.1879 Y0.1155  
G01 X-2.2005 Y0.1208  
G01 X-2.2102 Y0.1305  
G01 X-2.2155 Y0.1431  
G01 X-2.2155 Y0.1569  
G01 X-2.2102 Y0.1695  
G01 X-2.2005 Y0.1792  
G01 X-2.1879 Y0.1845  
G01 X-2.1215 Y0.1845  
G01 X-2.1215 Y0.2052  
G01 X-2.1318 Y0.2155  
G01 X-2.1879 Y0.2155  
G01 X-2.2005 Y0.2208  
G01 X-2.2102 Y0.2305  
G01 X-2.2155 Y0.2431  
G01 X-2.2155 Y0.2569  
G01 X-2.2102 Y0.2695  
G01 X-2.2005 Y0.2792  
G01 X-2.1879 Y0.2845  
G01 X-2.1215 Y0.2845  
G01 X-2.1215 Y0.3052  
G01 X-2.1318 Y0.3155  
G01 X-2.1879 Y0.3155  
G01 X-2.2005 Y0.3208  
G01 X-2.2102 Y0.3305  
G01 X-2.2136 Y0.3385  
G01 X-2.3185 Y0.3385  
G01 X-2.3185 Y0.1248  
G01 X-2.2252 Y0.0315  
G01 X-0.4848 Y0.0315  
G01 X-0.1515 Y0.3648  
G01 X-0.1515 Y0.5450  
G01 X-0.1635 Y0.5402  
G01 X-0.1652 Y0.5385  
G01 X-0.1678 Y0.5385  
G01 X-0.1702 Y0.5376  
G00 Z0.1000  
G82 X-0.1500 Y1.1900  Z-0.0110 F10    R0.1000  P1.000000
G82 X-0.1500 Y0.1300  
G82 X-1.2700 Y0.2300  
G82 X-1.3700 Y0.2300  
G82 X-0.5100 Y1.0000  
G82 X-0.4100 Y1.0000  
G82 X-1.1300 Y1.1800  
G82 X-1.2300 Y1.1800  
G82 X-1.7500 Y1.2200  
G82 X-1.7500 Y1.1200  
G82 X-1.5700 Y0.3400  
G82 X-1.5700 Y0.4400  
G82 X-1.5700 Y0.5400  
G82 X-1.5700 Y0.6400  
G82 X-1.5700 Y0.7400  
G82 X-1.5700 Y0.8400  
G82 X-1.5700 Y0.9400  
G82 X-1.5700 Y1.0400  
G82 X-1.2700 Y1.0400  
G82 X-1.2700 Y0.9400  
G82 X-1.2700 Y0.8400  
G82 X-1.2700 Y0.7400  
G82 X-1.2700 Y0.6400  
G82 X-1.2700 Y0.5400  
G82 X-1.2700 Y0.4400  
G82 X-1.2700 Y0.3400  
G82 X-1.3900 Y1.1700  
G82 X-1.4400 Y1.2450  
G82 X-1.4900 Y1.1700  
G82 X-0.6000 Y0.2700  
G82 X-1.1000 Y0.2700  
G82 X-0.8000 Y0.3700  
G82 X-1.8000 Y0.6800  
G82 X-1.8000 Y0.4800  
G82 X-1.9200 Y0.6800  
G82 X-1.9200 Y0.4800  
G82 X-2.0400 Y0.6800  
G82 X-2.0400 Y0.4800  
G82 X-2.1500 Y0.1500  
G82 X-2.1500 Y0.2500  
G82 X-2.1500 Y0.3500  
G82 X-1.8500 Y0.3500  
G82 X-1.8500 Y0.2500  
G82 X-1.8500 Y0.1500  
G82 X-2.0000 Y1.0300  
G82 X-2.3000 Y1.0300  
G82 X-0.7234 Y0.6709  
G82 X-0.7628 Y0.7891  
G82 X-0.8021 Y0.6709  
G82 X-0.8415 Y0.7891  
G82 X-0.8809 Y0.6709  
G82 X-0.9202 Y0.7891  
G82 X-1.1171 Y0.7576  
G82 X-0.5029 Y0.7576  
G82 X-0.2900 Y1.0000  
G82 X-0.1900 Y1.0000  
G82 X-0.2900 Y0.9000  
G82 X-0.1900 Y0.9000  
G82 X-0.2900 Y0.8000  
G82 X-0.1900 Y0.8000  
G82 X-0.2900 Y0.7000  
G82 X-0.1900 Y0.7000  
G82 X-0.2900 Y0.6000  
G82 X-0.1900 Y0.6000  
G82 X-0.2900 Y0.5000  
G82 X-0.1900 Y0.5000  
G82 X-0.2900 Y0.4000  
G82 X-0.1900 Y0.4000  
G00 Z0.5000  
M05
M02
