(.../src/pcbgcode-work/pcb-gcode.ulp)
(Copyright 2005 - 2009 by John Johnson)
(See readme.txt for licensing terms.)
(This file generated from the board:)
(.../docs/examples/04151_lcdi2c.brd)
(Current profile is .../pcbgcode-work/profiles/mach.pp  )
(This file generated 12/16/12 4:41 PM)
(Settings from pcb-machine.h)
(  Tool Size)
(0.0030  )
(Z Axis Settings)
(  High     Up        Down     Drill)
(0.5000  	0.1000  	-0.0070 	-0.0320 )
(spindle on time = 3.0000)
(milling depth = -0.0100)
(text depth = -0.0050)
(tool change at 0.5000  0.6000  1.0000  )
(feed rate xy = F20    )
(feed rate z  = F10    )
(Settings from pcb-defaults.h)
(isolate min = 0.0010)
(isolate max = 0.0200)
(isolate step = 0.0050)
(Generated top outlines, bottom outlines, )
(Unit of measure: inch)
(Inch Mode)
G20
(Absolute Coordinates)
G90
G00 X0.0000  Y0.0000  
M03
G04 P3.000000
G00 Z0.1000  
G00 X0.8356  Y0.6023  
G01 Z-0.0070 F10    
G01 X0.8356  Y0.6776  F20    
G01 X0.8305  Y0.6899  
G01 X0.8211  Y0.6993  
G01 X0.8088  Y0.7044  
G01 X0.7955  Y0.7044  
G01 X0.7831  Y0.6993  
G01 X0.7737  Y0.6899  
G01 X0.7686  Y0.6776  
G01 X0.7686  Y0.6023  
G01 X0.7737  Y0.5900  
G01 X0.7831  Y0.5805  
G01 X0.7955  Y0.5754  
G01 X0.8088  Y0.5754  
G01 X0.8211  Y0.5805  
G01 X0.8305  Y0.5900  
G01 X0.8356  Y0.6023  
G00 Z0.1000  
G00 X0.8080  Y0.8577  
G01 Z-0.0070 F10    
G01 X0.8080  Y0.7824  F20    
G01 X0.8131  Y0.7701  
G01 X0.8225  Y0.7607  
G01 X0.8348  Y0.7556  
G01 X0.8482  Y0.7556  
G01 X0.8605  Y0.7607  
G01 X0.8699  Y0.7701  
G01 X0.8750  Y0.7824  
G01 X0.8750  Y0.8577  
G01 X0.8699  Y0.8700  
G01 X0.8605  Y0.8795  
G01 X0.8482  Y0.8846  
G01 X0.8348  Y0.8846  
G01 X0.8225  Y0.8795  
G01 X0.8131  Y0.8700  
G01 X0.8080  Y0.8577  
G00 Z0.1000  
G00 X0.7569  Y0.6023  
G01 Z-0.0070 F10    
G01 X0.7569  Y0.6776  F20    
G01 X0.7518  Y0.6899  
G01 X0.7424  Y0.6993  
G01 X0.7300  Y0.7044  
G01 X0.7167  Y0.7044  
G01 X0.7044  Y0.6993  
G01 X0.6950  Y0.6899  
G01 X0.6899  Y0.6776  
G01 X0.6899  Y0.6023  
G01 X0.6950  Y0.5900  
G01 X0.7044  Y0.5805  
G01 X0.7167  Y0.5754  
G01 X0.7300  Y0.5754  
G01 X0.7424  Y0.5805  
G01 X0.7518  Y0.5900  
G01 X0.7569  Y0.6023  
G00 Z0.1000  
G00 X0.9144  Y0.6023  
G01 Z-0.0070 F10    
G01 X0.9144  Y0.6776  F20    
G01 X0.9093  Y0.6899  
G01 X0.8998  Y0.6993  
G01 X0.8875  Y0.7044  
G01 X0.8742  Y0.7044  
G01 X0.8619  Y0.6993  
G01 X0.8525  Y0.6899  
G01 X0.8474  Y0.6776  
G01 X0.8474  Y0.6023  
G01 X0.8525  Y0.5900  
G01 X0.8619  Y0.5805  
G01 X0.8742  Y0.5754  
G01 X0.8875  Y0.5754  
G01 X0.8998  Y0.5805  
G01 X0.9093  Y0.5900  
G01 X0.9144  Y0.6023  
G00 Z0.1000  
G00 X0.8867  Y0.8577  
G01 Z-0.0070 F10    
G01 X0.8867  Y0.7824  F20    
G01 X0.8918  Y0.7701  
G01 X0.9013  Y0.7607  
G01 X0.9136  Y0.7556  
G01 X0.9269  Y0.7556  
G01 X0.9392  Y0.7607  
G01 X0.9486  Y0.7701  
G01 X0.9537  Y0.7824  
G01 X0.9537  Y0.8577  
G01 X0.9486  Y0.8700  
G01 X0.9392  Y0.8795  
G01 X0.9269  Y0.8846  
G01 X0.9136  Y0.8846  
G01 X0.9013  Y0.8795  
G01 X0.8918  Y0.8700  
G01 X0.8867  Y0.8577  
G00 Z0.1000  
G00 X0.7293  Y0.8577  
G01 Z-0.0070 F10    
G01 X0.7293  Y0.7824  F20    
G01 X0.7344  Y0.7701  
G01 X0.7438  Y0.7607  
G01 X0.7561  Y0.7556  
G01 X0.7694  Y0.7556  
G01 X0.7817  Y0.7607  
G01 X0.7912  Y0.7701  
G01 X0.7963  Y0.7824  
G01 X0.7963  Y0.8577  
G01 X0.7912  Y0.8700  
G01 X0.7817  Y0.8795  
G01 X0.7694  Y0.8846  
G01 X0.7561  Y0.8846  
G01 X0.7438  Y0.8795  
G01 X0.7344  Y0.8700  
G01 X0.7293  Y0.8577  
G00 Z0.1000  
G00 X1.5323  Y0.3065  
G01 Z-0.0070 F10    
G01 X1.6077  Y0.3065  F20    
G01 X1.6200  Y0.3116  
G01 X1.6294  Y0.3210  
G01 X1.6345  Y0.3333  
G01 X1.6345  Y0.3467  
G01 X1.6294  Y0.3590  
G01 X1.6200  Y0.3684  
G01 X1.6077  Y0.3735  
G01 X1.5323  Y0.3735  
G01 X1.5200  Y0.3684  
G01 X1.5106  Y0.3590  
G01 X1.5055  Y0.3467  
G01 X1.5055  Y0.3333  
G01 X1.5106  Y0.3210  
G01 X1.5200  Y0.3116  
G01 X1.5323  Y0.3065  
G00 Z0.1000  
G00 X1.5323  Y0.4065  
G01 Z-0.0070 F10    
G01 X1.6077  Y0.4065  F20    
G01 X1.6200  Y0.4116  
G01 X1.6294  Y0.4210  
G01 X1.6345  Y0.4333  
G01 X1.6345  Y0.4467  
G01 X1.6294  Y0.4590  
G01 X1.6200  Y0.4684  
G01 X1.6077  Y0.4735  
G01 X1.5323  Y0.4735  
G01 X1.5200  Y0.4684  
G01 X1.5106  Y0.4590  
G01 X1.5055  Y0.4467  
G01 X1.5055  Y0.4333  
G01 X1.5106  Y0.4210  
G01 X1.5200  Y0.4116  
G01 X1.5323  Y0.4065  
G00 Z0.1000  
G00 X1.5323  Y0.5065  
G01 Z-0.0070 F10    
G01 X1.6077  Y0.5065  F20    
G01 X1.6200  Y0.5116  
G01 X1.6294  Y0.5210  
G01 X1.6345  Y0.5333  
G01 X1.6345  Y0.5467  
G01 X1.6294  Y0.5590  
G01 X1.6200  Y0.5684  
G01 X1.6077  Y0.5735  
G01 X1.5323  Y0.5735  
G01 X1.5200  Y0.5684  
G01 X1.5106  Y0.5590  
G01 X1.5055  Y0.5467  
G01 X1.5055  Y0.5333  
G01 X1.5106  Y0.5210  
G01 X1.5200  Y0.5116  
G01 X1.5323  Y0.5065  
G00 Z0.1000  
G00 X1.5323  Y0.6065  
G01 Z-0.0070 F10    
G01 X1.6077  Y0.6065  F20    
G01 X1.6200  Y0.6116  
G01 X1.6294  Y0.6210  
G01 X1.6345  Y0.6333  
G01 X1.6345  Y0.6467  
G01 X1.6294  Y0.6590  
G01 X1.6200  Y0.6684  
G01 X1.6077  Y0.6735  
G01 X1.5323  Y0.6735  
G01 X1.5200  Y0.6684  
G01 X1.5106  Y0.6590  
G01 X1.5055  Y0.6467  
G01 X1.5055  Y0.6333  
G01 X1.5106  Y0.6210  
G01 X1.5200  Y0.6116  
G01 X1.5323  Y0.6065  
G00 Z0.1000  
G00 X1.5323  Y0.7065  
G01 Z-0.0070 F10    
G01 X1.6077  Y0.7065  F20    
G01 X1.6200  Y0.7116  
G01 X1.6294  Y0.7210  
G01 X1.6345  Y0.7333  
G01 X1.6345  Y0.7467  
G01 X1.6294  Y0.7590  
G01 X1.6200  Y0.7684  
G01 X1.6077  Y0.7735  
G01 X1.5323  Y0.7735  
G01 X1.5200  Y0.7684  
G01 X1.5106  Y0.7590  
G01 X1.5055  Y0.7467  
G01 X1.5055  Y0.7333  
G01 X1.5106  Y0.7210  
G01 X1.5200  Y0.7116  
G01 X1.5323  Y0.7065  
G00 Z0.1000  
G00 X1.5323  Y0.8065  
G01 Z-0.0070 F10    
G01 X1.6077  Y0.8065  F20    
G01 X1.6200  Y0.8116  
G01 X1.6294  Y0.8210  
G01 X1.6345  Y0.8333  
G01 X1.6345  Y0.8467  
G01 X1.6294  Y0.8590  
G01 X1.6200  Y0.8684  
G01 X1.6077  Y0.8735  
G01 X1.5323  Y0.8735  
G01 X1.5200  Y0.8684  
G01 X1.5106  Y0.8590  
G01 X1.5055  Y0.8467  
G01 X1.5055  Y0.8333  
G01 X1.5106  Y0.8210  
G01 X1.5200  Y0.8116  
G01 X1.5323  Y0.8065  
G00 Z0.1000  
G00 X1.5323  Y0.9065  
G01 Z-0.0070 F10    
G01 X1.6077  Y0.9065  F20    
G01 X1.6200  Y0.9116  
G01 X1.6294  Y0.9210  
G01 X1.6345  Y0.9333  
G01 X1.6345  Y0.9467  
G01 X1.6294  Y0.9590  
G01 X1.6200  Y0.9684  
G01 X1.6077  Y0.9735  
G01 X1.5323  Y0.9735  
G01 X1.5200  Y0.9684  
G01 X1.5106  Y0.9590  
G01 X1.5055  Y0.9467  
G01 X1.5055  Y0.9333  
G01 X1.5106  Y0.9210  
G01 X1.5200  Y0.9116  
G01 X1.5323  Y0.9065  
G00 Z0.1000  
G00 X1.5323  Y1.0065  
G01 Z-0.0070 F10    
G01 X1.6077  Y1.0065  F20    
G01 X1.6200  Y1.0116  
G01 X1.6294  Y1.0210  
G01 X1.6345  Y1.0333  
G01 X1.6345  Y1.0467  
G01 X1.6294  Y1.0590  
G01 X1.6200  Y1.0684  
G01 X1.6077  Y1.0735  
G01 X1.5323  Y1.0735  
G01 X1.5200  Y1.0684  
G01 X1.5106  Y1.0590  
G01 X1.5055  Y1.0467  
G01 X1.5055  Y1.0333  
G01 X1.5106  Y1.0210  
G01 X1.5200  Y1.0116  
G01 X1.5323  Y1.0065  
G00 Z0.1000  
G00 X1.2323  Y1.0065  
G01 Z-0.0070 F10    
G01 X1.3077  Y1.0065  F20    
G01 X1.3200  Y1.0116  
G01 X1.3294  Y1.0210  
G01 X1.3345  Y1.0333  
G01 X1.3345  Y1.0467  
G01 X1.3294  Y1.0590  
G01 X1.3200  Y1.0684  
G01 X1.3077  Y1.0735  
G01 X1.2323  Y1.0735  
G01 X1.2200  Y1.0684  
G01 X1.2106  Y1.0590  
G01 X1.2055  Y1.0467  
G01 X1.2055  Y1.0333  
G01 X1.2106  Y1.0210  
G01 X1.2200  Y1.0116  
G01 X1.2323  Y1.0065  
G00 Z0.1000  
G00 X1.2323  Y0.9065  
G01 Z-0.0070 F10    
G01 X1.3077  Y0.9065  F20    
G01 X1.3200  Y0.9116  
G01 X1.3294  Y0.9210  
G01 X1.3345  Y0.9333  
G01 X1.3345  Y0.9467  
G01 X1.3294  Y0.9590  
G01 X1.3200  Y0.9684  
G01 X1.3077  Y0.9735  
G01 X1.2323  Y0.9735  
G01 X1.2200  Y0.9684  
G01 X1.2106  Y0.9590  
G01 X1.2055  Y0.9467  
G01 X1.2055  Y0.9333  
G01 X1.2106  Y0.9210  
G01 X1.2200  Y0.9116  
G01 X1.2323  Y0.9065  
G00 Z0.1000  
G00 X1.2323  Y0.8065  
G01 Z-0.0070 F10    
G01 X1.3077  Y0.8065  F20    
G01 X1.3200  Y0.8116  
G01 X1.3294  Y0.8210  
G01 X1.3345  Y0.8333  
G01 X1.3345  Y0.8467  
G01 X1.3294  Y0.8590  
G01 X1.3200  Y0.8684  
G01 X1.3077  Y0.8735  
G01 X1.2323  Y0.8735  
G01 X1.2200  Y0.8684  
G01 X1.2106  Y0.8590  
G01 X1.2055  Y0.8467  
G01 X1.2055  Y0.8333  
G01 X1.2106  Y0.8210  
G01 X1.2200  Y0.8116  
G01 X1.2323  Y0.8065  
G00 Z0.1000  
G00 X1.2323  Y0.7065  
G01 Z-0.0070 F10    
G01 X1.3077  Y0.7065  F20    
G01 X1.3200  Y0.7116  
G01 X1.3294  Y0.7210  
G01 X1.3345  Y0.7333  
G01 X1.3345  Y0.7467  
G01 X1.3294  Y0.7590  
G01 X1.3200  Y0.7684  
G01 X1.3077  Y0.7735  
G01 X1.2323  Y0.7735  
G01 X1.2200  Y0.7684  
G01 X1.2106  Y0.7590  
G01 X1.2055  Y0.7467  
G01 X1.2055  Y0.7333  
G01 X1.2106  Y0.7210  
G01 X1.2200  Y0.7116  
G01 X1.2323  Y0.7065  
G00 Z0.1000  
G00 X1.2323  Y0.6065  
G01 Z-0.0070 F10    
G01 X1.3077  Y0.6065  F20    
G01 X1.3200  Y0.6116  
G01 X1.3294  Y0.6210  
G01 X1.3345  Y0.6333  
G01 X1.3345  Y0.6467  
G01 X1.3294  Y0.6590  
G01 X1.3200  Y0.6684  
G01 X1.3077  Y0.6735  
G01 X1.2323  Y0.6735  
G01 X1.2200  Y0.6684  
G01 X1.2106  Y0.6590  
G01 X1.2055  Y0.6467  
G01 X1.2055  Y0.6333  
G01 X1.2106  Y0.6210  
G01 X1.2200  Y0.6116  
G01 X1.2323  Y0.6065  
G00 Z0.1000  
G00 X1.2323  Y0.5065  
G01 Z-0.0070 F10    
G01 X1.3077  Y0.5065  F20    
G01 X1.3200  Y0.5116  
G01 X1.3294  Y0.5210  
G01 X1.3345  Y0.5333  
G01 X1.3345  Y0.5467  
G01 X1.3294  Y0.5590  
G01 X1.3200  Y0.5684  
G01 X1.3077  Y0.5735  
G01 X1.2323  Y0.5735  
G01 X1.2200  Y0.5684  
G01 X1.2106  Y0.5590  
G01 X1.2055  Y0.5467  
G01 X1.2055  Y0.5333  
G01 X1.2106  Y0.5210  
G01 X1.2200  Y0.5116  
G01 X1.2323  Y0.5065  
G00 Z0.1000  
G00 X1.2323  Y0.4065  
G01 Z-0.0070 F10    
G01 X1.3077  Y0.4065  F20    
G01 X1.3200  Y0.4116  
G01 X1.3294  Y0.4210  
G01 X1.3345  Y0.4333  
G01 X1.3345  Y0.4467  
G01 X1.3294  Y0.4590  
G01 X1.3200  Y0.4684  
G01 X1.3077  Y0.4735  
G01 X1.2323  Y0.4735  
G01 X1.2200  Y0.4684  
G01 X1.2106  Y0.4590  
G01 X1.2055  Y0.4467  
G01 X1.2055  Y0.4333  
G01 X1.2106  Y0.4210  
G01 X1.2200  Y0.4116  
G01 X1.2323  Y0.4065  
G00 Z0.1000  
G00 X1.2323  Y0.3065  
G01 Z-0.0070 F10    
G01 X1.3077  Y0.3065  F20    
G01 X1.3200  Y0.3116  
G01 X1.3294  Y0.3210  
G01 X1.3345  Y0.3333  
G01 X1.3345  Y0.3467  
G01 X1.3294  Y0.3590  
G01 X1.3200  Y0.3684  
G01 X1.3077  Y0.3735  
G01 X1.2323  Y0.3735  
G01 X1.2200  Y0.3684  
G01 X1.2106  Y0.3590  
G01 X1.2055  Y0.3467  
G01 X1.2055  Y0.3333  
G01 X1.2106  Y0.3210  
G01 X1.2200  Y0.3116  
G01 X1.2323  Y0.3065  
G00 Z0.1000  
G00 X0.3275  Y0.9845  
G01 Z-0.0070 F10    
G01 X0.3275  Y1.0155  F20    
G01 X0.3055  Y1.0375  
G01 X0.2745  Y1.0375  
G01 X0.2525  Y1.0155  
G01 X0.2525  Y0.9845  
G01 X0.2745  Y0.9625  
G01 X0.3055  Y0.9625  
G01 X0.3275  Y0.9845  
G00 Z0.1000  
G00 X0.3275  Y0.8845  
G01 Z-0.0070 F10    
G01 X0.3275  Y0.9155  F20    
G01 X0.3055  Y0.9375  
G01 X0.2745  Y0.9375  
G01 X0.2525  Y0.9155  
G01 X0.2525  Y0.8845  
G01 X0.2745  Y0.8625  
G01 X0.3055  Y0.8625  
G01 X0.3275  Y0.8845  
G00 Z0.1000  
G00 X0.3275  Y0.7845  
G01 Z-0.0070 F10    
G01 X0.3275  Y0.8155  F20    
G01 X0.3055  Y0.8375  
G01 X0.2745  Y0.8375  
G01 X0.2525  Y0.8155  
G01 X0.2525  Y0.7845  
G01 X0.2745  Y0.7625  
G01 X0.3055  Y0.7625  
G01 X0.3275  Y0.7845  
G00 Z0.1000  
G00 X0.3275  Y0.6845  
G01 Z-0.0070 F10    
G01 X0.3275  Y0.7155  F20    
G01 X0.3055  Y0.7375  
G01 X0.2745  Y0.7375  
G01 X0.2525  Y0.7155  
G01 X0.2525  Y0.6845  
G01 X0.2745  Y0.6625  
G01 X0.3055  Y0.6625  
G01 X0.3275  Y0.6845  
G00 Z0.1000  
G00 X0.3275  Y0.5845  
G01 Z-0.0070 F10    
G01 X0.3275  Y0.6155  F20    
G01 X0.3055  Y0.6375  
G01 X0.2745  Y0.6375  
G01 X0.2525  Y0.6155  
G01 X0.2525  Y0.5845  
G01 X0.2745  Y0.5625  
G01 X0.3055  Y0.5625  
G01 X0.3275  Y0.5845  
G00 Z0.1000  
G00 X0.3275  Y0.4845  
G01 Z-0.0070 F10    
G01 X0.3275  Y0.5155  F20    
G01 X0.3055  Y0.5375  
G01 X0.2745  Y0.5375  
G01 X0.2525  Y0.5155  
G01 X0.2525  Y0.4845  
G01 X0.2745  Y0.4625  
G01 X0.3055  Y0.4625  
G01 X0.3275  Y0.4845  
G00 Z0.1000  
G00 X0.2275  Y0.9845  
G01 Z-0.0070 F10    
G01 X0.2275  Y1.0155  F20    
G01 X0.2055  Y1.0375  
G01 X0.1745  Y1.0375  
G01 X0.1525  Y1.0155  
G01 X0.1525  Y0.9845  
G01 X0.1745  Y0.9625  
G01 X0.2055  Y0.9625  
G01 X0.2275  Y0.9845  
G00 Z0.1000  
G00 X0.2275  Y0.8845  
G01 Z-0.0070 F10    
G01 X0.2275  Y0.9155  F20    
G01 X0.2055  Y0.9375  
G01 X0.1745  Y0.9375  
G01 X0.1525  Y0.9155  
G01 X0.1525  Y0.8845  
G01 X0.1745  Y0.8625  
G01 X0.2055  Y0.8625  
G01 X0.2275  Y0.8845  
G00 Z0.1000  
G00 X0.2275  Y0.7845  
G01 Z-0.0070 F10    
G01 X0.2275  Y0.8155  F20    
G01 X0.2055  Y0.8375  
G01 X0.1745  Y0.8375  
G01 X0.1525  Y0.8155  
G01 X0.1525  Y0.7845  
G01 X0.1745  Y0.7625  
G01 X0.2055  Y0.7625  
G01 X0.2275  Y0.7845  
G00 Z0.1000  
G00 X0.2275  Y0.6845  
G01 Z-0.0070 F10    
G01 X0.2275  Y0.7155  F20    
G01 X0.2055  Y0.7375  
G01 X0.1745  Y0.7375  
G01 X0.1525  Y0.7155  
G01 X0.1525  Y0.6845  
G01 X0.1745  Y0.6625  
G01 X0.2055  Y0.6625  
G01 X0.2275  Y0.6845  
G00 Z0.1000  
G00 X0.2275  Y0.5845  
G01 Z-0.0070 F10    
G01 X0.2275  Y0.6155  F20    
G01 X0.2055  Y0.6375  
G01 X0.1745  Y0.6375  
G01 X0.1525  Y0.6155  
G01 X0.1525  Y0.5845  
G01 X0.1745  Y0.5625  
G01 X0.2055  Y0.5625  
G01 X0.2275  Y0.5845  
G00 Z0.1000  
G00 X0.2275  Y0.4845  
G01 Z-0.0070 F10    
G01 X0.2275  Y0.5155  F20    
G01 X0.2055  Y0.5375  
G01 X0.1745  Y0.5375  
G01 X0.1525  Y0.5155  
G01 X0.1525  Y0.4845  
G01 X0.1745  Y0.4625  
G01 X0.2055  Y0.4625  
G01 X0.2275  Y0.4845  
G00 Z0.1000  
G00 X0.3275  Y0.3845  
G01 Z-0.0070 F10    
G01 X0.3275  Y0.4155  F20    
G01 X0.3055  Y0.4375  
G01 X0.2745  Y0.4375  
G01 X0.2525  Y0.4155  
G01 X0.2525  Y0.3845  
G01 X0.2745  Y0.3625  
G01 X0.3055  Y0.3625  
G01 X0.3275  Y0.3845  
G00 Z0.1000  
G00 X0.2275  Y0.3845  
G01 Z-0.0070 F10    
G01 X0.2275  Y0.4155  F20    
G01 X0.2055  Y0.4375  
G01 X0.1745  Y0.4375  
G01 X0.1525  Y0.4155  
G01 X0.1525  Y0.3845  
G01 X0.1745  Y0.3625  
G01 X0.2055  Y0.3625  
G01 X0.2275  Y0.3845  
G00 Z0.1000  
G00 X0.8377  Y0.4035  
G01 Z-0.0070 F10    
G01 X0.7623  Y0.4035  F20    
G01 X0.7500  Y0.3984  
G01 X0.7406  Y0.3890  
G01 X0.7355  Y0.3767  
G01 X0.7355  Y0.3633  
G01 X0.7406  Y0.3510  
G01 X0.7500  Y0.3416  
G01 X0.7623  Y0.3365  
G01 X0.8377  Y0.3365  
G01 X0.8500  Y0.3416  
G01 X0.8594  Y0.3510  
G01 X0.8645  Y0.3633  
G01 X0.8645  Y0.3767  
G01 X0.8594  Y0.3890  
G01 X0.8500  Y0.3984  
G01 X0.8377  Y0.4035  
G00 Z0.1000  
G00 X1.1377  Y0.3035  
G01 Z-0.0070 F10    
G01 X1.0623  Y0.3035  F20    
G01 X1.0500  Y0.2984  
G01 X1.0406  Y0.2890  
G01 X1.0355  Y0.2767  
G01 X1.0355  Y0.2633  
G01 X1.0406  Y0.2510  
G01 X1.0500  Y0.2416  
G01 X1.0623  Y0.2365  
G01 X1.1377  Y0.2365  
G01 X1.1500  Y0.2416  
G01 X1.1594  Y0.2510  
G01 X1.1645  Y0.2633  
G01 X1.1645  Y0.2767  
G01 X1.1594  Y0.2890  
G01 X1.1500  Y0.2984  
G01 X1.1377  Y0.3035  
G00 Z0.1000  
G00 X0.6377  Y0.3035  
G01 Z-0.0070 F10    
G01 X0.5623  Y0.3035  F20    
G01 X0.5500  Y0.2984  
G01 X0.5406  Y0.2890  
G01 X0.5355  Y0.2767  
G01 X0.5355  Y0.2633  
G01 X0.5406  Y0.2510  
G01 X0.5500  Y0.2416  
G01 X0.5623  Y0.2365  
G01 X0.6377  Y0.2365  
G01 X0.6500  Y0.2416  
G01 X0.6594  Y0.2510  
G01 X0.6645  Y0.2633  
G01 X0.6645  Y0.2767  
G01 X0.6594  Y0.2890  
G01 X0.6500  Y0.2984  
G01 X0.6377  Y0.3035  
G00 Z0.1000  
G00 X2.1123  Y0.1165  
G01 Z-0.0070 F10    
G01 X2.1877  Y0.1165  F20    
G01 X2.2000  Y0.1216  
G01 X2.2094  Y0.1310  
G01 X2.2145  Y0.1433  
G01 X2.2145  Y0.1567  
G01 X2.2094  Y0.1690  
G01 X2.2000  Y0.1784  
G01 X2.1877  Y0.1835  
G01 X2.1123  Y0.1835  
G01 X2.1000  Y0.1784  
G01 X2.0906  Y0.1690  
G01 X2.0855  Y0.1567  
G01 X2.0855  Y0.1433  
G01 X2.0906  Y0.1310  
G01 X2.1000  Y0.1216  
G01 X2.1123  Y0.1165  
G00 Z0.1000  
G00 X2.1123  Y0.2165  
G01 Z-0.0070 F10    
G01 X2.1877  Y0.2165  F20    
G01 X2.2000  Y0.2216  
G01 X2.2094  Y0.2310  
G01 X2.2145  Y0.2433  
G01 X2.2145  Y0.2567  
G01 X2.2094  Y0.2690  
G01 X2.2000  Y0.2784  
G01 X2.1877  Y0.2835  
G01 X2.1123  Y0.2835  
G01 X2.1000  Y0.2784  
G01 X2.0906  Y0.2690  
G01 X2.0855  Y0.2567  
G01 X2.0855  Y0.2433  
G01 X2.0906  Y0.2310  
G01 X2.1000  Y0.2216  
G01 X2.1123  Y0.2165  
G00 Z0.1000  
G00 X2.1123  Y0.3165  
G01 Z-0.0070 F10    
G01 X2.1877  Y0.3165  F20    
G01 X2.2000  Y0.3216  
G01 X2.2094  Y0.3310  
G01 X2.2145  Y0.3433  
G01 X2.2145  Y0.3567  
G01 X2.2094  Y0.3690  
G01 X2.2000  Y0.3784  
G01 X2.1877  Y0.3835  
G01 X2.1123  Y0.3835  
G01 X2.1000  Y0.3784  
G01 X2.0906  Y0.3690  
G01 X2.0855  Y0.3567  
G01 X2.0855  Y0.3433  
G01 X2.0906  Y0.3310  
G01 X2.1000  Y0.3216  
G01 X2.1123  Y0.3165  
G00 Z0.1000  
G00 X1.8123  Y0.3165  
G01 Z-0.0070 F10    
G01 X1.8877  Y0.3165  F20    
G01 X1.9000  Y0.3216  
G01 X1.9094  Y0.3310  
G01 X1.9145  Y0.3433  
G01 X1.9145  Y0.3567  
G01 X1.9094  Y0.3690  
G01 X1.9000  Y0.3784  
G01 X1.8877  Y0.3835  
G01 X1.8123  Y0.3835  
G01 X1.8000  Y0.3784  
G01 X1.7906  Y0.3690  
G01 X1.7855  Y0.3567  
G01 X1.7855  Y0.3433  
G01 X1.7906  Y0.3310  
G01 X1.8000  Y0.3216  
G01 X1.8123  Y0.3165  
G00 Z0.1000  
G00 X1.8123  Y0.2165  
G01 Z-0.0070 F10    
G01 X1.8877  Y0.2165  F20    
G01 X1.9000  Y0.2216  
G01 X1.9094  Y0.2310  
G01 X1.9145  Y0.2433  
G01 X1.9145  Y0.2567  
G01 X1.9094  Y0.2690  
G01 X1.9000  Y0.2784  
G01 X1.8877  Y0.2835  
G01 X1.8123  Y0.2835  
G01 X1.8000  Y0.2784  
G01 X1.7906  Y0.2690  
G01 X1.7855  Y0.2567  
G01 X1.7855  Y0.2433  
G01 X1.7906  Y0.2310  
G01 X1.8000  Y0.2216  
G01 X1.8123  Y0.2165  
G00 Z0.1000  
G00 X1.8123  Y0.1165  
G01 Z-0.0070 F10    
G01 X1.8877  Y0.1165  F20    
G01 X1.9000  Y0.1216  
G01 X1.9094  Y0.1310  
G01 X1.9145  Y0.1433  
G01 X1.9145  Y0.1567  
G01 X1.9094  Y0.1690  
G01 X1.9000  Y0.1784  
G01 X1.8877  Y0.1835  
G01 X1.8123  Y0.1835  
G01 X1.8000  Y0.1784  
G01 X1.7906  Y0.1690  
G01 X1.7855  Y0.1567  
G01 X1.7855  Y0.1433  
G01 X1.7906  Y0.1310  
G01 X1.8000  Y0.1216  
G01 X1.8123  Y0.1165  
G00 Z0.1000  
G00 X1.8335  Y0.6661  
G01 Z-0.0070 F10    
G01 X1.8335  Y0.6939  F20    
G01 X1.8139  Y0.7135  
G01 X1.7861  Y0.7135  
G01 X1.7665  Y0.6939  
G01 X1.7665  Y0.6661  
G01 X1.7861  Y0.6465  
G01 X1.8139  Y0.6465  
G01 X1.8335  Y0.6661  
G00 Z0.1000  
G00 X1.8335  Y0.4661  
G01 Z-0.0070 F10    
G01 X1.8335  Y0.4939  F20    
G01 X1.8139  Y0.5135  
G01 X1.7861  Y0.5135  
G01 X1.7665  Y0.4939  
G01 X1.7665  Y0.4661  
G01 X1.7861  Y0.4465  
G01 X1.8139  Y0.4465  
G01 X1.8335  Y0.4661  
G00 Z0.1000  
G00 X1.9535  Y0.6661  
G01 Z-0.0070 F10    
G01 X1.9535  Y0.6939  F20    
G01 X1.9339  Y0.7135  
G01 X1.9061  Y0.7135  
G01 X1.8865  Y0.6939  
G01 X1.8865  Y0.6661  
G01 X1.9061  Y0.6465  
G01 X1.9339  Y0.6465  
G01 X1.9535  Y0.6661  
G00 Z0.1000  
G00 X1.9535  Y0.4661  
G01 Z-0.0070 F10    
G01 X1.9535  Y0.4939  F20    
G01 X1.9339  Y0.5135  
G01 X1.9061  Y0.5135  
G01 X1.8865  Y0.4939  
G01 X1.8865  Y0.4661  
G01 X1.9061  Y0.4465  
G01 X1.9339  Y0.4465  
G01 X1.9535  Y0.4661  
G00 Z0.1000  
G00 X2.0735  Y0.6661  
G01 Z-0.0070 F10    
G01 X2.0735  Y0.6939  F20    
G01 X2.0539  Y0.7135  
G01 X2.0261  Y0.7135  
G01 X2.0065  Y0.6939  
G01 X2.0065  Y0.6661  
G01 X2.0261  Y0.6465  
G01 X2.0539  Y0.6465  
G01 X2.0735  Y0.6661  
G00 Z0.1000  
G00 X2.0735  Y0.4661  
G01 Z-0.0070 F10    
G01 X2.0735  Y0.4939  F20    
G01 X2.0539  Y0.5135  
G01 X2.0261  Y0.5135  
G01 X2.0065  Y0.4939  
G01 X2.0065  Y0.4661  
G01 X2.0261  Y0.4465  
G01 X2.0539  Y0.4465  
G01 X2.0735  Y0.4661  
G00 Z0.1000  
G00 X1.3035  Y0.2161  
G01 Z-0.0070 F10    
G01 X1.3035  Y0.2439  F20    
G01 X1.2839  Y0.2635  
G01 X1.2561  Y0.2635  
G01 X1.2365  Y0.2439  
G01 X1.2365  Y0.2161  
G01 X1.2561  Y0.1965  
G01 X1.2839  Y0.1965  
G01 X1.3035  Y0.2161  
G00 Z0.1000  
G00 X1.4035  Y0.2161  
G01 Z-0.0070 F10    
G01 X1.4035  Y0.2439  F20    
G01 X1.3839  Y0.2635  
G01 X1.3561  Y0.2635  
G01 X1.3365  Y0.2439  
G01 X1.3365  Y0.2161  
G01 X1.3561  Y0.1965  
G01 X1.3839  Y0.1965  
G01 X1.4035  Y0.2161  
G00 Z0.1000  
G00 X2.3525  Y1.0083  
G01 Z-0.0070 F10    
G01 X2.3525  Y1.0517  F20    
G01 X2.3217  Y1.0825  
G01 X2.2783  Y1.0825  
G01 X2.2475  Y1.0517  
G01 X2.2475  Y1.0083  
G01 X2.2783  Y0.9775  
G01 X2.3217  Y0.9775  
G01 X2.3525  Y1.0083  
G00 Z0.1000  
G00 X2.0525  Y1.0083  
G01 Z-0.0070 F10    
G01 X2.0525  Y1.0517  F20    
G01 X2.0217  Y1.0825  
G01 X1.9783  Y1.0825  
G01 X1.9475  Y1.0517  
G01 X1.9475  Y1.0083  
G01 X1.9783  Y0.9775  
G01 X2.0217  Y0.9775  
G01 X2.0525  Y1.0083  
G00 Z0.1000  
G00 X0.5435  Y0.9861  
G01 Z-0.0070 F10    
G01 X0.5435  Y1.0139  F20    
G01 X0.5239  Y1.0335  
G01 X0.4961  Y1.0335  
G01 X0.4765  Y1.0139  
G01 X0.4765  Y0.9861  
G01 X0.4961  Y0.9665  
G01 X0.5239  Y0.9665  
G01 X0.5435  Y0.9861  
G00 Z0.1000  
G00 X0.4435  Y0.9861  
G01 Z-0.0070 F10    
G01 X0.4435  Y1.0139  F20    
G01 X0.4239  Y1.0335  
G01 X0.3961  Y1.0335  
G01 X0.3765  Y1.0139  
G01 X0.3765  Y0.9861  
G01 X0.3961  Y0.9665  
G01 X0.4239  Y0.9665  
G01 X0.4435  Y0.9861  
G00 Z0.1000  
G00 X1.4235  Y1.1561  
G01 Z-0.0070 F10    
G01 X1.4235  Y1.1839  F20    
G01 X1.4039  Y1.2035  
G01 X1.3761  Y1.2035  
G01 X1.3565  Y1.1839  
G01 X1.3565  Y1.1561  
G01 X1.3761  Y1.1365  
G01 X1.4039  Y1.1365  
G01 X1.4235  Y1.1561  
G00 Z0.1000  
G00 X1.4735  Y1.2311  
G01 Z-0.0070 F10    
G01 X1.4735  Y1.2589  F20    
G01 X1.4539  Y1.2785  
G01 X1.4261  Y1.2785  
G01 X1.4065  Y1.2589  
G01 X1.4065  Y1.2311  
G01 X1.4261  Y1.2115  
G01 X1.4539  Y1.2115  
G01 X1.4735  Y1.2311  
G00 Z0.1000  
G00 X1.5235  Y1.1561  
G01 Z-0.0070 F10    
G01 X1.5235  Y1.1839  F20    
G01 X1.5039  Y1.2035  
G01 X1.4761  Y1.2035  
G01 X1.4565  Y1.1839  
G01 X1.4565  Y1.1561  
G01 X1.4761  Y1.1365  
G01 X1.5039  Y1.1365  
G01 X1.5235  Y1.1561  
G00 Z0.1000  
G00 X1.1755  Y1.1709  
G01 Z-0.0070 F10    
G01 X1.1755  Y1.1891  F20    
G01 X1.1686  Y1.2058  
G01 X1.1558  Y1.2186  
G01 X1.1391  Y1.2255  
G01 X1.1209  Y1.2255  
G01 X1.1042  Y1.2186  
G01 X1.0914  Y1.2058  
G01 X1.0845  Y1.1891  
G01 X1.0845  Y1.1709  
G01 X1.0914  Y1.1542  
G01 X1.1042  Y1.1414  
G01 X1.1209  Y1.1345  
G01 X1.1391  Y1.1345  
G01 X1.1558  Y1.1414  
G01 X1.1686  Y1.1542  
G01 X1.1755  Y1.1709  
G00 Z0.1000  
G00 X1.2755  Y1.1612  
G01 Z-0.0070 F10    
G01 X1.2755  Y1.1988  F20    
G01 X1.2488  Y1.2255  
G01 X1.2112  Y1.2255  
G01 X1.1845  Y1.1988  
G01 X1.1845  Y1.1612  
G01 X1.2112  Y1.1345  
G01 X1.2488  Y1.1345  
G01 X1.2755  Y1.1612  
G00 Z0.1000  
G00 X1.7955  Y1.2109  
G01 Z-0.0070 F10    
G01 X1.7955  Y1.2291  F20    
G01 X1.7886  Y1.2458  
G01 X1.7758  Y1.2586  
G01 X1.7591  Y1.2655  
G01 X1.7409  Y1.2655  
G01 X1.7242  Y1.2586  
G01 X1.7114  Y1.2458  
G01 X1.7045  Y1.2291  
G01 X1.7045  Y1.2109  
G01 X1.7114  Y1.1942  
G01 X1.7242  Y1.1814  
G01 X1.7409  Y1.1745  
G01 X1.7591  Y1.1745  
G01 X1.7758  Y1.1814  
G01 X1.7886  Y1.1942  
G01 X1.7955  Y1.2109  
G00 Z0.1000  
G00 X1.7955  Y1.1012  
G01 Z-0.0070 F10    
G01 X1.7955  Y1.1388  F20    
G01 X1.7688  Y1.1655  
G01 X1.7312  Y1.1655  
G01 X1.7045  Y1.1388  
G01 X1.7045  Y1.1012  
G01 X1.7312  Y1.0745  
G01 X1.7688  Y1.0745  
G01 X1.7955  Y1.1012  
G00 Z0.1000  
G00 X1.8005  Y1.2100  
G01 Z-0.0070 F10    
G01 X1.8005  Y1.2300  F20    
G01 X1.7928  Y1.2486  
G01 X1.7786  Y1.2628  
G01 X1.7600  Y1.2705  
G01 X1.7400  Y1.2705  
G01 X1.7214  Y1.2628  
G01 X1.7072  Y1.2486  
G01 X1.6995  Y1.2300  
G01 X1.6995  Y1.2100  
G01 X1.7072  Y1.1914  
G01 X1.7214  Y1.1772  
G01 X1.7376  Y1.1705  
G01 X1.7291  Y1.1705  
G01 X1.6995  Y1.1409  
G01 X1.6995  Y1.0991  
G01 X1.7291  Y1.0695  
G01 X1.7709  Y1.0695  
G01 X1.8005  Y1.0991  
G01 X1.8005  Y1.1409  
G01 X1.7709  Y1.1705  
G01 X1.7624  Y1.1705  
G01 X1.7786  Y1.1772  
G01 X1.7928  Y1.1914  
G01 X1.8005  Y1.2100  
G00 Z0.1000  
G00 X1.4785  Y1.2291  
G01 Z-0.0070 F10    
G01 X1.4785  Y1.2609  F20    
G01 X1.4559  Y1.2835  
G01 X1.4241  Y1.2835  
G01 X1.4015  Y1.2609  
G01 X1.4015  Y1.2291  
G01 X1.4241  Y1.2065  
G01 X1.4559  Y1.2065  
G01 X1.4785  Y1.2291  
G00 Z0.1000  
G00 X0.8406  Y0.6013  
G01 Z-0.0070 F10    
G01 X0.8406  Y0.6786  F20    
G01 X0.8348  Y0.6928  
G01 X0.8239  Y0.7036  
G01 X0.8098  Y0.7094  
G01 X0.7945  Y0.7094  
G01 X0.7803  Y0.7036  
G01 X0.7695  Y0.6928  
G01 X0.7636  Y0.6786  
G01 X0.7636  Y0.6013  
G01 X0.7695  Y0.5871  
G01 X0.7803  Y0.5763  
G01 X0.7945  Y0.5704  
G01 X0.8098  Y0.5704  
G01 X0.8239  Y0.5763  
G01 X0.8348  Y0.5871  
G01 X0.8406  Y0.6013  
G00 Z0.1000  
G00 X0.8030  Y0.8587  
G01 Z-0.0070 F10    
G01 X0.8030  Y0.7814  F20    
G01 X0.8089  Y0.7672  
G01 X0.8197  Y0.7564  
G01 X0.8338  Y0.7506  
G01 X0.8492  Y0.7506  
G01 X0.8633  Y0.7564  
G01 X0.8741  Y0.7672  
G01 X0.8800  Y0.7814  
G01 X0.8800  Y0.8587  
G01 X0.8741  Y0.8729  
G01 X0.8633  Y0.8837  
G01 X0.8492  Y0.8896  
G01 X0.8338  Y0.8896  
G01 X0.8197  Y0.8837  
G01 X0.8089  Y0.8729  
G01 X0.8030  Y0.8587  
G00 Z0.1000  
G00 X0.7619  Y0.6013  
G01 Z-0.0070 F10    
G01 X0.7619  Y0.6786  F20    
G01 X0.7560  Y0.6928  
G01 X0.7452  Y0.7036  
G01 X0.7310  Y0.7094  
G01 X0.7157  Y0.7094  
G01 X0.7016  Y0.7036  
G01 X0.6907  Y0.6928  
G01 X0.6849  Y0.6786  
G01 X0.6849  Y0.6013  
G01 X0.6907  Y0.5871  
G01 X0.7016  Y0.5763  
G01 X0.7157  Y0.5704  
G01 X0.7310  Y0.5704  
G01 X0.7452  Y0.5763  
G01 X0.7560  Y0.5871  
G01 X0.7619  Y0.6013  
G00 Z0.1000  
G00 X0.9194  Y0.6013  
G01 Z-0.0070 F10    
G01 X0.9194  Y0.6786  F20    
G01 X0.9135  Y0.6928  
G01 X0.9027  Y0.7036  
G01 X0.8885  Y0.7094  
G01 X0.8732  Y0.7094  
G01 X0.8591  Y0.7036  
G01 X0.8482  Y0.6928  
G01 X0.8424  Y0.6786  
G01 X0.8424  Y0.6013  
G01 X0.8482  Y0.5871  
G01 X0.8591  Y0.5763  
G01 X0.8732  Y0.5704  
G01 X0.8885  Y0.5704  
G01 X0.9027  Y0.5763  
G01 X0.9135  Y0.5871  
G01 X0.9194  Y0.6013  
G00 Z0.1000  
G00 X0.8817  Y0.8587  
G01 Z-0.0070 F10    
G01 X0.8817  Y0.7814  F20    
G01 X0.8876  Y0.7672  
G01 X0.8984  Y0.7564  
G01 X0.9126  Y0.7506  
G01 X0.9279  Y0.7506  
G01 X0.9420  Y0.7564  
G01 X0.9529  Y0.7672  
G01 X0.9587  Y0.7814  
G01 X0.9587  Y0.8587  
G01 X0.9529  Y0.8729  
G01 X0.9420  Y0.8837  
G01 X0.9279  Y0.8896  
G01 X0.9126  Y0.8896  
G01 X0.8984  Y0.8837  
G01 X0.8876  Y0.8729  
G01 X0.8817  Y0.8587  
G00 Z0.1000  
G00 X0.7243  Y0.8587  
G01 Z-0.0070 F10    
G01 X0.7243  Y0.7814  F20    
G01 X0.7301  Y0.7672  
G01 X0.7409  Y0.7564  
G01 X0.7551  Y0.7506  
G01 X0.7704  Y0.7506  
G01 X0.7846  Y0.7564  
G01 X0.7954  Y0.7672  
G01 X0.8013  Y0.7814  
G01 X0.8013  Y0.8587  
G01 X0.7954  Y0.8729  
G01 X0.7846  Y0.8837  
G01 X0.7704  Y0.8896  
G01 X0.7551  Y0.8896  
G01 X0.7409  Y0.8837  
G01 X0.7301  Y0.8729  
G01 X0.7243  Y0.8587  
G00 Z0.1000  
G00 X1.5313  Y0.3015  
G01 Z-0.0070 F10    
G01 X1.6087  Y0.3015  F20    
G01 X1.6228  Y0.3074  
G01 X1.6336  Y0.3182  
G01 X1.6395  Y0.3323  
G01 X1.6395  Y0.3477  
G01 X1.6336  Y0.3618  
G01 X1.6228  Y0.3726  
G01 X1.6087  Y0.3785  
G01 X1.5313  Y0.3785  
G01 X1.5172  Y0.3726  
G01 X1.5064  Y0.3618  
G01 X1.5005  Y0.3477  
G01 X1.5005  Y0.3323  
G01 X1.5064  Y0.3182  
G01 X1.5172  Y0.3074  
G01 X1.5313  Y0.3015  
G00 Z0.1000  
G00 X1.5313  Y0.4015  
G01 Z-0.0070 F10    
G01 X1.6087  Y0.4015  F20    
G01 X1.6228  Y0.4074  
G01 X1.6336  Y0.4182  
G01 X1.6395  Y0.4323  
G01 X1.6395  Y0.4477  
G01 X1.6336  Y0.4618  
G01 X1.6228  Y0.4726  
G01 X1.6087  Y0.4785  
G01 X1.5313  Y0.4785  
G01 X1.5172  Y0.4726  
G01 X1.5064  Y0.4618  
G01 X1.5005  Y0.4477  
G01 X1.5005  Y0.4323  
G01 X1.5064  Y0.4182  
G01 X1.5172  Y0.4074  
G01 X1.5313  Y0.4015  
G00 Z0.1000  
G00 X1.5313  Y0.5015  
G01 Z-0.0070 F10    
G01 X1.6087  Y0.5015  F20    
G01 X1.6228  Y0.5074  
G01 X1.6336  Y0.5182  
G01 X1.6395  Y0.5323  
G01 X1.6395  Y0.5477  
G01 X1.6336  Y0.5618  
G01 X1.6228  Y0.5726  
G01 X1.6087  Y0.5785  
G01 X1.5313  Y0.5785  
G01 X1.5172  Y0.5726  
G01 X1.5064  Y0.5618  
G01 X1.5005  Y0.5477  
G01 X1.5005  Y0.5323  
G01 X1.5064  Y0.5182  
G01 X1.5172  Y0.5074  
G01 X1.5313  Y0.5015  
G00 Z0.1000  
G00 X1.5313  Y0.6015  
G01 Z-0.0070 F10    
G01 X1.6087  Y0.6015  F20    
G01 X1.6228  Y0.6074  
G01 X1.6336  Y0.6182  
G01 X1.6395  Y0.6323  
G01 X1.6395  Y0.6477  
G01 X1.6336  Y0.6618  
G01 X1.6228  Y0.6726  
G01 X1.6087  Y0.6785  
G01 X1.5313  Y0.6785  
G01 X1.5172  Y0.6726  
G01 X1.5064  Y0.6618  
G01 X1.5005  Y0.6477  
G01 X1.5005  Y0.6323  
G01 X1.5064  Y0.6182  
G01 X1.5172  Y0.6074  
G01 X1.5313  Y0.6015  
G00 Z0.1000  
G00 X1.5313  Y0.7015  
G01 Z-0.0070 F10    
G01 X1.6087  Y0.7015  F20    
G01 X1.6228  Y0.7074  
G01 X1.6336  Y0.7182  
G01 X1.6395  Y0.7323  
G01 X1.6395  Y0.7477  
G01 X1.6336  Y0.7618  
G01 X1.6228  Y0.7726  
G01 X1.6087  Y0.7785  
G01 X1.5313  Y0.7785  
G01 X1.5172  Y0.7726  
G01 X1.5064  Y0.7618  
G01 X1.5005  Y0.7477  
G01 X1.5005  Y0.7323  
G01 X1.5064  Y0.7182  
G01 X1.5172  Y0.7074  
G01 X1.5313  Y0.7015  
G00 Z0.1000  
G00 X1.5313  Y0.8015  
G01 Z-0.0070 F10    
G01 X1.6087  Y0.8015  F20    
G01 X1.6228  Y0.8074  
G01 X1.6336  Y0.8182  
G01 X1.6395  Y0.8323  
G01 X1.6395  Y0.8477  
G01 X1.6336  Y0.8618  
G01 X1.6228  Y0.8726  
G01 X1.6087  Y0.8785  
G01 X1.5313  Y0.8785  
G01 X1.5172  Y0.8726  
G01 X1.5064  Y0.8618  
G01 X1.5005  Y0.8477  
G01 X1.5005  Y0.8323  
G01 X1.5064  Y0.8182  
G01 X1.5172  Y0.8074  
G01 X1.5313  Y0.8015  
G00 Z0.1000  
G00 X1.5313  Y0.9015  
G01 Z-0.0070 F10    
G01 X1.6087  Y0.9015  F20    
G01 X1.6228  Y0.9074  
G01 X1.6336  Y0.9182  
G01 X1.6395  Y0.9323  
G01 X1.6395  Y0.9477  
G01 X1.6336  Y0.9618  
G01 X1.6228  Y0.9726  
G01 X1.6087  Y0.9785  
G01 X1.5313  Y0.9785  
G01 X1.5172  Y0.9726  
G01 X1.5064  Y0.9618  
G01 X1.5005  Y0.9477  
G01 X1.5005  Y0.9323  
G01 X1.5064  Y0.9182  
G01 X1.5172  Y0.9074  
G01 X1.5313  Y0.9015  
G00 Z0.1000  
G00 X1.5313  Y1.0015  
G01 Z-0.0070 F10    
G01 X1.6087  Y1.0015  F20    
G01 X1.6228  Y1.0074  
G01 X1.6336  Y1.0182  
G01 X1.6395  Y1.0323  
G01 X1.6395  Y1.0477  
G01 X1.6336  Y1.0618  
G01 X1.6228  Y1.0726  
G01 X1.6087  Y1.0785  
G01 X1.5313  Y1.0785  
G01 X1.5172  Y1.0726  
G01 X1.5064  Y1.0618  
G01 X1.5005  Y1.0477  
G01 X1.5005  Y1.0323  
G01 X1.5064  Y1.0182  
G01 X1.5172  Y1.0074  
G01 X1.5313  Y1.0015  
G00 Z0.1000  
G00 X1.2313  Y1.0015  
G01 Z-0.0070 F10    
G01 X1.3087  Y1.0015  F20    
G01 X1.3228  Y1.0074  
G01 X1.3336  Y1.0182  
G01 X1.3395  Y1.0323  
G01 X1.3395  Y1.0477  
G01 X1.3336  Y1.0618  
G01 X1.3228  Y1.0726  
G01 X1.3087  Y1.0785  
G01 X1.2313  Y1.0785  
G01 X1.2172  Y1.0726  
G01 X1.2064  Y1.0618  
G01 X1.2005  Y1.0477  
G01 X1.2005  Y1.0323  
G01 X1.2064  Y1.0182  
G01 X1.2172  Y1.0074  
G01 X1.2313  Y1.0015  
G00 Z0.1000  
G00 X1.2313  Y0.9015  
G01 Z-0.0070 F10    
G01 X1.3087  Y0.9015  F20    
G01 X1.3228  Y0.9074  
G01 X1.3336  Y0.9182  
G01 X1.3395  Y0.9323  
G01 X1.3395  Y0.9477  
G01 X1.3336  Y0.9618  
G01 X1.3228  Y0.9726  
G01 X1.3087  Y0.9785  
G01 X1.2313  Y0.9785  
G01 X1.2172  Y0.9726  
G01 X1.2064  Y0.9618  
G01 X1.2005  Y0.9477  
G01 X1.2005  Y0.9323  
G01 X1.2064  Y0.9182  
G01 X1.2172  Y0.9074  
G01 X1.2313  Y0.9015  
G00 Z0.1000  
G00 X1.2313  Y0.8015  
G01 Z-0.0070 F10    
G01 X1.3087  Y0.8015  F20    
G01 X1.3228  Y0.8074  
G01 X1.3336  Y0.8182  
G01 X1.3395  Y0.8323  
G01 X1.3395  Y0.8477  
G01 X1.3336  Y0.8618  
G01 X1.3228  Y0.8726  
G01 X1.3087  Y0.8785  
G01 X1.2313  Y0.8785  
G01 X1.2172  Y0.8726  
G01 X1.2064  Y0.8618  
G01 X1.2005  Y0.8477  
G01 X1.2005  Y0.8323  
G01 X1.2064  Y0.8182  
G01 X1.2172  Y0.8074  
G01 X1.2313  Y0.8015  
G00 Z0.1000  
G00 X1.2313  Y0.7015  
G01 Z-0.0070 F10    
G01 X1.3087  Y0.7015  F20    
G01 X1.3228  Y0.7074  
G01 X1.3336  Y0.7182  
G01 X1.3395  Y0.7323  
G01 X1.3395  Y0.7477  
G01 X1.3336  Y0.7618  
G01 X1.3228  Y0.7726  
G01 X1.3087  Y0.7785  
G01 X1.2313  Y0.7785  
G01 X1.2172  Y0.7726  
G01 X1.2064  Y0.7618  
G01 X1.2005  Y0.7477  
G01 X1.2005  Y0.7323  
G01 X1.2064  Y0.7182  
G01 X1.2172  Y0.7074  
G01 X1.2313  Y0.7015  
G00 Z0.1000  
G00 X1.2313  Y0.6015  
G01 Z-0.0070 F10    
G01 X1.3087  Y0.6015  F20    
G01 X1.3228  Y0.6074  
G01 X1.3336  Y0.6182  
G01 X1.3395  Y0.6323  
G01 X1.3395  Y0.6477  
G01 X1.3336  Y0.6618  
G01 X1.3228  Y0.6726  
G01 X1.3087  Y0.6785  
G01 X1.2313  Y0.6785  
G01 X1.2172  Y0.6726  
G01 X1.2064  Y0.6618  
G01 X1.2005  Y0.6477  
G01 X1.2005  Y0.6323  
G01 X1.2064  Y0.6182  
G01 X1.2172  Y0.6074  
G01 X1.2313  Y0.6015  
G00 Z0.1000  
G00 X1.2313  Y0.5015  
G01 Z-0.0070 F10    
G01 X1.3087  Y0.5015  F20    
G01 X1.3228  Y0.5074  
G01 X1.3336  Y0.5182  
G01 X1.3395  Y0.5323  
G01 X1.3395  Y0.5477  
G01 X1.3336  Y0.5618  
G01 X1.3228  Y0.5726  
G01 X1.3087  Y0.5785  
G01 X1.2313  Y0.5785  
G01 X1.2172  Y0.5726  
G01 X1.2064  Y0.5618  
G01 X1.2005  Y0.5477  
G01 X1.2005  Y0.5323  
G01 X1.2064  Y0.5182  
G01 X1.2172  Y0.5074  
G01 X1.2313  Y0.5015  
G00 Z0.1000  
G00 X1.2313  Y0.4015  
G01 Z-0.0070 F10    
G01 X1.3087  Y0.4015  F20    
G01 X1.3228  Y0.4074  
G01 X1.3336  Y0.4182  
G01 X1.3395  Y0.4323  
G01 X1.3395  Y0.4477  
G01 X1.3336  Y0.4618  
G01 X1.3228  Y0.4726  
G01 X1.3087  Y0.4785  
G01 X1.2313  Y0.4785  
G01 X1.2172  Y0.4726  
G01 X1.2064  Y0.4618  
G01 X1.2005  Y0.4477  
G01 X1.2005  Y0.4323  
G01 X1.2064  Y0.4182  
G01 X1.2172  Y0.4074  
G01 X1.2313  Y0.4015  
G00 Z0.1000  
G00 X1.2313  Y0.3015  
G01 Z-0.0070 F10    
G01 X1.3087  Y0.3015  F20    
G01 X1.3228  Y0.3074  
G01 X1.3336  Y0.3182  
G01 X1.3395  Y0.3323  
G01 X1.3395  Y0.3477  
G01 X1.3336  Y0.3618  
G01 X1.3228  Y0.3726  
G01 X1.3087  Y0.3785  
G01 X1.2313  Y0.3785  
G01 X1.2172  Y0.3726  
G01 X1.2064  Y0.3618  
G01 X1.2005  Y0.3477  
G01 X1.2005  Y0.3323  
G01 X1.2064  Y0.3182  
G01 X1.2172  Y0.3074  
G01 X1.2313  Y0.3015  
G00 Z0.1000  
G00 X0.3325  Y0.9824  
G01 Z-0.0070 F10    
G01 X0.3325  Y1.0176  F20    
G01 X0.3076  Y1.0425  
G01 X0.2724  Y1.0425  
G01 X0.2475  Y1.0176  
G01 X0.2475  Y0.9824  
G01 X0.2724  Y0.9575  
G01 X0.3076  Y0.9575  
G01 X0.3325  Y0.9824  
G00 Z0.1000  
G00 X0.3325  Y0.8824  
G01 Z-0.0070 F10    
G01 X0.3325  Y0.9176  F20    
G01 X0.3076  Y0.9425  
G01 X0.2724  Y0.9425  
G01 X0.2475  Y0.9176  
G01 X0.2475  Y0.8824  
G01 X0.2724  Y0.8575  
G01 X0.3076  Y0.8575  
G01 X0.3325  Y0.8824  
G00 Z0.1000  
G00 X0.3325  Y0.7824  
G01 Z-0.0070 F10    
G01 X0.3325  Y0.8176  F20    
G01 X0.3076  Y0.8425  
G01 X0.2724  Y0.8425  
G01 X0.2475  Y0.8176  
G01 X0.2475  Y0.7824  
G01 X0.2724  Y0.7575  
G01 X0.3076  Y0.7575  
G01 X0.3325  Y0.7824  
G00 Z0.1000  
G00 X0.3325  Y0.6824  
G01 Z-0.0070 F10    
G01 X0.3325  Y0.7176  F20    
G01 X0.3076  Y0.7425  
G01 X0.2724  Y0.7425  
G01 X0.2475  Y0.7176  
G01 X0.2475  Y0.6824  
G01 X0.2724  Y0.6575  
G01 X0.3076  Y0.6575  
G01 X0.3325  Y0.6824  
G00 Z0.1000  
G00 X0.3325  Y0.5824  
G01 Z-0.0070 F10    
G01 X0.3325  Y0.6176  F20    
G01 X0.3076  Y0.6425  
G01 X0.2724  Y0.6425  
G01 X0.2475  Y0.6176  
G01 X0.2475  Y0.5824  
G01 X0.2724  Y0.5575  
G01 X0.3076  Y0.5575  
G01 X0.3325  Y0.5824  
G00 Z0.1000  
G00 X0.3325  Y0.4824  
G01 Z-0.0070 F10    
G01 X0.3325  Y0.5176  F20    
G01 X0.3076  Y0.5425  
G01 X0.2724  Y0.5425  
G01 X0.2475  Y0.5176  
G01 X0.2475  Y0.4824  
G01 X0.2724  Y0.4575  
G01 X0.3076  Y0.4575  
G01 X0.3325  Y0.4824  
G00 Z0.1000  
G00 X0.2325  Y0.9824  
G01 Z-0.0070 F10    
G01 X0.2325  Y1.0176  F20    
G01 X0.2076  Y1.0425  
G01 X0.1724  Y1.0425  
G01 X0.1475  Y1.0176  
G01 X0.1475  Y0.9824  
G01 X0.1724  Y0.9575  
G01 X0.2076  Y0.9575  
G01 X0.2325  Y0.9824  
G00 Z0.1000  
G00 X0.2325  Y0.8824  
G01 Z-0.0070 F10    
G01 X0.2325  Y0.9176  F20    
G01 X0.2076  Y0.9425  
G01 X0.1724  Y0.9425  
G01 X0.1475  Y0.9176  
G01 X0.1475  Y0.8824  
G01 X0.1724  Y0.8575  
G01 X0.2076  Y0.8575  
G01 X0.2325  Y0.8824  
G00 Z0.1000  
G00 X0.2325  Y0.7824  
G01 Z-0.0070 F10    
G01 X0.2325  Y0.8176  F20    
G01 X0.2076  Y0.8425  
G01 X0.1724  Y0.8425  
G01 X0.1475  Y0.8176  
G01 X0.1475  Y0.7824  
G01 X0.1724  Y0.7575  
G01 X0.2076  Y0.7575  
G01 X0.2325  Y0.7824  
G00 Z0.1000  
G00 X0.2325  Y0.6824  
G01 Z-0.0070 F10    
G01 X0.2325  Y0.7176  F20    
G01 X0.2076  Y0.7425  
G01 X0.1724  Y0.7425  
G01 X0.1475  Y0.7176  
G01 X0.1475  Y0.6824  
G01 X0.1724  Y0.6575  
G01 X0.2076  Y0.6575  
G01 X0.2325  Y0.6824  
G00 Z0.1000  
G00 X0.2325  Y0.5824  
G01 Z-0.0070 F10    
G01 X0.2325  Y0.6176  F20    
G01 X0.2076  Y0.6425  
G01 X0.1724  Y0.6425  
G01 X0.1475  Y0.6176  
G01 X0.1475  Y0.5824  
G01 X0.1724  Y0.5575  
G01 X0.2076  Y0.5575  
G01 X0.2325  Y0.5824  
G00 Z0.1000  
G00 X0.2325  Y0.4824  
G01 Z-0.0070 F10    
G01 X0.2325  Y0.5176  F20    
G01 X0.2076  Y0.5425  
G01 X0.1724  Y0.5425  
G01 X0.1475  Y0.5176  
G01 X0.1475  Y0.4824  
G01 X0.1724  Y0.4575  
G01 X0.2076  Y0.4575  
G01 X0.2325  Y0.4824  
G00 Z0.1000  
G00 X0.3325  Y0.3824  
G01 Z-0.0070 F10    
G01 X0.3325  Y0.4176  F20    
G01 X0.3076  Y0.4425  
G01 X0.2724  Y0.4425  
G01 X0.2475  Y0.4176  
G01 X0.2475  Y0.3824  
G01 X0.2724  Y0.3575  
G01 X0.3076  Y0.3575  
G01 X0.3325  Y0.3824  
G00 Z0.1000  
G00 X0.2325  Y0.3824  
G01 Z-0.0070 F10    
G01 X0.2325  Y0.4176  F20    
G01 X0.2076  Y0.4425  
G01 X0.1724  Y0.4425  
G01 X0.1475  Y0.4176  
G01 X0.1475  Y0.3824  
G01 X0.1724  Y0.3575  
G01 X0.2076  Y0.3575  
G01 X0.2325  Y0.3824  
G00 Z0.1000  
G00 X0.8387  Y0.4085  
G01 Z-0.0070 F10    
G01 X0.7613  Y0.4085  F20    
G01 X0.7472  Y0.4026  
G01 X0.7364  Y0.3918  
G01 X0.7305  Y0.3777  
G01 X0.7305  Y0.3623  
G01 X0.7364  Y0.3482  
G01 X0.7472  Y0.3374  
G01 X0.7613  Y0.3315  
G01 X0.8387  Y0.3315  
G01 X0.8528  Y0.3374  
G01 X0.8636  Y0.3482  
G01 X0.8695  Y0.3623  
G01 X0.8695  Y0.3777  
G01 X0.8636  Y0.3918  
G01 X0.8528  Y0.4026  
G01 X0.8387  Y0.4085  
G00 Z0.1000  
G00 X1.1387  Y0.3085  
G01 Z-0.0070 F10    
G01 X1.0613  Y0.3085  F20    
G01 X1.0472  Y0.3026  
G01 X1.0364  Y0.2918  
G01 X1.0305  Y0.2777  
G01 X1.0305  Y0.2623  
G01 X1.0364  Y0.2482  
G01 X1.0472  Y0.2374  
G01 X1.0613  Y0.2315  
G01 X1.1387  Y0.2315  
G01 X1.1528  Y0.2374  
G01 X1.1636  Y0.2482  
G01 X1.1695  Y0.2623  
G01 X1.1695  Y0.2777  
G01 X1.1636  Y0.2918  
G01 X1.1528  Y0.3026  
G01 X1.1387  Y0.3085  
G00 Z0.1000  
G00 X0.6387  Y0.3085  
G01 Z-0.0070 F10    
G01 X0.5613  Y0.3085  F20    
G01 X0.5472  Y0.3026  
G01 X0.5364  Y0.2918  
G01 X0.5305  Y0.2777  
G01 X0.5305  Y0.2623  
G01 X0.5364  Y0.2482  
G01 X0.5472  Y0.2374  
G01 X0.5613  Y0.2315  
G01 X0.6387  Y0.2315  
G01 X0.6528  Y0.2374  
G01 X0.6636  Y0.2482  
G01 X0.6695  Y0.2623  
G01 X0.6695  Y0.2777  
G01 X0.6636  Y0.2918  
G01 X0.6528  Y0.3026  
G01 X0.6387  Y0.3085  
G00 Z0.1000  
G00 X2.1113  Y0.1115  
G01 Z-0.0070 F10    
G01 X2.1887  Y0.1115  F20    
G01 X2.2028  Y0.1174  
G01 X2.2136  Y0.1282  
G01 X2.2195  Y0.1423  
G01 X2.2195  Y0.1577  
G01 X2.2136  Y0.1718  
G01 X2.2028  Y0.1826  
G01 X2.1887  Y0.1885  
G01 X2.1113  Y0.1885  
G01 X2.0972  Y0.1826  
G01 X2.0864  Y0.1718  
G01 X2.0805  Y0.1577  
G01 X2.0805  Y0.1423  
G01 X2.0864  Y0.1282  
G01 X2.0972  Y0.1174  
G01 X2.1113  Y0.1115  
G00 Z0.1000  
G00 X2.1113  Y0.2115  
G01 Z-0.0070 F10    
G01 X2.1887  Y0.2115  F20    
G01 X2.2028  Y0.2174  
G01 X2.2136  Y0.2282  
G01 X2.2195  Y0.2423  
G01 X2.2195  Y0.2577  
G01 X2.2136  Y0.2718  
G01 X2.2028  Y0.2826  
G01 X2.1887  Y0.2885  
G01 X2.1113  Y0.2885  
G01 X2.0972  Y0.2826  
G01 X2.0864  Y0.2718  
G01 X2.0805  Y0.2577  
G01 X2.0805  Y0.2423  
G01 X2.0864  Y0.2282  
G01 X2.0972  Y0.2174  
G01 X2.1113  Y0.2115  
G00 Z0.1000  
G00 X2.1113  Y0.3115  
G01 Z-0.0070 F10    
G01 X2.1887  Y0.3115  F20    
G01 X2.2028  Y0.3174  
G01 X2.2136  Y0.3282  
G01 X2.2195  Y0.3423  
G01 X2.2195  Y0.3577  
G01 X2.2136  Y0.3718  
G01 X2.2028  Y0.3826  
G01 X2.1887  Y0.3885  
G01 X2.1113  Y0.3885  
G01 X2.0972  Y0.3826  
G01 X2.0864  Y0.3718  
G01 X2.0805  Y0.3577  
G01 X2.0805  Y0.3423  
G01 X2.0864  Y0.3282  
G01 X2.0972  Y0.3174  
G01 X2.1113  Y0.3115  
G00 Z0.1000  
G00 X1.8113  Y0.3115  
G01 Z-0.0070 F10    
G01 X1.8887  Y0.3115  F20    
G01 X1.9028  Y0.3174  
G01 X1.9136  Y0.3282  
G01 X1.9195  Y0.3423  
G01 X1.9195  Y0.3577  
G01 X1.9136  Y0.3718  
G01 X1.9028  Y0.3826  
G01 X1.8887  Y0.3885  
G01 X1.8113  Y0.3885  
G01 X1.7972  Y0.3826  
G01 X1.7864  Y0.3718  
G01 X1.7805  Y0.3577  
G01 X1.7805  Y0.3423  
G01 X1.7864  Y0.3282  
G01 X1.7972  Y0.3174  
G01 X1.8113  Y0.3115  
G00 Z0.1000  
G00 X1.8113  Y0.2115  
G01 Z-0.0070 F10    
G01 X1.8887  Y0.2115  F20    
G01 X1.9028  Y0.2174  
G01 X1.9136  Y0.2282  
G01 X1.9195  Y0.2423  
G01 X1.9195  Y0.2577  
G01 X1.9136  Y0.2718  
G01 X1.9028  Y0.2826  
G01 X1.8887  Y0.2885  
G01 X1.8113  Y0.2885  
G01 X1.7972  Y0.2826  
G01 X1.7864  Y0.2718  
G01 X1.7805  Y0.2577  
G01 X1.7805  Y0.2423  
G01 X1.7864  Y0.2282  
G01 X1.7972  Y0.2174  
G01 X1.8113  Y0.2115  
G00 Z0.1000  
G00 X1.8113  Y0.1115  
G01 Z-0.0070 F10    
G01 X1.8887  Y0.1115  F20    
G01 X1.9028  Y0.1174  
G01 X1.9136  Y0.1282  
G01 X1.9195  Y0.1423  
G01 X1.9195  Y0.1577  
G01 X1.9136  Y0.1718  
G01 X1.9028  Y0.1826  
G01 X1.8887  Y0.1885  
G01 X1.8113  Y0.1885  
G01 X1.7972  Y0.1826  
G01 X1.7864  Y0.1718  
G01 X1.7805  Y0.1577  
G01 X1.7805  Y0.1423  
G01 X1.7864  Y0.1282  
G01 X1.7972  Y0.1174  
G01 X1.8113  Y0.1115  
G00 Z0.1000  
G00 X1.8385  Y0.6641  
G01 Z-0.0070 F10    
G01 X1.8385  Y0.6959  F20    
G01 X1.8159  Y0.7185  
G01 X1.7841  Y0.7185  
G01 X1.7615  Y0.6959  
G01 X1.7615  Y0.6641  
G01 X1.7841  Y0.6415  
G01 X1.8159  Y0.6415  
G01 X1.8385  Y0.6641  
G00 Z0.1000  
G00 X1.8385  Y0.4641  
G01 Z-0.0070 F10    
G01 X1.8385  Y0.4959  F20    
G01 X1.8159  Y0.5185  
G01 X1.7841  Y0.5185  
G01 X1.7615  Y0.4959  
G01 X1.7615  Y0.4641  
G01 X1.7841  Y0.4415  
G01 X1.8159  Y0.4415  
G01 X1.8385  Y0.4641  
G00 Z0.1000  
G00 X1.9585  Y0.6641  
G01 Z-0.0070 F10    
G01 X1.9585  Y0.6959  F20    
G01 X1.9359  Y0.7185  
G01 X1.9041  Y0.7185  
G01 X1.8815  Y0.6959  
G01 X1.8815  Y0.6641  
G01 X1.9041  Y0.6415  
G01 X1.9359  Y0.6415  
G01 X1.9585  Y0.6641  
G00 Z0.1000  
G00 X1.9585  Y0.4641  
G01 Z-0.0070 F10    
G01 X1.9585  Y0.4959  F20    
G01 X1.9359  Y0.5185  
G01 X1.9041  Y0.5185  
G01 X1.8815  Y0.4959  
G01 X1.8815  Y0.4641  
G01 X1.9041  Y0.4415  
G01 X1.9359  Y0.4415  
G01 X1.9585  Y0.4641  
G00 Z0.1000  
G00 X2.0785  Y0.6641  
G01 Z-0.0070 F10    
G01 X2.0785  Y0.6959  F20    
G01 X2.0559  Y0.7185  
G01 X2.0241  Y0.7185  
G01 X2.0015  Y0.6959  
G01 X2.0015  Y0.6641  
G01 X2.0241  Y0.6415  
G01 X2.0559  Y0.6415  
G01 X2.0785  Y0.6641  
G00 Z0.1000  
G00 X2.0785  Y0.4641  
G01 Z-0.0070 F10    
G01 X2.0785  Y0.4959  F20    
G01 X2.0559  Y0.5185  
G01 X2.0241  Y0.5185  
G01 X2.0015  Y0.4959  
G01 X2.0015  Y0.4641  
G01 X2.0241  Y0.4415  
G01 X2.0559  Y0.4415  
G01 X2.0785  Y0.4641  
G00 Z0.1000  
G00 X1.3085  Y0.2141  
G01 Z-0.0070 F10    
G01 X1.3085  Y0.2459  F20    
G01 X1.2859  Y0.2685  
G01 X1.2541  Y0.2685  
G01 X1.2315  Y0.2459  
G01 X1.2315  Y0.2141  
G01 X1.2541  Y0.1915  
G01 X1.2859  Y0.1915  
G01 X1.3085  Y0.2141  
G00 Z0.1000  
G00 X1.4085  Y0.2141  
G01 Z-0.0070 F10    
G01 X1.4085  Y0.2459  F20    
G01 X1.3859  Y0.2685  
G01 X1.3541  Y0.2685  
G01 X1.3315  Y0.2459  
G01 X1.3315  Y0.2141  
G01 X1.3541  Y0.1915  
G01 X1.3859  Y0.1915  
G01 X1.4085  Y0.2141  
G00 Z0.1000  
G00 X2.3575  Y1.0062  
G01 Z-0.0070 F10    
G01 X2.3575  Y1.0538  F20    
G01 X2.3238  Y1.0875  
G01 X2.2762  Y1.0875  
G01 X2.2425  Y1.0538  
G01 X2.2425  Y1.0062  
G01 X2.2762  Y0.9725  
G01 X2.3238  Y0.9725  
G01 X2.3575  Y1.0062  
G00 Z0.1000  
G00 X2.0575  Y1.0062  
G01 Z-0.0070 F10    
G01 X2.0575  Y1.0538  F20    
G01 X2.0238  Y1.0875  
G01 X1.9762  Y1.0875  
G01 X1.9425  Y1.0538  
G01 X1.9425  Y1.0062  
G01 X1.9762  Y0.9725  
G01 X2.0238  Y0.9725  
G01 X2.0575  Y1.0062  
G00 Z0.1000  
G00 X0.5485  Y0.9841  
G01 Z-0.0070 F10    
G01 X0.5485  Y1.0159  F20    
G01 X0.5259  Y1.0385  
G01 X0.4941  Y1.0385  
G01 X0.4715  Y1.0159  
G01 X0.4715  Y0.9841  
G01 X0.4941  Y0.9615  
G01 X0.5259  Y0.9615  
G01 X0.5485  Y0.9841  
G00 Z0.1000  
G00 X0.4485  Y0.9841  
G01 Z-0.0070 F10    
G01 X0.4485  Y1.0159  F20    
G01 X0.4259  Y1.0385  
G01 X0.3941  Y1.0385  
G01 X0.3715  Y1.0159  
G01 X0.3715  Y0.9841  
G01 X0.3941  Y0.9615  
G01 X0.4259  Y0.9615  
G01 X0.4485  Y0.9841  
G00 Z0.1000  
G00 X1.4285  Y1.1541  
G01 Z-0.0070 F10    
G01 X1.4285  Y1.1859  F20    
G01 X1.4059  Y1.2085  
G01 X1.3741  Y1.2085  
G01 X1.3515  Y1.1859  
G01 X1.3515  Y1.1541  
G01 X1.3741  Y1.1315  
G01 X1.4059  Y1.1315  
G01 X1.4285  Y1.1541  
G00 Z0.1000  
G00 X1.5285  Y1.1541  
G01 Z-0.0070 F10    
G01 X1.5285  Y1.1859  F20    
G01 X1.5059  Y1.2085  
G01 X1.4741  Y1.2085  
G01 X1.4515  Y1.1859  
G01 X1.4515  Y1.1541  
G01 X1.4741  Y1.1315  
G01 X1.5059  Y1.1315  
G01 X1.5285  Y1.1541  
G00 Z0.1000  
G00 X1.1728  Y1.2086  
G01 Z-0.0070 F10    
G01 X1.1586  Y1.2228  F20    
G01 X1.1400  Y1.2305  
G01 X1.1200  Y1.2305  
G01 X1.1014  Y1.2228  
G01 X1.0872  Y1.2086  
G01 X1.0795  Y1.1900  
G01 X1.0795  Y1.1700  
G01 X1.0872  Y1.1514  
G01 X1.1014  Y1.1372  
G01 X1.1200  Y1.1295  
G01 X1.1400  Y1.1295  
G01 X1.1586  Y1.1372  
G01 X1.1728  Y1.1514  
G01 X1.1795  Y1.1676  
G01 X1.1795  Y1.1591  
G01 X1.2091  Y1.1295  
G01 X1.2509  Y1.1295  
G01 X1.2805  Y1.1591  
G01 X1.2805  Y1.2009  
G01 X1.2509  Y1.2305  
G01 X1.2091  Y1.2305  
G01 X1.1795  Y1.2009  
G01 X1.1795  Y1.1924  
G01 X1.1728  Y1.2086  
G00 Z0.1000  
G00 X1.8055  Y1.2090  
G01 Z-0.0070 F10    
G01 X1.8055  Y1.2310  F20    
G01 X1.7970  Y1.2514  
G01 X1.7814  Y1.2670  
G01 X1.7610  Y1.2755  
G01 X1.7390  Y1.2755  
G01 X1.7186  Y1.2670  
G01 X1.7029  Y1.2514  
G01 X1.6945  Y1.2310  
G01 X1.6945  Y1.2090  
G01 X1.7029  Y1.1886  
G01 X1.7186  Y1.1729  
G01 X1.7227  Y1.1712  
G01 X1.6945  Y1.1430  
G01 X1.6945  Y1.0970  
G01 X1.7270  Y1.0645  
G01 X1.7730  Y1.0645  
G01 X1.8055  Y1.0970  
G01 X1.8055  Y1.1430  
G01 X1.7773  Y1.1712  
G01 X1.7814  Y1.1729  
G01 X1.7970  Y1.1886  
G01 X1.8055  Y1.2090  
G00 Z0.1000  
G00 X1.4835  Y1.2270  
G01 Z-0.0070 F10    
G01 X1.4835  Y1.2630  F20    
G01 X1.4580  Y1.2885  
G01 X1.4220  Y1.2885  
G01 X1.3965  Y1.2630  
G01 X1.3965  Y1.2270  
G01 X1.4220  Y1.2015  
G01 X1.4580  Y1.2015  
G01 X1.4835  Y1.2270  
G00 Z0.1000  
G00 X0.8390  Y0.6956  
G01 Z-0.0070 F10    
G01 X0.8268  Y0.7078  F20    
G01 X0.8108  Y0.7144  
G01 X0.7935  Y0.7144  
G01 X0.7775  Y0.7078  
G01 X0.7652  Y0.6956  
G01 X0.7628  Y0.6896  
G01 X0.7603  Y0.6956  
G01 X0.7480  Y0.7078  
G01 X0.7320  Y0.7144  
G01 X0.7147  Y0.7144  
G01 X0.6987  Y0.7078  
G01 X0.6865  Y0.6956  
G01 X0.6799  Y0.6796  
G01 X0.6799  Y0.6003  
G01 X0.6865  Y0.5843  
G01 X0.6987  Y0.5721  
G01 X0.7147  Y0.5654  
G01 X0.7320  Y0.5654  
G01 X0.7480  Y0.5721  
G01 X0.7603  Y0.5843  
G01 X0.7628  Y0.5903  
G01 X0.7652  Y0.5843  
G01 X0.7775  Y0.5721  
G01 X0.7935  Y0.5654  
G01 X0.8108  Y0.5654  
G01 X0.8268  Y0.5721  
G01 X0.8390  Y0.5843  
G01 X0.8415  Y0.5903  
G01 X0.8440  Y0.5843  
G01 X0.8562  Y0.5721  
G01 X0.8722  Y0.5654  
G01 X0.8895  Y0.5654  
G01 X0.9055  Y0.5721  
G01 X0.9177  Y0.5843  
G01 X0.9244  Y0.6003  
G01 X0.9244  Y0.6796  
G01 X0.9177  Y0.6956  
G01 X0.9055  Y0.7078  
G01 X0.8895  Y0.7144  
G01 X0.8722  Y0.7144  
G01 X0.8562  Y0.7078  
G01 X0.8440  Y0.6956  
G01 X0.8415  Y0.6896  
G01 X0.8390  Y0.6956  
G00 Z0.1000  
G00 X0.8046  Y0.7644  
G01 Z-0.0070 F10    
G01 X0.8169  Y0.7522  F20    
G01 X0.8328  Y0.7456  
G01 X0.8501  Y0.7456  
G01 X0.8661  Y0.7522  
G01 X0.8784  Y0.7644  
G01 X0.8809  Y0.7704  
G01 X0.8834  Y0.7644  
G01 X0.8956  Y0.7522  
G01 X0.9116  Y0.7456  
G01 X0.9289  Y0.7456  
G01 X0.9449  Y0.7522  
G01 X0.9571  Y0.7644  
G01 X0.9637  Y0.7804  
G01 X0.9637  Y0.8597  
G01 X0.9571  Y0.8757  
G01 X0.9449  Y0.8879  
G01 X0.9289  Y0.8946  
G01 X0.9116  Y0.8946  
G01 X0.8956  Y0.8879  
G01 X0.8834  Y0.8757  
G01 X0.8809  Y0.8697  
G01 X0.8784  Y0.8757  
G01 X0.8661  Y0.8879  
G01 X0.8501  Y0.8946  
G01 X0.8328  Y0.8946  
G01 X0.8169  Y0.8879  
G01 X0.8046  Y0.8757  
G01 X0.8021  Y0.8697  
G01 X0.7996  Y0.8757  
G01 X0.7874  Y0.8879  
G01 X0.7714  Y0.8946  
G01 X0.7541  Y0.8946  
G01 X0.7381  Y0.8879  
G01 X0.7259  Y0.8757  
G01 X0.7193  Y0.8597  
G01 X0.7193  Y0.7804  
G01 X0.7259  Y0.7644  
G01 X0.7381  Y0.7522  
G01 X0.7541  Y0.7456  
G01 X0.7714  Y0.7456  
G01 X0.7874  Y0.7522  
G01 X0.7996  Y0.7644  
G01 X0.8021  Y0.7704  
G01 X0.8046  Y0.7644  
G00 Z0.1000  
G00 X1.5303  Y0.2965  
G01 Z-0.0070 F10    
G01 X1.6097  Y0.2965  F20    
G01 X1.6256  Y0.3031  
G01 X1.6379  Y0.3154  
G01 X1.6445  Y0.3313  
G01 X1.6445  Y0.3487  
G01 X1.6379  Y0.3646  
G01 X1.6256  Y0.3769  
G01 X1.6097  Y0.3835  
G01 X1.5303  Y0.3835  
G01 X1.5144  Y0.3769  
G01 X1.5021  Y0.3646  
G01 X1.4955  Y0.3487  
G01 X1.4955  Y0.3313  
G01 X1.5021  Y0.3154  
G01 X1.5144  Y0.3031  
G01 X1.5303  Y0.2965  
G00 Z0.1000  
G00 X1.5303  Y0.3965  
G01 Z-0.0070 F10    
G01 X1.6097  Y0.3965  F20    
G01 X1.6256  Y0.4031  
G01 X1.6379  Y0.4154  
G01 X1.6445  Y0.4313  
G01 X1.6445  Y0.4487  
G01 X1.6379  Y0.4646  
G01 X1.6256  Y0.4769  
G01 X1.6097  Y0.4835  
G01 X1.5303  Y0.4835  
G01 X1.5144  Y0.4769  
G01 X1.5021  Y0.4646  
G01 X1.4955  Y0.4487  
G01 X1.4955  Y0.4313  
G01 X1.5021  Y0.4154  
G01 X1.5144  Y0.4031  
G01 X1.5303  Y0.3965  
G00 Z0.1000  
G00 X1.5303  Y0.4965  
G01 Z-0.0070 F10    
G01 X1.6097  Y0.4965  F20    
G01 X1.6256  Y0.5031  
G01 X1.6379  Y0.5154  
G01 X1.6445  Y0.5313  
G01 X1.6445  Y0.5487  
G01 X1.6379  Y0.5646  
G01 X1.6256  Y0.5769  
G01 X1.6097  Y0.5835  
G01 X1.5303  Y0.5835  
G01 X1.5144  Y0.5769  
G01 X1.5021  Y0.5646  
G01 X1.4955  Y0.5487  
G01 X1.4955  Y0.5313  
G01 X1.5021  Y0.5154  
G01 X1.5144  Y0.5031  
G01 X1.5303  Y0.4965  
G00 Z0.1000  
G00 X1.5303  Y0.5965  
G01 Z-0.0070 F10    
G01 X1.6097  Y0.5965  F20    
G01 X1.6256  Y0.6031  
G01 X1.6379  Y0.6154  
G01 X1.6445  Y0.6313  
G01 X1.6445  Y0.6487  
G01 X1.6379  Y0.6646  
G01 X1.6256  Y0.6769  
G01 X1.6097  Y0.6835  
G01 X1.5303  Y0.6835  
G01 X1.5144  Y0.6769  
G01 X1.5021  Y0.6646  
G01 X1.4955  Y0.6487  
G01 X1.4955  Y0.6313  
G01 X1.5021  Y0.6154  
G01 X1.5144  Y0.6031  
G01 X1.5303  Y0.5965  
G00 Z0.1000  
G00 X1.5303  Y0.6965  
G01 Z-0.0070 F10    
G01 X1.6097  Y0.6965  F20    
G01 X1.6256  Y0.7031  
G01 X1.6379  Y0.7154  
G01 X1.6445  Y0.7313  
G01 X1.6445  Y0.7487  
G01 X1.6379  Y0.7646  
G01 X1.6256  Y0.7769  
G01 X1.6097  Y0.7835  
G01 X1.5303  Y0.7835  
G01 X1.5144  Y0.7769  
G01 X1.5021  Y0.7646  
G01 X1.4955  Y0.7487  
G01 X1.4955  Y0.7313  
G01 X1.5021  Y0.7154  
G01 X1.5144  Y0.7031  
G01 X1.5303  Y0.6965  
G00 Z0.1000  
G00 X1.5303  Y0.7965  
G01 Z-0.0070 F10    
G01 X1.6097  Y0.7965  F20    
G01 X1.6256  Y0.8031  
G01 X1.6379  Y0.8154  
G01 X1.6445  Y0.8313  
G01 X1.6445  Y0.8487  
G01 X1.6379  Y0.8646  
G01 X1.6256  Y0.8769  
G01 X1.6097  Y0.8835  
G01 X1.5303  Y0.8835  
G01 X1.5144  Y0.8769  
G01 X1.5021  Y0.8646  
G01 X1.4955  Y0.8487  
G01 X1.4955  Y0.8313  
G01 X1.5021  Y0.8154  
G01 X1.5144  Y0.8031  
G01 X1.5303  Y0.7965  
G00 Z0.1000  
G00 X1.5303  Y0.8965  
G01 Z-0.0070 F10    
G01 X1.6097  Y0.8965  F20    
G01 X1.6256  Y0.9031  
G01 X1.6379  Y0.9154  
G01 X1.6445  Y0.9313  
G01 X1.6445  Y0.9487  
G01 X1.6379  Y0.9646  
G01 X1.6256  Y0.9769  
G01 X1.6097  Y0.9835  
G01 X1.5303  Y0.9835  
G01 X1.5144  Y0.9769  
G01 X1.5021  Y0.9646  
G01 X1.4955  Y0.9487  
G01 X1.4955  Y0.9313  
G01 X1.5021  Y0.9154  
G01 X1.5144  Y0.9031  
G01 X1.5303  Y0.8965  
G00 Z0.1000  
G00 X1.5303  Y0.9965  
G01 Z-0.0070 F10    
G01 X1.6097  Y0.9965  F20    
G01 X1.6256  Y1.0031  
G01 X1.6379  Y1.0154  
G01 X1.6445  Y1.0313  
G01 X1.6445  Y1.0487  
G01 X1.6379  Y1.0646  
G01 X1.6256  Y1.0769  
G01 X1.6097  Y1.0835  
G01 X1.5303  Y1.0835  
G01 X1.5144  Y1.0769  
G01 X1.5021  Y1.0646  
G01 X1.4955  Y1.0487  
G01 X1.4955  Y1.0313  
G01 X1.5021  Y1.0154  
G01 X1.5144  Y1.0031  
G01 X1.5303  Y0.9965  
G00 Z0.1000  
G00 X1.2303  Y0.9965  
G01 Z-0.0070 F10    
G01 X1.3097  Y0.9965  F20    
G01 X1.3256  Y1.0031  
G01 X1.3379  Y1.0154  
G01 X1.3445  Y1.0313  
G01 X1.3445  Y1.0487  
G01 X1.3379  Y1.0646  
G01 X1.3256  Y1.0769  
G01 X1.3097  Y1.0835  
G01 X1.2303  Y1.0835  
G01 X1.2144  Y1.0769  
G01 X1.2021  Y1.0646  
G01 X1.1955  Y1.0487  
G01 X1.1955  Y1.0313  
G01 X1.2021  Y1.0154  
G01 X1.2144  Y1.0031  
G01 X1.2303  Y0.9965  
G00 Z0.1000  
G00 X1.2303  Y0.8965  
G01 Z-0.0070 F10    
G01 X1.3097  Y0.8965  F20    
G01 X1.3256  Y0.9031  
G01 X1.3379  Y0.9154  
G01 X1.3445  Y0.9313  
G01 X1.3445  Y0.9487  
G01 X1.3379  Y0.9646  
G01 X1.3256  Y0.9769  
G01 X1.3097  Y0.9835  
G01 X1.2303  Y0.9835  
G01 X1.2144  Y0.9769  
G01 X1.2021  Y0.9646  
G01 X1.1955  Y0.9487  
G01 X1.1955  Y0.9313  
G01 X1.2021  Y0.9154  
G01 X1.2144  Y0.9031  
G01 X1.2303  Y0.8965  
G00 Z0.1000  
G00 X1.2303  Y0.7965  
G01 Z-0.0070 F10    
G01 X1.3097  Y0.7965  F20    
G01 X1.3256  Y0.8031  
G01 X1.3379  Y0.8154  
G01 X1.3445  Y0.8313  
G01 X1.3445  Y0.8487  
G01 X1.3379  Y0.8646  
G01 X1.3256  Y0.8769  
G01 X1.3097  Y0.8835  
G01 X1.2303  Y0.8835  
G01 X1.2144  Y0.8769  
G01 X1.2021  Y0.8646  
G01 X1.1955  Y0.8487  
G01 X1.1955  Y0.8313  
G01 X1.2021  Y0.8154  
G01 X1.2144  Y0.8031  
G01 X1.2303  Y0.7965  
G00 Z0.1000  
G00 X1.2303  Y0.6965  
G01 Z-0.0070 F10    
G01 X1.3097  Y0.6965  F20    
G01 X1.3256  Y0.7031  
G01 X1.3379  Y0.7154  
G01 X1.3445  Y0.7313  
G01 X1.3445  Y0.7487  
G01 X1.3379  Y0.7646  
G01 X1.3256  Y0.7769  
G01 X1.3097  Y0.7835  
G01 X1.2303  Y0.7835  
G01 X1.2144  Y0.7769  
G01 X1.2021  Y0.7646  
G01 X1.1955  Y0.7487  
G01 X1.1955  Y0.7313  
G01 X1.2021  Y0.7154  
G01 X1.2144  Y0.7031  
G01 X1.2303  Y0.6965  
G00 Z0.1000  
G00 X1.2303  Y0.5965  
G01 Z-0.0070 F10    
G01 X1.3097  Y0.5965  F20    
G01 X1.3256  Y0.6031  
G01 X1.3379  Y0.6154  
G01 X1.3445  Y0.6313  
G01 X1.3445  Y0.6487  
G01 X1.3379  Y0.6646  
G01 X1.3256  Y0.6769  
G01 X1.3097  Y0.6835  
G01 X1.2303  Y0.6835  
G01 X1.2144  Y0.6769  
G01 X1.2021  Y0.6646  
G01 X1.1955  Y0.6487  
G01 X1.1955  Y0.6313  
G01 X1.2021  Y0.6154  
G01 X1.2144  Y0.6031  
G01 X1.2303  Y0.5965  
G00 Z0.1000  
G00 X1.2303  Y0.4965  
G01 Z-0.0070 F10    
G01 X1.3097  Y0.4965  F20    
G01 X1.3256  Y0.5031  
G01 X1.3379  Y0.5154  
G01 X1.3445  Y0.5313  
G01 X1.3445  Y0.5487  
G01 X1.3379  Y0.5646  
G01 X1.3256  Y0.5769  
G01 X1.3097  Y0.5835  
G01 X1.2303  Y0.5835  
G01 X1.2144  Y0.5769  
G01 X1.2021  Y0.5646  
G01 X1.1955  Y0.5487  
G01 X1.1955  Y0.5313  
G01 X1.2021  Y0.5154  
G01 X1.2144  Y0.5031  
G01 X1.2303  Y0.4965  
G00 Z0.1000  
G00 X1.2303  Y0.3965  
G01 Z-0.0070 F10    
G01 X1.3097  Y0.3965  F20    
G01 X1.3256  Y0.4031  
G01 X1.3379  Y0.4154  
G01 X1.3445  Y0.4313  
G01 X1.3445  Y0.4487  
G01 X1.3379  Y0.4646  
G01 X1.3256  Y0.4769  
G01 X1.3097  Y0.4835  
G01 X1.2303  Y0.4835  
G01 X1.2144  Y0.4769  
G01 X1.2021  Y0.4646  
G01 X1.1955  Y0.4487  
G01 X1.1955  Y0.4313  
G01 X1.2021  Y0.4154  
G01 X1.2144  Y0.4031  
G01 X1.2303  Y0.3965  
G00 Z0.1000  
G00 X1.2303  Y0.2965  
G01 Z-0.0070 F10    
G01 X1.3097  Y0.2965  F20    
G01 X1.3256  Y0.3031  
G01 X1.3379  Y0.3154  
G01 X1.3445  Y0.3313  
G01 X1.3445  Y0.3487  
G01 X1.3379  Y0.3646  
G01 X1.3256  Y0.3769  
G01 X1.3097  Y0.3835  
G01 X1.2303  Y0.3835  
G01 X1.2144  Y0.3769  
G01 X1.2021  Y0.3646  
G01 X1.1955  Y0.3487  
G01 X1.1955  Y0.3313  
G01 X1.2021  Y0.3154  
G01 X1.2144  Y0.3031  
G01 X1.2303  Y0.2965  
G00 Z0.1000  
G00 X0.3375  Y0.9803  
G01 Z-0.0070 F10    
G01 X0.3375  Y1.0197  F20    
G01 X0.3097  Y1.0475  
G01 X0.2703  Y1.0475  
G01 X0.2425  Y1.0197  
G01 X0.2425  Y0.9803  
G01 X0.2703  Y0.9525  
G01 X0.3097  Y0.9525  
G01 X0.3375  Y0.9803  
G00 Z0.1000  
G00 X0.3375  Y0.8803  
G01 Z-0.0070 F10    
G01 X0.3375  Y0.9197  F20    
G01 X0.3097  Y0.9475  
G01 X0.2703  Y0.9475  
G01 X0.2425  Y0.9197  
G01 X0.2425  Y0.8803  
G01 X0.2703  Y0.8525  
G01 X0.3097  Y0.8525  
G01 X0.3375  Y0.8803  
G00 Z0.1000  
G00 X0.3375  Y0.7803  
G01 Z-0.0070 F10    
G01 X0.3375  Y0.8197  F20    
G01 X0.3097  Y0.8475  
G01 X0.2703  Y0.8475  
G01 X0.2425  Y0.8197  
G01 X0.2425  Y0.7803  
G01 X0.2703  Y0.7525  
G01 X0.3097  Y0.7525  
G01 X0.3375  Y0.7803  
G00 Z0.1000  
G00 X0.3375  Y0.6803  
G01 Z-0.0070 F10    
G01 X0.3375  Y0.7197  F20    
G01 X0.3097  Y0.7475  
G01 X0.2703  Y0.7475  
G01 X0.2425  Y0.7197  
G01 X0.2425  Y0.6803  
G01 X0.2703  Y0.6525  
G01 X0.3097  Y0.6525  
G01 X0.3375  Y0.6803  
G00 Z0.1000  
G00 X0.3375  Y0.5803  
G01 Z-0.0070 F10    
G01 X0.3375  Y0.6197  F20    
G01 X0.3097  Y0.6475  
G01 X0.2703  Y0.6475  
G01 X0.2425  Y0.6197  
G01 X0.2425  Y0.5803  
G01 X0.2703  Y0.5525  
G01 X0.3097  Y0.5525  
G01 X0.3375  Y0.5803  
G00 Z0.1000  
G00 X0.3375  Y0.4803  
G01 Z-0.0070 F10    
G01 X0.3375  Y0.5197  F20    
G01 X0.3097  Y0.5475  
G01 X0.2703  Y0.5475  
G01 X0.2425  Y0.5197  
G01 X0.2425  Y0.4803  
G01 X0.2703  Y0.4525  
G01 X0.3097  Y0.4525  
G01 X0.3375  Y0.4803  
G00 Z0.1000  
G00 X0.2375  Y0.9803  
G01 Z-0.0070 F10    
G01 X0.2375  Y1.0197  F20    
G01 X0.2097  Y1.0475  
G01 X0.1703  Y1.0475  
G01 X0.1425  Y1.0197  
G01 X0.1425  Y0.9803  
G01 X0.1703  Y0.9525  
G01 X0.2097  Y0.9525  
G01 X0.2375  Y0.9803  
G00 Z0.1000  
G00 X0.2375  Y0.8803  
G01 Z-0.0070 F10    
G01 X0.2375  Y0.9197  F20    
G01 X0.2097  Y0.9475  
G01 X0.1703  Y0.9475  
G01 X0.1425  Y0.9197  
G01 X0.1425  Y0.8803  
G01 X0.1703  Y0.8525  
G01 X0.2097  Y0.8525  
G01 X0.2375  Y0.8803  
G00 Z0.1000  
G00 X0.2375  Y0.7803  
G01 Z-0.0070 F10    
G01 X0.2375  Y0.8197  F20    
G01 X0.2097  Y0.8475  
G01 X0.1703  Y0.8475  
G01 X0.1425  Y0.8197  
G01 X0.1425  Y0.7803  
G01 X0.1703  Y0.7525  
G01 X0.2097  Y0.7525  
G01 X0.2375  Y0.7803  
G00 Z0.1000  
G00 X0.2375  Y0.6803  
G01 Z-0.0070 F10    
G01 X0.2375  Y0.7197  F20    
G01 X0.2097  Y0.7475  
G01 X0.1703  Y0.7475  
G01 X0.1425  Y0.7197  
G01 X0.1425  Y0.6803  
G01 X0.1703  Y0.6525  
G01 X0.2097  Y0.6525  
G01 X0.2375  Y0.6803  
G00 Z0.1000  
G00 X0.2375  Y0.5803  
G01 Z-0.0070 F10    
G01 X0.2375  Y0.6197  F20    
G01 X0.2097  Y0.6475  
G01 X0.1703  Y0.6475  
G01 X0.1425  Y0.6197  
G01 X0.1425  Y0.5803  
G01 X0.1703  Y0.5525  
G01 X0.2097  Y0.5525  
G01 X0.2375  Y0.5803  
G00 Z0.1000  
G00 X0.2375  Y0.4803  
G01 Z-0.0070 F10    
G01 X0.2375  Y0.5197  F20    
G01 X0.2097  Y0.5475  
G01 X0.1703  Y0.5475  
G01 X0.1425  Y0.5197  
G01 X0.1425  Y0.4803  
G01 X0.1703  Y0.4525  
G01 X0.2097  Y0.4525  
G01 X0.2375  Y0.4803  
G00 Z0.1000  
G00 X0.3375  Y0.3803  
G01 Z-0.0070 F10    
G01 X0.3375  Y0.4197  F20    
G01 X0.3097  Y0.4475  
G01 X0.2703  Y0.4475  
G01 X0.2425  Y0.4197  
G01 X0.2425  Y0.3803  
G01 X0.2703  Y0.3525  
G01 X0.3097  Y0.3525  
G01 X0.3375  Y0.3803  
G00 Z0.1000  
G00 X0.2375  Y0.3803  
G01 Z-0.0070 F10    
G01 X0.2375  Y0.4197  F20    
G01 X0.2097  Y0.4475  
G01 X0.1703  Y0.4475  
G01 X0.1425  Y0.4197  
G01 X0.1425  Y0.3803  
G01 X0.1703  Y0.3525  
G01 X0.2097  Y0.3525  
G01 X0.2375  Y0.3803  
G00 Z0.1000  
G00 X0.8397  Y0.4135  
G01 Z-0.0070 F10    
G01 X0.7603  Y0.4135  F20    
G01 X0.7444  Y0.4069  
G01 X0.7321  Y0.3946  
G01 X0.7255  Y0.3787  
G01 X0.7255  Y0.3613  
G01 X0.7321  Y0.3454  
G01 X0.7444  Y0.3331  
G01 X0.7603  Y0.3265  
G01 X0.8397  Y0.3265  
G01 X0.8556  Y0.3331  
G01 X0.8679  Y0.3454  
G01 X0.8745  Y0.3613  
G01 X0.8745  Y0.3787  
G01 X0.8679  Y0.3946  
G01 X0.8556  Y0.4069  
G01 X0.8397  Y0.4135  
G00 Z0.1000  
G00 X1.1397  Y0.3135  
G01 Z-0.0070 F10    
G01 X1.0603  Y0.3135  F20    
G01 X1.0444  Y0.3069  
G01 X1.0321  Y0.2946  
G01 X1.0255  Y0.2787  
G01 X1.0255  Y0.2613  
G01 X1.0321  Y0.2454  
G01 X1.0444  Y0.2331  
G01 X1.0603  Y0.2265  
G01 X1.1397  Y0.2265  
G01 X1.1556  Y0.2331  
G01 X1.1679  Y0.2454  
G01 X1.1745  Y0.2613  
G01 X1.1745  Y0.2787  
G01 X1.1679  Y0.2946  
G01 X1.1556  Y0.3069  
G01 X1.1397  Y0.3135  
G00 Z0.1000  
G00 X0.6397  Y0.3135  
G01 Z-0.0070 F10    
G01 X0.5603  Y0.3135  F20    
G01 X0.5444  Y0.3069  
G01 X0.5321  Y0.2946  
G01 X0.5255  Y0.2787  
G01 X0.5255  Y0.2613  
G01 X0.5321  Y0.2454  
G01 X0.5444  Y0.2331  
G01 X0.5603  Y0.2265  
G01 X0.6397  Y0.2265  
G01 X0.6556  Y0.2331  
G01 X0.6679  Y0.2454  
G01 X0.6745  Y0.2613  
G01 X0.6745  Y0.2787  
G01 X0.6679  Y0.2946  
G01 X0.6556  Y0.3069  
G01 X0.6397  Y0.3135  
G00 Z0.1000  
G00 X2.1103  Y0.1065  
G01 Z-0.0070 F10    
G01 X2.1897  Y0.1065  F20    
G01 X2.2056  Y0.1131  
G01 X2.2179  Y0.1254  
G01 X2.2245  Y0.1413  
G01 X2.2245  Y0.1587  
G01 X2.2179  Y0.1746  
G01 X2.2056  Y0.1869  
G01 X2.1897  Y0.1935  
G01 X2.1103  Y0.1935  
G01 X2.0944  Y0.1869  
G01 X2.0821  Y0.1746  
G01 X2.0755  Y0.1587  
G01 X2.0755  Y0.1413  
G01 X2.0821  Y0.1254  
G01 X2.0944  Y0.1131  
G01 X2.1103  Y0.1065  
G00 Z0.1000  
G00 X2.1103  Y0.2065  
G01 Z-0.0070 F10    
G01 X2.1897  Y0.2065  F20    
G01 X2.2056  Y0.2131  
G01 X2.2179  Y0.2254  
G01 X2.2245  Y0.2413  
G01 X2.2245  Y0.2587  
G01 X2.2179  Y0.2746  
G01 X2.2056  Y0.2869  
G01 X2.1897  Y0.2935  
G01 X2.1103  Y0.2935  
G01 X2.0944  Y0.2869  
G01 X2.0821  Y0.2746  
G01 X2.0755  Y0.2587  
G01 X2.0755  Y0.2413  
G01 X2.0821  Y0.2254  
G01 X2.0944  Y0.2131  
G01 X2.1103  Y0.2065  
G00 Z0.1000  
G00 X2.1103  Y0.3065  
G01 Z-0.0070 F10    
G01 X2.1897  Y0.3065  F20    
G01 X2.2056  Y0.3131  
G01 X2.2179  Y0.3254  
G01 X2.2245  Y0.3413  
G01 X2.2245  Y0.3587  
G01 X2.2179  Y0.3746  
G01 X2.2056  Y0.3869  
G01 X2.1897  Y0.3935  
G01 X2.1103  Y0.3935  
G01 X2.0944  Y0.3869  
G01 X2.0821  Y0.3746  
G01 X2.0755  Y0.3587  
G01 X2.0755  Y0.3413  
G01 X2.0821  Y0.3254  
G01 X2.0944  Y0.3131  
G01 X2.1103  Y0.3065  
G00 Z0.1000  
G00 X1.8103  Y0.3065  
G01 Z-0.0070 F10    
G01 X1.8897  Y0.3065  F20    
G01 X1.9056  Y0.3131  
G01 X1.9179  Y0.3254  
G01 X1.9245  Y0.3413  
G01 X1.9245  Y0.3587  
G01 X1.9179  Y0.3746  
G01 X1.9056  Y0.3869  
G01 X1.8897  Y0.3935  
G01 X1.8103  Y0.3935  
G01 X1.7944  Y0.3869  
G01 X1.7821  Y0.3746  
G01 X1.7755  Y0.3587  
G01 X1.7755  Y0.3413  
G01 X1.7821  Y0.3254  
G01 X1.7944  Y0.3131  
G01 X1.8103  Y0.3065  
G00 Z0.1000  
G00 X1.8103  Y0.2065  
G01 Z-0.0070 F10    
G01 X1.8897  Y0.2065  F20    
G01 X1.9056  Y0.2131  
G01 X1.9179  Y0.2254  
G01 X1.9245  Y0.2413  
G01 X1.9245  Y0.2587  
G01 X1.9179  Y0.2746  
G01 X1.9056  Y0.2869  
G01 X1.8897  Y0.2935  
G01 X1.8103  Y0.2935  
G01 X1.7944  Y0.2869  
G01 X1.7821  Y0.2746  
G01 X1.7755  Y0.2587  
G01 X1.7755  Y0.2413  
G01 X1.7821  Y0.2254  
G01 X1.7944  Y0.2131  
G01 X1.8103  Y0.2065  
G00 Z0.1000  
G00 X1.8103  Y0.1065  
G01 Z-0.0070 F10    
G01 X1.8897  Y0.1065  F20    
G01 X1.9056  Y0.1131  
G01 X1.9179  Y0.1254  
G01 X1.9245  Y0.1413  
G01 X1.9245  Y0.1587  
G01 X1.9179  Y0.1746  
G01 X1.9056  Y0.1869  
G01 X1.8897  Y0.1935  
G01 X1.8103  Y0.1935  
G01 X1.7944  Y0.1869  
G01 X1.7821  Y0.1746  
G01 X1.7755  Y0.1587  
G01 X1.7755  Y0.1413  
G01 X1.7821  Y0.1254  
G01 X1.7944  Y0.1131  
G01 X1.8103  Y0.1065  
G00 Z0.1000  
G00 X1.8435  Y0.6620  
G01 Z-0.0070 F10    
G01 X1.8435  Y0.6980  F20    
G01 X1.8180  Y0.7235  
G01 X1.7820  Y0.7235  
G01 X1.7565  Y0.6980  
G01 X1.7565  Y0.6620  
G01 X1.7820  Y0.6365  
G01 X1.8180  Y0.6365  
G01 X1.8435  Y0.6620  
G00 Z0.1000  
G00 X1.8435  Y0.4620  
G01 Z-0.0070 F10    
G01 X1.8435  Y0.4980  F20    
G01 X1.8180  Y0.5235  
G01 X1.7820  Y0.5235  
G01 X1.7565  Y0.4980  
G01 X1.7565  Y0.4620  
G01 X1.7820  Y0.4365  
G01 X1.8180  Y0.4365  
G01 X1.8435  Y0.4620  
G00 Z0.1000  
G00 X1.9635  Y0.6620  
G01 Z-0.0070 F10    
G01 X1.9635  Y0.6980  F20    
G01 X1.9380  Y0.7235  
G01 X1.9020  Y0.7235  
G01 X1.8765  Y0.6980  
G01 X1.8765  Y0.6620  
G01 X1.9020  Y0.6365  
G01 X1.9380  Y0.6365  
G01 X1.9635  Y0.6620  
G00 Z0.1000  
G00 X1.9635  Y0.4620  
G01 Z-0.0070 F10    
G01 X1.9635  Y0.4980  F20    
G01 X1.9380  Y0.5235  
G01 X1.9020  Y0.5235  
G01 X1.8765  Y0.4980  
G01 X1.8765  Y0.4620  
G01 X1.9020  Y0.4365  
G01 X1.9380  Y0.4365  
G01 X1.9635  Y0.4620  
G00 Z0.1000  
G00 X2.0835  Y0.6620  
G01 Z-0.0070 F10    
G01 X2.0835  Y0.6980  F20    
G01 X2.0580  Y0.7235  
G01 X2.0220  Y0.7235  
G01 X1.9965  Y0.6980  
G01 X1.9965  Y0.6620  
G01 X2.0220  Y0.6365  
G01 X2.0580  Y0.6365  
G01 X2.0835  Y0.6620  
G00 Z0.1000  
G00 X2.0835  Y0.4620  
G01 Z-0.0070 F10    
G01 X2.0835  Y0.4980  F20    
G01 X2.0580  Y0.5235  
G01 X2.0220  Y0.5235  
G01 X1.9965  Y0.4980  
G01 X1.9965  Y0.4620  
G01 X2.0220  Y0.4365  
G01 X2.0580  Y0.4365  
G01 X2.0835  Y0.4620  
G00 Z0.1000  
G00 X1.3135  Y0.2120  
G01 Z-0.0070 F10    
G01 X1.3135  Y0.2480  F20    
G01 X1.2880  Y0.2735  
G01 X1.2520  Y0.2735  
G01 X1.2265  Y0.2480  
G01 X1.2265  Y0.2120  
G01 X1.2520  Y0.1865  
G01 X1.2880  Y0.1865  
G01 X1.3135  Y0.2120  
G00 Z0.1000  
G00 X1.4135  Y0.2120  
G01 Z-0.0070 F10    
G01 X1.4135  Y0.2480  F20    
G01 X1.3880  Y0.2735  
G01 X1.3520  Y0.2735  
G01 X1.3265  Y0.2480  
G01 X1.3265  Y0.2120  
G01 X1.3520  Y0.1865  
G01 X1.3880  Y0.1865  
G01 X1.4135  Y0.2120  
G00 Z0.1000  
G00 X2.3625  Y1.0041  
G01 Z-0.0070 F10    
G01 X2.3625  Y1.0559  F20    
G01 X2.3259  Y1.0925  
G01 X2.2741  Y1.0925  
G01 X2.2375  Y1.0559  
G01 X2.2375  Y1.0041  
G01 X2.2741  Y0.9675  
G01 X2.3259  Y0.9675  
G01 X2.3625  Y1.0041  
G00 Z0.1000  
G00 X2.0625  Y1.0041  
G01 Z-0.0070 F10    
G01 X2.0625  Y1.0559  F20    
G01 X2.0259  Y1.0925  
G01 X1.9741  Y1.0925  
G01 X1.9375  Y1.0559  
G01 X1.9375  Y1.0041  
G01 X1.9741  Y0.9675  
G01 X2.0259  Y0.9675  
G01 X2.0625  Y1.0041  
G00 Z0.1000  
G00 X0.5535  Y0.9820  
G01 Z-0.0070 F10    
G01 X0.5535  Y1.0180  F20    
G01 X0.5280  Y1.0435  
G01 X0.4920  Y1.0435  
G01 X0.4665  Y1.0180  
G01 X0.4665  Y0.9820  
G01 X0.4920  Y0.9565  
G01 X0.5280  Y0.9565  
G01 X0.5535  Y0.9820  
G00 Z0.1000  
G00 X0.4535  Y0.9820  
G01 Z-0.0070 F10    
G01 X0.4535  Y1.0180  F20    
G01 X0.4280  Y1.0435  
G01 X0.3920  Y1.0435  
G01 X0.3665  Y1.0180  
G01 X0.3665  Y0.9820  
G01 X0.3920  Y0.9565  
G01 X0.4280  Y0.9565  
G01 X0.4535  Y0.9820  
G00 Z0.1000  
G00 X1.4335  Y1.1520  
G01 Z-0.0070 F10    
G01 X1.4335  Y1.1880  F20    
G01 X1.4080  Y1.2135  
G01 X1.3720  Y1.2135  
G01 X1.3465  Y1.1880  
G01 X1.3465  Y1.1520  
G01 X1.3720  Y1.1265  
G01 X1.4080  Y1.1265  
G01 X1.4335  Y1.1520  
G00 Z0.1000  
G00 X1.5335  Y1.1520  
G01 Z-0.0070 F10    
G01 X1.5335  Y1.1880  F20    
G01 X1.5080  Y1.2135  
G01 X1.4720  Y1.2135  
G01 X1.4465  Y1.1880  
G01 X1.4465  Y1.1520  
G01 X1.4720  Y1.1265  
G01 X1.5080  Y1.1265  
G01 X1.5335  Y1.1520  
G00 Z0.1000  
G00 X1.1770  Y1.2114  
G01 Z-0.0070 F10    
G01 X1.1614  Y1.2270  F20    
G01 X1.1410  Y1.2355  
G01 X1.1190  Y1.2355  
G01 X1.0986  Y1.2270  
G01 X1.0829  Y1.2114  
G01 X1.0745  Y1.1910  
G01 X1.0745  Y1.1690  
G01 X1.0829  Y1.1486  
G01 X1.0986  Y1.1329  
G01 X1.1190  Y1.1245  
G01 X1.1410  Y1.1245  
G01 X1.1614  Y1.1329  
G01 X1.1770  Y1.1486  
G01 X1.1788  Y1.1527  
G01 X1.2070  Y1.1245  
G01 X1.2530  Y1.1245  
G01 X1.2855  Y1.1570  
G01 X1.2855  Y1.2030  
G01 X1.2530  Y1.2355  
G01 X1.2070  Y1.2355  
G01 X1.1788  Y1.2073  
G01 X1.1770  Y1.2114  
G00 Z0.1000  
G00 X0.2400  Y0.9758  
G01 Z-0.0070 F10    
G01 X0.2658  Y0.9500  F20    
G01 X0.2400  Y0.9242  
G01 X0.2142  Y0.9500  
G01 X0.2400  Y0.9758  
G00 Z0.1000  
G00 X0.2400  Y0.7758  
G01 Z-0.0070 F10    
G01 X0.2658  Y0.7500  F20    
G01 X0.2400  Y0.7242  
G01 X0.2142  Y0.7500  
G01 X0.2400  Y0.7758  
G00 Z0.1000  
G00 X0.2400  Y0.5758  
G01 Z-0.0070 F10    
G01 X0.2658  Y0.5500  F20    
G01 X0.2400  Y0.5242  
G01 X0.2142  Y0.5500  
G01 X0.2400  Y0.5758  
G00 Z0.1000  
G00 X0.2400  Y0.4758  
G01 Z-0.0070 F10    
G01 X0.2658  Y0.4500  F20    
G01 X0.2400  Y0.4242  
G01 X0.2142  Y0.4500  
G01 X0.2400  Y0.4758  
G00 Z0.1000  
G00 X0.2400  Y0.6758  
G01 Z-0.0070 F10    
G01 X0.2658  Y0.6500  F20    
G01 X0.2400  Y0.6242  
G01 X0.2142  Y0.6500  
G01 X0.2400  Y0.6758  
G00 Z0.1000  
G00 X0.2400  Y0.8758  
G01 Z-0.0070 F10    
G01 X0.2658  Y0.8500  F20    
G01 X0.2400  Y0.8242  
G01 X0.2142  Y0.8500  
G01 X0.2400  Y0.8758  
G00 Z0.1000  
G00 X1.8105  Y1.2080  
G01 Z-0.0070 F10    
G01 X1.8105  Y1.2320  F20    
G01 X1.8013  Y1.2543  
G01 X1.7843  Y1.2713  
G01 X1.7620  Y1.2805  
G01 X1.7380  Y1.2805  
G01 X1.7157  Y1.2713  
G01 X1.6987  Y1.2543  
G01 X1.6895  Y1.2320  
G01 X1.6895  Y1.2080  
G01 X1.6987  Y1.1857  
G01 X1.7144  Y1.1700  
G01 X1.6895  Y1.1451  
G01 X1.6895  Y1.0949  
G01 X1.7249  Y1.0595  
G01 X1.7751  Y1.0595  
G01 X1.8105  Y1.0949  
G01 X1.8105  Y1.1451  
G01 X1.7856  Y1.1700  
G01 X1.8013  Y1.1857  
G01 X1.8105  Y1.2080  
G00 Z0.1000  
G00 X0.3425  Y0.9783  
G01 Z-0.0070 F10    
G01 X0.3425  Y1.0217  F20    
G01 X0.3117  Y1.0525  
G01 X0.2683  Y1.0525  
G01 X0.2400  Y1.0242  
G01 X0.2117  Y1.0525  
G01 X0.1683  Y1.0525  
G01 X0.1375  Y1.0217  
G01 X0.1375  Y0.9783  
G01 X0.1658  Y0.9500  
G01 X0.1375  Y0.9217  
G01 X0.1375  Y0.8783  
G01 X0.1658  Y0.8500  
G01 X0.1375  Y0.8217  
G01 X0.1375  Y0.7783  
G01 X0.1658  Y0.7500  
G01 X0.1375  Y0.7217  
G01 X0.1375  Y0.6783  
G01 X0.1658  Y0.6500  
G01 X0.1375  Y0.6217  
G01 X0.1375  Y0.5783  
G01 X0.1658  Y0.5500  
G01 X0.1375  Y0.5217  
G01 X0.1375  Y0.4783  
G01 X0.1658  Y0.4500  
G01 X0.1375  Y0.4217  
G01 X0.1375  Y0.3783  
G01 X0.1683  Y0.3475  
G01 X0.2117  Y0.3475  
G01 X0.2400  Y0.3758  
G01 X0.2683  Y0.3475  
G01 X0.3117  Y0.3475  
G01 X0.3425  Y0.3783  
G01 X0.3425  Y0.4217  
G01 X0.3142  Y0.4500  
G01 X0.3425  Y0.4783  
G01 X0.3425  Y0.5217  
G01 X0.3142  Y0.5500  
G01 X0.3425  Y0.5783  
G01 X0.3425  Y0.6217  
G01 X0.3142  Y0.6500  
G01 X0.3425  Y0.6783  
G01 X0.3425  Y0.7217  
G01 X0.3142  Y0.7500  
G01 X0.3425  Y0.7783  
G01 X0.3425  Y0.8217  
G01 X0.3142  Y0.8500  
G01 X0.3425  Y0.8783  
G01 X0.3425  Y0.9217  
G01 X0.3142  Y0.9500  
G01 X0.3425  Y0.9783  
G00 Z0.1000  
G00 X1.2294  Y0.2915  
G01 Z-0.0070 F10    
G01 X1.3106  Y0.2915  F20    
G01 X1.3285  Y0.2989  
G01 X1.3421  Y0.3125  
G01 X1.3495  Y0.3304  
G01 X1.3495  Y0.3496  
G01 X1.3421  Y0.3675  
G01 X1.3285  Y0.3811  
G01 X1.3106  Y0.3885  
G01 X1.2294  Y0.3885  
G01 X1.2115  Y0.3811  
G01 X1.1979  Y0.3675  
G01 X1.1905  Y0.3496  
G01 X1.1905  Y0.3304  
G01 X1.1979  Y0.3125  
G01 X1.2115  Y0.2989  
G01 X1.2294  Y0.2915  
G00 Z0.1000  
G00 X1.2294  Y0.3915  
G01 Z-0.0070 F10    
G01 X1.3106  Y0.3915  F20    
G01 X1.3285  Y0.3989  
G01 X1.3421  Y0.4125  
G01 X1.3495  Y0.4304  
G01 X1.3495  Y0.4496  
G01 X1.3421  Y0.4675  
G01 X1.3285  Y0.4811  
G01 X1.3106  Y0.4885  
G01 X1.2294  Y0.4885  
G01 X1.2115  Y0.4811  
G01 X1.1979  Y0.4675  
G01 X1.1905  Y0.4496  
G01 X1.1905  Y0.4304  
G01 X1.1979  Y0.4125  
G01 X1.2115  Y0.3989  
G01 X1.2294  Y0.3915  
G00 Z0.1000  
G00 X1.2294  Y0.4915  
G01 Z-0.0070 F10    
G01 X1.3106  Y0.4915  F20    
G01 X1.3285  Y0.4989  
G01 X1.3421  Y0.5125  
G01 X1.3495  Y0.5304  
G01 X1.3495  Y0.5496  
G01 X1.3421  Y0.5675  
G01 X1.3285  Y0.5811  
G01 X1.3106  Y0.5885  
G01 X1.2294  Y0.5885  
G01 X1.2115  Y0.5811  
G01 X1.1979  Y0.5675  
G01 X1.1905  Y0.5496  
G01 X1.1905  Y0.5304  
G01 X1.1979  Y0.5125  
G01 X1.2115  Y0.4989  
G01 X1.2294  Y0.4915  
G00 Z0.1000  
G00 X1.2294  Y0.5915  
G01 Z-0.0070 F10    
G01 X1.3106  Y0.5915  F20    
G01 X1.3285  Y0.5989  
G01 X1.3421  Y0.6125  
G01 X1.3495  Y0.6304  
G01 X1.3495  Y0.6496  
G01 X1.3421  Y0.6675  
G01 X1.3285  Y0.6811  
G01 X1.3106  Y0.6885  
G01 X1.2294  Y0.6885  
G01 X1.2115  Y0.6811  
G01 X1.1979  Y0.6675  
G01 X1.1905  Y0.6496  
G01 X1.1905  Y0.6304  
G01 X1.1979  Y0.6125  
G01 X1.2115  Y0.5989  
G01 X1.2294  Y0.5915  
G00 Z0.1000  
G00 X1.2294  Y0.6915  
G01 Z-0.0070 F10    
G01 X1.3106  Y0.6915  F20    
G01 X1.3285  Y0.6989  
G01 X1.3421  Y0.7125  
G01 X1.3495  Y0.7304  
G01 X1.3495  Y0.7496  
G01 X1.3421  Y0.7675  
G01 X1.3285  Y0.7811  
G01 X1.3106  Y0.7885  
G01 X1.2294  Y0.7885  
G01 X1.2115  Y0.7811  
G01 X1.1979  Y0.7675  
G01 X1.1905  Y0.7496  
G01 X1.1905  Y0.7304  
G01 X1.1979  Y0.7125  
G01 X1.2115  Y0.6989  
G01 X1.2294  Y0.6915  
G00 Z0.1000  
G00 X1.2294  Y0.7915  
G01 Z-0.0070 F10    
G01 X1.3106  Y0.7915  F20    
G01 X1.3285  Y0.7989  
G01 X1.3421  Y0.8125  
G01 X1.3495  Y0.8304  
G01 X1.3495  Y0.8496  
G01 X1.3421  Y0.8675  
G01 X1.3285  Y0.8811  
G01 X1.3106  Y0.8885  
G01 X1.2294  Y0.8885  
G01 X1.2115  Y0.8811  
G01 X1.1979  Y0.8675  
G01 X1.1905  Y0.8496  
G01 X1.1905  Y0.8304  
G01 X1.1979  Y0.8125  
G01 X1.2115  Y0.7989  
G01 X1.2294  Y0.7915  
G00 Z0.1000  
G00 X1.2294  Y0.8915  
G01 Z-0.0070 F10    
G01 X1.3106  Y0.8915  F20    
G01 X1.3285  Y0.8989  
G01 X1.3421  Y0.9125  
G01 X1.3495  Y0.9304  
G01 X1.3495  Y0.9496  
G01 X1.3421  Y0.9675  
G01 X1.3285  Y0.9811  
G01 X1.3106  Y0.9885  
G01 X1.2294  Y0.9885  
G01 X1.2115  Y0.9811  
G01 X1.1979  Y0.9675  
G01 X1.1905  Y0.9496  
G01 X1.1905  Y0.9304  
G01 X1.1979  Y0.9125  
G01 X1.2115  Y0.8989  
G01 X1.2294  Y0.8915  
G00 Z0.1000  
G00 X1.2294  Y0.9915  
G01 Z-0.0070 F10    
G01 X1.3106  Y0.9915  F20    
G01 X1.3285  Y0.9989  
G01 X1.3421  Y1.0125  
G01 X1.3495  Y1.0304  
G01 X1.3495  Y1.0496  
G01 X1.3421  Y1.0675  
G01 X1.3285  Y1.0811  
G01 X1.3106  Y1.0885  
G01 X1.2294  Y1.0885  
G01 X1.2115  Y1.0811  
G01 X1.1979  Y1.0675  
G01 X1.1905  Y1.0496  
G01 X1.1905  Y1.0304  
G01 X1.1979  Y1.0125  
G01 X1.2115  Y0.9989  
G01 X1.2294  Y0.9915  
G00 Z0.1000  
G00 X1.5294  Y0.9915  
G01 Z-0.0070 F10    
G01 X1.6106  Y0.9915  F20    
G01 X1.6285  Y0.9989  
G01 X1.6421  Y1.0125  
G01 X1.6495  Y1.0304  
G01 X1.6495  Y1.0496  
G01 X1.6421  Y1.0675  
G01 X1.6285  Y1.0811  
G01 X1.6106  Y1.0885  
G01 X1.5294  Y1.0885  
G01 X1.5115  Y1.0811  
G01 X1.4979  Y1.0675  
G01 X1.4905  Y1.0496  
G01 X1.4905  Y1.0304  
G01 X1.4979  Y1.0125  
G01 X1.5115  Y0.9989  
G01 X1.5294  Y0.9915  
G00 Z0.1000  
G00 X1.5294  Y0.8915  
G01 Z-0.0070 F10    
G01 X1.6106  Y0.8915  F20    
G01 X1.6285  Y0.8989  
G01 X1.6421  Y0.9125  
G01 X1.6495  Y0.9304  
G01 X1.6495  Y0.9496  
G01 X1.6421  Y0.9675  
G01 X1.6285  Y0.9811  
G01 X1.6106  Y0.9885  
G01 X1.5294  Y0.9885  
G01 X1.5115  Y0.9811  
G01 X1.4979  Y0.9675  
G01 X1.4905  Y0.9496  
G01 X1.4905  Y0.9304  
G01 X1.4979  Y0.9125  
G01 X1.5115  Y0.8989  
G01 X1.5294  Y0.8915  
G00 Z0.1000  
G00 X1.5294  Y0.7915  
G01 Z-0.0070 F10    
G01 X1.6106  Y0.7915  F20    
G01 X1.6285  Y0.7989  
G01 X1.6421  Y0.8125  
G01 X1.6495  Y0.8304  
G01 X1.6495  Y0.8496  
G01 X1.6421  Y0.8675  
G01 X1.6285  Y0.8811  
G01 X1.6106  Y0.8885  
G01 X1.5294  Y0.8885  
G01 X1.5115  Y0.8811  
G01 X1.4979  Y0.8675  
G01 X1.4905  Y0.8496  
G01 X1.4905  Y0.8304  
G01 X1.4979  Y0.8125  
G01 X1.5115  Y0.7989  
G01 X1.5294  Y0.7915  
G00 Z0.1000  
G00 X1.5294  Y0.6915  
G01 Z-0.0070 F10    
G01 X1.6106  Y0.6915  F20    
G01 X1.6285  Y0.6989  
G01 X1.6421  Y0.7125  
G01 X1.6495  Y0.7304  
G01 X1.6495  Y0.7496  
G01 X1.6421  Y0.7675  
G01 X1.6285  Y0.7811  
G01 X1.6106  Y0.7885  
G01 X1.5294  Y0.7885  
G01 X1.5115  Y0.7811  
G01 X1.4979  Y0.7675  
G01 X1.4905  Y0.7496  
G01 X1.4905  Y0.7304  
G01 X1.4979  Y0.7125  
G01 X1.5115  Y0.6989  
G01 X1.5294  Y0.6915  
G00 Z0.1000  
G00 X1.5294  Y0.5915  
G01 Z-0.0070 F10    
G01 X1.6106  Y0.5915  F20    
G01 X1.6285  Y0.5989  
G01 X1.6421  Y0.6125  
G01 X1.6495  Y0.6304  
G01 X1.6495  Y0.6496  
G01 X1.6421  Y0.6675  
G01 X1.6285  Y0.6811  
G01 X1.6106  Y0.6885  
G01 X1.5294  Y0.6885  
G01 X1.5115  Y0.6811  
G01 X1.4979  Y0.6675  
G01 X1.4905  Y0.6496  
G01 X1.4905  Y0.6304  
G01 X1.4979  Y0.6125  
G01 X1.5115  Y0.5989  
G01 X1.5294  Y0.5915  
G00 Z0.1000  
G00 X1.5294  Y0.4915  
G01 Z-0.0070 F10    
G01 X1.6106  Y0.4915  F20    
G01 X1.6285  Y0.4989  
G01 X1.6421  Y0.5125  
G01 X1.6495  Y0.5304  
G01 X1.6495  Y0.5496  
G01 X1.6421  Y0.5675  
G01 X1.6285  Y0.5811  
G01 X1.6106  Y0.5885  
G01 X1.5294  Y0.5885  
G01 X1.5115  Y0.5811  
G01 X1.4979  Y0.5675  
G01 X1.4905  Y0.5496  
G01 X1.4905  Y0.5304  
G01 X1.4979  Y0.5125  
G01 X1.5115  Y0.4989  
G01 X1.5294  Y0.4915  
G00 Z0.1000  
G00 X1.5294  Y0.3915  
G01 Z-0.0070 F10    
G01 X1.6106  Y0.3915  F20    
G01 X1.6285  Y0.3989  
G01 X1.6421  Y0.4125  
G01 X1.6495  Y0.4304  
G01 X1.6495  Y0.4496  
G01 X1.6421  Y0.4675  
G01 X1.6285  Y0.4811  
G01 X1.6106  Y0.4885  
G01 X1.5294  Y0.4885  
G01 X1.5115  Y0.4811  
G01 X1.4979  Y0.4675  
G01 X1.4905  Y0.4496  
G01 X1.4905  Y0.4304  
G01 X1.4979  Y0.4125  
G01 X1.5115  Y0.3989  
G01 X1.5294  Y0.3915  
G00 Z0.1000  
G00 X1.5294  Y0.2915  
G01 Z-0.0070 F10    
G01 X1.6106  Y0.2915  F20    
G01 X1.6285  Y0.2989  
G01 X1.6421  Y0.3125  
G01 X1.6495  Y0.3304  
G01 X1.6495  Y0.3496  
G01 X1.6421  Y0.3675  
G01 X1.6285  Y0.3811  
G01 X1.6106  Y0.3885  
G01 X1.5294  Y0.3885  
G01 X1.5115  Y0.3811  
G01 X1.4979  Y0.3675  
G01 X1.4905  Y0.3496  
G01 X1.4905  Y0.3304  
G01 X1.4979  Y0.3125  
G01 X1.5115  Y0.2989  
G01 X1.5294  Y0.2915  
G00 Z0.1000  
G00 X0.8140  Y0.7479  
G01 Z-0.0070 F10    
G01 X0.8318  Y0.7406  F20    
G01 X0.8511  Y0.7406  
G01 X0.8690  Y0.7479  
G01 X0.8809  Y0.7598  
G01 X0.8928  Y0.7479  
G01 X0.9106  Y0.7406  
G01 X0.9299  Y0.7406  
G01 X0.9477  Y0.7479  
G01 X0.9614  Y0.7616  
G01 X0.9687  Y0.7794  
G01 X0.9687  Y0.8607  
G01 X0.9614  Y0.8785  
G01 X0.9477  Y0.8922  
G01 X0.9299  Y0.8996  
G01 X0.9106  Y0.8996  
G01 X0.8928  Y0.8922  
G01 X0.8809  Y0.8803  
G01 X0.8690  Y0.8922  
G01 X0.8511  Y0.8996  
G01 X0.8318  Y0.8996  
G01 X0.8140  Y0.8922  
G01 X0.8021  Y0.8803  
G01 X0.7902  Y0.8922  
G01 X0.7724  Y0.8996  
G01 X0.7531  Y0.8996  
G01 X0.7353  Y0.8922  
G01 X0.7216  Y0.8785  
G01 X0.7143  Y0.8607  
G01 X0.7143  Y0.7794  
G01 X0.7216  Y0.7616  
G01 X0.7353  Y0.7479  
G01 X0.7531  Y0.7406  
G01 X0.7724  Y0.7406  
G01 X0.7902  Y0.7479  
G01 X0.8021  Y0.7598  
G01 X0.8140  Y0.7479  
G00 Z0.1000  
G00 X0.8296  Y0.7121  
G01 Z-0.0070 F10    
G01 X0.8118  Y0.7194  F20    
G01 X0.7925  Y0.7194  
G01 X0.7746  Y0.7121  
G01 X0.7628  Y0.7002  
G01 X0.7509  Y0.7121  
G01 X0.7330  Y0.7194  
G01 X0.7137  Y0.7194  
G01 X0.6959  Y0.7121  
G01 X0.6823  Y0.6984  
G01 X0.6749  Y0.6806  
G01 X0.6749  Y0.5993  
G01 X0.6823  Y0.5815  
G01 X0.6959  Y0.5678  
G01 X0.7137  Y0.5604  
G01 X0.7330  Y0.5604  
G01 X0.7509  Y0.5678  
G01 X0.7628  Y0.5797  
G01 X0.7746  Y0.5678  
G01 X0.7925  Y0.5604  
G01 X0.8118  Y0.5604  
G01 X0.8296  Y0.5678  
G01 X0.8415  Y0.5797  
G01 X0.8534  Y0.5678  
G01 X0.8712  Y0.5604  
G01 X0.8905  Y0.5604  
G01 X0.9083  Y0.5678  
G01 X0.9220  Y0.5815  
G01 X0.9294  Y0.5993  
G01 X0.9294  Y0.6806  
G01 X0.9220  Y0.6984  
G01 X0.9083  Y0.7121  
G01 X0.8905  Y0.7194  
G01 X0.8712  Y0.7194  
G01 X0.8534  Y0.7121  
G01 X0.8415  Y0.7002  
G01 X0.8296  Y0.7121  
G00 Z0.1000  
G00 X0.8406  Y0.4185  
G01 Z-0.0070 F10    
G01 X0.7594  Y0.4185  F20    
G01 X0.7415  Y0.4111  
G01 X0.7279  Y0.3975  
G01 X0.7205  Y0.3796  
G01 X0.7205  Y0.3604  
G01 X0.7279  Y0.3425  
G01 X0.7415  Y0.3289  
G01 X0.7594  Y0.3215  
G01 X0.8406  Y0.3215  
G01 X0.8585  Y0.3289  
G01 X0.8721  Y0.3425  
G01 X0.8795  Y0.3604  
G01 X0.8795  Y0.3796  
G01 X0.8721  Y0.3975  
G01 X0.8585  Y0.4111  
G01 X0.8406  Y0.4185  
G00 Z0.1000  
G00 X1.1406  Y0.3185  
G01 Z-0.0070 F10    
G01 X1.0594  Y0.3185  F20    
G01 X1.0415  Y0.3111  
G01 X1.0279  Y0.2975  
G01 X1.0205  Y0.2796  
G01 X1.0205  Y0.2604  
G01 X1.0279  Y0.2425  
G01 X1.0415  Y0.2289  
G01 X1.0594  Y0.2215  
G01 X1.1406  Y0.2215  
G01 X1.1585  Y0.2289  
G01 X1.1721  Y0.2425  
G01 X1.1795  Y0.2604  
G01 X1.1795  Y0.2796  
G01 X1.1721  Y0.2975  
G01 X1.1585  Y0.3111  
G01 X1.1406  Y0.3185  
G00 Z0.1000  
G00 X0.6406  Y0.3185  
G01 Z-0.0070 F10    
G01 X0.5594  Y0.3185  F20    
G01 X0.5415  Y0.3111  
G01 X0.5279  Y0.2975  
G01 X0.5205  Y0.2796  
G01 X0.5205  Y0.2604  
G01 X0.5279  Y0.2425  
G01 X0.5415  Y0.2289  
G01 X0.5594  Y0.2215  
G01 X0.6406  Y0.2215  
G01 X0.6585  Y0.2289  
G01 X0.6721  Y0.2425  
G01 X0.6795  Y0.2604  
G01 X0.6795  Y0.2796  
G01 X0.6721  Y0.2975  
G01 X0.6585  Y0.3111  
G01 X0.6406  Y0.3185  
G00 Z0.1000  
G00 X2.1094  Y0.1015  
G01 Z-0.0070 F10    
G01 X2.1906  Y0.1015  F20    
G01 X2.2085  Y0.1089  
G01 X2.2221  Y0.1225  
G01 X2.2295  Y0.1404  
G01 X2.2295  Y0.1596  
G01 X2.2221  Y0.1775  
G01 X2.2085  Y0.1911  
G01 X2.1906  Y0.1985  
G01 X2.1094  Y0.1985  
G01 X2.0915  Y0.1911  
G01 X2.0779  Y0.1775  
G01 X2.0705  Y0.1596  
G01 X2.0705  Y0.1404  
G01 X2.0779  Y0.1225  
G01 X2.0915  Y0.1089  
G01 X2.1094  Y0.1015  
G00 Z0.1000  
G00 X2.1094  Y0.2015  
G01 Z-0.0070 F10    
G01 X2.1906  Y0.2015  F20    
G01 X2.2085  Y0.2089  
G01 X2.2221  Y0.2225  
G01 X2.2295  Y0.2404  
G01 X2.2295  Y0.2596  
G01 X2.2221  Y0.2775  
G01 X2.2085  Y0.2911  
G01 X2.1906  Y0.2985  
G01 X2.1094  Y0.2985  
G01 X2.0915  Y0.2911  
G01 X2.0779  Y0.2775  
G01 X2.0705  Y0.2596  
G01 X2.0705  Y0.2404  
G01 X2.0779  Y0.2225  
G01 X2.0915  Y0.2089  
G01 X2.1094  Y0.2015  
G00 Z0.1000  
G00 X2.1094  Y0.3015  
G01 Z-0.0070 F10    
G01 X2.1906  Y0.3015  F20    
G01 X2.2085  Y0.3089  
G01 X2.2221  Y0.3225  
G01 X2.2295  Y0.3404  
G01 X2.2295  Y0.3596  
G01 X2.2221  Y0.3775  
G01 X2.2085  Y0.3911  
G01 X2.1906  Y0.3985  
G01 X2.1094  Y0.3985  
G01 X2.0915  Y0.3911  
G01 X2.0779  Y0.3775  
G01 X2.0705  Y0.3596  
G01 X2.0705  Y0.3404  
G01 X2.0779  Y0.3225  
G01 X2.0915  Y0.3089  
G01 X2.1094  Y0.3015  
G00 Z0.1000  
G00 X1.8094  Y0.3015  
G01 Z-0.0070 F10    
G01 X1.8906  Y0.3015  F20    
G01 X1.9085  Y0.3089  
G01 X1.9221  Y0.3225  
G01 X1.9295  Y0.3404  
G01 X1.9295  Y0.3596  
G01 X1.9221  Y0.3775  
G01 X1.9085  Y0.3911  
G01 X1.8906  Y0.3985  
G01 X1.8094  Y0.3985  
G01 X1.7915  Y0.3911  
G01 X1.7779  Y0.3775  
G01 X1.7705  Y0.3596  
G01 X1.7705  Y0.3404  
G01 X1.7779  Y0.3225  
G01 X1.7915  Y0.3089  
G01 X1.8094  Y0.3015  
G00 Z0.1000  
G00 X1.8094  Y0.2015  
G01 Z-0.0070 F10    
G01 X1.8906  Y0.2015  F20    
G01 X1.9085  Y0.2089  
G01 X1.9221  Y0.2225  
G01 X1.9295  Y0.2404  
G01 X1.9295  Y0.2596  
G01 X1.9221  Y0.2775  
G01 X1.9085  Y0.2911  
G01 X1.8906  Y0.2985  
G01 X1.8094  Y0.2985  
G01 X1.7915  Y0.2911  
G01 X1.7779  Y0.2775  
G01 X1.7705  Y0.2596  
G01 X1.7705  Y0.2404  
G01 X1.7779  Y0.2225  
G01 X1.7915  Y0.2089  
G01 X1.8094  Y0.2015  
G00 Z0.1000  
G00 X1.8094  Y0.1015  
G01 Z-0.0070 F10    
G01 X1.8906  Y0.1015  F20    
G01 X1.9085  Y0.1089  
G01 X1.9221  Y0.1225  
G01 X1.9295  Y0.1404  
G01 X1.9295  Y0.1596  
G01 X1.9221  Y0.1775  
G01 X1.9085  Y0.1911  
G01 X1.8906  Y0.1985  
G01 X1.8094  Y0.1985  
G01 X1.7915  Y0.1911  
G01 X1.7779  Y0.1775  
G01 X1.7705  Y0.1596  
G01 X1.7705  Y0.1404  
G01 X1.7779  Y0.1225  
G01 X1.7915  Y0.1089  
G01 X1.8094  Y0.1015  
G00 Z0.1000  
G00 X1.8485  Y0.6599  
G01 Z-0.0070 F10    
G01 X1.8485  Y0.7001  F20    
G01 X1.8201  Y0.7285  
G01 X1.7799  Y0.7285  
G01 X1.7515  Y0.7001  
G01 X1.7515  Y0.6599  
G01 X1.7799  Y0.6315  
G01 X1.8201  Y0.6315  
G01 X1.8485  Y0.6599  
G00 Z0.1000  
G00 X1.8485  Y0.4599  
G01 Z-0.0070 F10    
G01 X1.8485  Y0.5001  F20    
G01 X1.8201  Y0.5285  
G01 X1.7799  Y0.5285  
G01 X1.7515  Y0.5001  
G01 X1.7515  Y0.4599  
G01 X1.7799  Y0.4315  
G01 X1.8201  Y0.4315  
G01 X1.8485  Y0.4599  
G00 Z0.1000  
G00 X1.9685  Y0.6599  
G01 Z-0.0070 F10    
G01 X1.9685  Y0.7001  F20    
G01 X1.9401  Y0.7285  
G01 X1.8999  Y0.7285  
G01 X1.8715  Y0.7001  
G01 X1.8715  Y0.6599  
G01 X1.8999  Y0.6315  
G01 X1.9401  Y0.6315  
G01 X1.9685  Y0.6599  
G00 Z0.1000  
G00 X1.9685  Y0.4599  
G01 Z-0.0070 F10    
G01 X1.9685  Y0.5001  F20    
G01 X1.9401  Y0.5285  
G01 X1.8999  Y0.5285  
G01 X1.8715  Y0.5001  
G01 X1.8715  Y0.4599  
G01 X1.8999  Y0.4315  
G01 X1.9401  Y0.4315  
G01 X1.9685  Y0.4599  
G00 Z0.1000  
G00 X2.0885  Y0.6599  
G01 Z-0.0070 F10    
G01 X2.0885  Y0.7001  F20    
G01 X2.0601  Y0.7285  
G01 X2.0199  Y0.7285  
G01 X1.9915  Y0.7001  
G01 X1.9915  Y0.6599  
G01 X2.0199  Y0.6315  
G01 X2.0601  Y0.6315  
G01 X2.0885  Y0.6599  
G00 Z0.1000  
G00 X2.0885  Y0.4599  
G01 Z-0.0070 F10    
G01 X2.0885  Y0.5001  F20    
G01 X2.0601  Y0.5285  
G01 X2.0199  Y0.5285  
G01 X1.9915  Y0.5001  
G01 X1.9915  Y0.4599  
G01 X2.0199  Y0.4315  
G01 X2.0601  Y0.4315  
G01 X2.0885  Y0.4599  
G00 Z0.1000  
G00 X1.3185  Y0.2099  
G01 Z-0.0070 F10    
G01 X1.3185  Y0.2501  F20    
G01 X1.2901  Y0.2785  
G01 X1.2499  Y0.2785  
G01 X1.2215  Y0.2501  
G01 X1.2215  Y0.2099  
G01 X1.2499  Y0.1815  
G01 X1.2901  Y0.1815  
G01 X1.3185  Y0.2099  
G00 Z0.1000  
G00 X1.4185  Y0.2099  
G01 Z-0.0070 F10    
G01 X1.4185  Y0.2501  F20    
G01 X1.3901  Y0.2785  
G01 X1.3499  Y0.2785  
G01 X1.3215  Y0.2501  
G01 X1.3215  Y0.2099  
G01 X1.3499  Y0.1815  
G01 X1.3901  Y0.1815  
G01 X1.4185  Y0.2099  
G00 Z0.1000  
G00 X2.3675  Y1.0020  
G01 Z-0.0070 F10    
G01 X2.3675  Y1.0580  F20    
G01 X2.3280  Y1.0975  
G01 X2.2720  Y1.0975  
G01 X2.2325  Y1.0580  
G01 X2.2325  Y1.0020  
G01 X2.2720  Y0.9625  
G01 X2.3280  Y0.9625  
G01 X2.3675  Y1.0020  
G00 Z0.1000  
G00 X2.0675  Y1.0020  
G01 Z-0.0070 F10    
G01 X2.0675  Y1.0580  F20    
G01 X2.0280  Y1.0975  
G01 X1.9720  Y1.0975  
G01 X1.9325  Y1.0580  
G01 X1.9325  Y1.0020  
G01 X1.9720  Y0.9625  
G01 X2.0280  Y0.9625  
G01 X2.0675  Y1.0020  
G00 Z0.1000  
G00 X0.5585  Y0.9799  
G01 Z-0.0070 F10    
G01 X0.5585  Y1.0201  F20    
G01 X0.5301  Y1.0485  
G01 X0.4899  Y1.0485  
G01 X0.4615  Y1.0201  
G01 X0.4615  Y0.9799  
G01 X0.4899  Y0.9515  
G01 X0.5301  Y0.9515  
G01 X0.5585  Y0.9799  
G00 Z0.1000  
G00 X0.4585  Y0.9799  
G01 Z-0.0070 F10    
G01 X0.4585  Y1.0201  F20    
G01 X0.4301  Y1.0485  
G01 X0.3899  Y1.0485  
G01 X0.3615  Y1.0201  
G01 X0.3615  Y0.9799  
G01 X0.3899  Y0.9515  
G01 X0.4301  Y0.9515  
G01 X0.4585  Y0.9799  
G00 Z0.1000  
G00 X1.4385  Y1.1499  
G01 Z-0.0070 F10    
G01 X1.4385  Y1.1901  F20    
G01 X1.4321  Y1.1965  
G01 X1.4479  Y1.1965  
G01 X1.4415  Y1.1901  
G01 X1.4415  Y1.1499  
G01 X1.4699  Y1.1215  
G01 X1.5101  Y1.1215  
G01 X1.5385  Y1.1499  
G01 X1.5385  Y1.1901  
G01 X1.5101  Y1.2185  
G01 X1.4821  Y1.2185  
G01 X1.4885  Y1.2249  
G01 X1.4885  Y1.2651  
G01 X1.4601  Y1.2935  
G01 X1.4199  Y1.2935  
G01 X1.3915  Y1.2651  
G01 X1.3915  Y1.2249  
G01 X1.3979  Y1.2185  
G01 X1.3699  Y1.2185  
G01 X1.3415  Y1.1901  
G01 X1.3415  Y1.1499  
G01 X1.3699  Y1.1215  
G01 X1.4101  Y1.1215  
G01 X1.4385  Y1.1499  
G00 Z0.1000  
G00 X1.1643  Y1.2313  
G01 Z-0.0070 F10    
G01 X1.1420  Y1.2405  F20    
G01 X1.1180  Y1.2405  
G01 X1.0957  Y1.2313  
G01 X1.0787  Y1.2143  
G01 X1.0695  Y1.1920  
G01 X1.0695  Y1.1680  
G01 X1.0787  Y1.1457  
G01 X1.0957  Y1.1287  
G01 X1.1180  Y1.1195  
G01 X1.1420  Y1.1195  
G01 X1.1643  Y1.1287  
G01 X1.1800  Y1.1444  
G01 X1.2049  Y1.1195  
G01 X1.2551  Y1.1195  
G01 X1.2905  Y1.1549  
G01 X1.2905  Y1.2051  
G01 X1.2551  Y1.2405  
G01 X1.2049  Y1.2405  
G01 X1.1800  Y1.2156  
G01 X1.1643  Y1.2313  
G00 Z0.1000  
G00 X0.2400  Y0.9687  
G01 Z-0.0070 F10    
G01 X0.2587  Y0.9500  F20    
G01 X0.2400  Y0.9313  
G01 X0.2213  Y0.9500  
G01 X0.2400  Y0.9687  
G00 Z0.1000  
G00 X0.2400  Y0.7687  
G01 Z-0.0070 F10    
G01 X0.2587  Y0.7500  F20    
G01 X0.2400  Y0.7313  
G01 X0.2213  Y0.7500  
G01 X0.2400  Y0.7687  
G00 Z0.1000  
G00 X0.2400  Y0.5687  
G01 Z-0.0070 F10    
G01 X0.2587  Y0.5500  F20    
G01 X0.2400  Y0.5313  
G01 X0.2213  Y0.5500  
G01 X0.2400  Y0.5687  
G00 Z0.1000  
G00 X0.2400  Y0.4687  
G01 Z-0.0070 F10    
G01 X0.2587  Y0.4500  F20    
G01 X0.2400  Y0.4313  
G01 X0.2213  Y0.4500  
G01 X0.2400  Y0.4687  
G00 Z0.1000  
G00 X0.2400  Y0.6687  
G01 Z-0.0070 F10    
G01 X0.2587  Y0.6500  F20    
G01 X0.2400  Y0.6313  
G01 X0.2213  Y0.6500  
G01 X0.2400  Y0.6687  
G00 Z0.1000  
G00 X0.2400  Y0.8687  
G01 Z-0.0070 F10    
G01 X0.2587  Y0.8500  F20    
G01 X0.2400  Y0.8313  
G01 X0.2213  Y0.8500  
G01 X0.2400  Y0.8687  
G00 Z0.1000  
G00 X1.8155  Y1.2070  
G01 Z-0.0070 F10    
G01 X1.8155  Y1.2330  F20    
G01 X1.8055  Y1.2571  
G01 X1.7871  Y1.2755  
G01 X1.7630  Y1.2855  
G01 X1.7370  Y1.2855  
G01 X1.7129  Y1.2755  
G01 X1.6945  Y1.2571  
G01 X1.6845  Y1.2330  
G01 X1.6845  Y1.2070  
G01 X1.6945  Y1.1829  
G01 X1.7074  Y1.1700  
G01 X1.6845  Y1.1471  
G01 X1.6845  Y1.0929  
G01 X1.7229  Y1.0545  
G01 X1.7771  Y1.0545  
G01 X1.8155  Y1.0929  
G01 X1.8155  Y1.1471  
G01 X1.7926  Y1.1700  
G01 X1.8055  Y1.1829  
G01 X1.8155  Y1.2070  
G00 Z0.1000  
G00 X0.5635  Y0.9778  
G01 Z-0.0070 F10    
G01 X0.5635  Y1.0222  F20    
G01 X0.5322  Y1.0535  
G01 X0.4878  Y1.0535  
G01 X0.4600  Y1.0257  
G01 X0.4322  Y1.0535  
G01 X0.3878  Y1.0535  
G01 X0.3565  Y1.0222  
G01 X0.3565  Y0.9778  
G01 X0.3878  Y0.9465  
G01 X0.4322  Y0.9465  
G01 X0.4600  Y0.9743  
G01 X0.4878  Y0.9465  
G01 X0.5322  Y0.9465  
G01 X0.5635  Y0.9778  
G00 Z0.1000  
G00 X2.0725  Y1.0000  
G01 Z-0.0070 F10    
G01 X2.0725  Y1.0600  F20    
G01 X2.0300  Y1.1025  
G01 X1.9700  Y1.1025  
G01 X1.9275  Y1.0600  
G01 X1.9275  Y1.0000  
G01 X1.9700  Y0.9575  
G01 X2.0300  Y0.9575  
G01 X2.0725  Y1.0000  
G00 Z0.1000  
G00 X2.3725  Y1.0000  
G01 Z-0.0070 F10    
G01 X2.3725  Y1.0600  F20    
G01 X2.3300  Y1.1025  
G01 X2.2700  Y1.1025  
G01 X2.2275  Y1.0600  
G01 X2.2275  Y1.0000  
G01 X2.2700  Y0.9575  
G01 X2.3300  Y0.9575  
G01 X2.3725  Y1.0000  
G00 Z0.1000  
G00 X0.3475  Y0.9762  
G01 Z-0.0070 F10    
G01 X0.3475  Y1.0238  F20    
G01 X0.3138  Y1.0575  
G01 X0.2662  Y1.0575  
G01 X0.2400  Y1.0313  
G01 X0.2138  Y1.0575  
G01 X0.1662  Y1.0575  
G01 X0.1325  Y1.0238  
G01 X0.1325  Y0.9762  
G01 X0.1587  Y0.9500  
G01 X0.1325  Y0.9238  
G01 X0.1325  Y0.8762  
G01 X0.1587  Y0.8500  
G01 X0.1325  Y0.8238  
G01 X0.1325  Y0.7762  
G01 X0.1587  Y0.7500  
G01 X0.1325  Y0.7238  
G01 X0.1325  Y0.6762  
G01 X0.1587  Y0.6500  
G01 X0.1325  Y0.6238  
G01 X0.1325  Y0.5762  
G01 X0.1587  Y0.5500  
G01 X0.1325  Y0.5238  
G01 X0.1325  Y0.4762  
G01 X0.1587  Y0.4500  
G01 X0.1325  Y0.4238  
G01 X0.1325  Y0.3762  
G01 X0.1662  Y0.3425  
G01 X0.2138  Y0.3425  
G01 X0.2400  Y0.3687  
G01 X0.2662  Y0.3425  
G01 X0.3138  Y0.3425  
G01 X0.3475  Y0.3762  
G01 X0.3475  Y0.4238  
G01 X0.3213  Y0.4500  
G01 X0.3475  Y0.4762  
G01 X0.3475  Y0.5238  
G01 X0.3213  Y0.5500  
G01 X0.3475  Y0.5762  
G01 X0.3475  Y0.6238  
G01 X0.3213  Y0.6500  
G01 X0.3475  Y0.6762  
G01 X0.3475  Y0.7238  
G01 X0.3213  Y0.7500  
G01 X0.3475  Y0.7762  
G01 X0.3475  Y0.8238  
G01 X0.3213  Y0.8500  
G01 X0.3475  Y0.8762  
G01 X0.3475  Y0.9238  
G01 X0.3213  Y0.9500  
G01 X0.3475  Y0.9762  
G00 Z0.1000  
G00 X1.5284  Y0.2865  
G01 Z-0.0070 F10    
G01 X1.6116  Y0.2865  F20    
G01 X1.6313  Y0.2946  
G01 X1.6464  Y0.3097  
G01 X1.6545  Y0.3294  
G01 X1.6545  Y0.3506  
G01 X1.6464  Y0.3703  
G01 X1.6313  Y0.3854  
G01 X1.6201  Y0.3900  
G01 X1.6313  Y0.3946  
G01 X1.6464  Y0.4097  
G01 X1.6545  Y0.4294  
G01 X1.6545  Y0.4506  
G01 X1.6464  Y0.4703  
G01 X1.6313  Y0.4854  
G01 X1.6201  Y0.4900  
G01 X1.6313  Y0.4946  
G01 X1.6464  Y0.5097  
G01 X1.6545  Y0.5294  
G01 X1.6545  Y0.5506  
G01 X1.6464  Y0.5703  
G01 X1.6313  Y0.5854  
G01 X1.6201  Y0.5900  
G01 X1.6313  Y0.5946  
G01 X1.6464  Y0.6097  
G01 X1.6545  Y0.6294  
G01 X1.6545  Y0.6506  
G01 X1.6464  Y0.6703  
G01 X1.6313  Y0.6854  
G01 X1.6201  Y0.6900  
G01 X1.6313  Y0.6946  
G01 X1.6464  Y0.7097  
G01 X1.6545  Y0.7294  
G01 X1.6545  Y0.7506  
G01 X1.6464  Y0.7703  
G01 X1.6313  Y0.7854  
G01 X1.6201  Y0.7900  
G01 X1.6313  Y0.7946  
G01 X1.6464  Y0.8097  
G01 X1.6545  Y0.8294  
G01 X1.6545  Y0.8506  
G01 X1.6464  Y0.8703  
G01 X1.6313  Y0.8854  
G01 X1.6201  Y0.8900  
G01 X1.6313  Y0.8946  
G01 X1.6464  Y0.9097  
G01 X1.6545  Y0.9294  
G01 X1.6545  Y0.9506  
G01 X1.6464  Y0.9703  
G01 X1.6313  Y0.9854  
G01 X1.6201  Y0.9900  
G01 X1.6313  Y0.9946  
G01 X1.6464  Y1.0097  
G01 X1.6545  Y1.0294  
G01 X1.6545  Y1.0506  
G01 X1.6464  Y1.0703  
G01 X1.6313  Y1.0854  
G01 X1.6116  Y1.0935  
G01 X1.5284  Y1.0935  
G01 X1.5087  Y1.0854  
G01 X1.4936  Y1.0703  
G01 X1.4855  Y1.0506  
G01 X1.4855  Y1.0294  
G01 X1.4936  Y1.0097  
G01 X1.5087  Y0.9946  
G01 X1.5199  Y0.9900  
G01 X1.5087  Y0.9854  
G01 X1.4936  Y0.9703  
G01 X1.4855  Y0.9506  
G01 X1.4855  Y0.9294  
G01 X1.4936  Y0.9097  
G01 X1.5087  Y0.8946  
G01 X1.5199  Y0.8900  
G01 X1.5087  Y0.8854  
G01 X1.4936  Y0.8703  
G01 X1.4855  Y0.8506  
G01 X1.4855  Y0.8294  
G01 X1.4936  Y0.8097  
G01 X1.5087  Y0.7946  
G01 X1.5199  Y0.7900  
G01 X1.5087  Y0.7854  
G01 X1.4936  Y0.7703  
G01 X1.4855  Y0.7506  
G01 X1.4855  Y0.7294  
G01 X1.4936  Y0.7097  
G01 X1.5087  Y0.6946  
G01 X1.5199  Y0.6900  
G01 X1.5087  Y0.6854  
G01 X1.4936  Y0.6703  
G01 X1.4855  Y0.6506  
G01 X1.4855  Y0.6294  
G01 X1.4936  Y0.6097  
G01 X1.5087  Y0.5946  
G01 X1.5199  Y0.5900  
G01 X1.5087  Y0.5854  
G01 X1.4936  Y0.5703  
G01 X1.4855  Y0.5506  
G01 X1.4855  Y0.5294  
G01 X1.4936  Y0.5097  
G01 X1.5087  Y0.4946  
G01 X1.5199  Y0.4900  
G01 X1.5087  Y0.4854  
G01 X1.4936  Y0.4703  
G01 X1.4855  Y0.4506  
G01 X1.4855  Y0.4294  
G01 X1.4936  Y0.4097  
G01 X1.5087  Y0.3946  
G01 X1.5199  Y0.3900  
G01 X1.5087  Y0.3854  
G01 X1.4936  Y0.3703  
G01 X1.4855  Y0.3506  
G01 X1.4855  Y0.3294  
G01 X1.4936  Y0.3097  
G01 X1.5087  Y0.2946  
G01 X1.5284  Y0.2865  
G00 Z0.1000  
G00 X0.8112  Y0.7437  
G01 Z-0.0070 F10    
G01 X0.8309  Y0.7356  F20    
G01 X0.8521  Y0.7356  
G01 X0.8718  Y0.7437  
G01 X0.8809  Y0.7528  
G01 X0.8899  Y0.7437  
G01 X0.9096  Y0.7356  
G01 X0.9309  Y0.7356  
G01 X0.9505  Y0.7437  
G01 X0.9656  Y0.7587  
G01 X0.9737  Y0.7784  
G01 X0.9737  Y0.8617  
G01 X0.9656  Y0.8814  
G01 X0.9505  Y0.8964  
G01 X0.9309  Y0.9046  
G01 X0.9096  Y0.9046  
G01 X0.8899  Y0.8964  
G01 X0.8809  Y0.8873  
G01 X0.8718  Y0.8964  
G01 X0.8521  Y0.9046  
G01 X0.8309  Y0.9046  
G01 X0.8112  Y0.8964  
G01 X0.8021  Y0.8873  
G01 X0.7931  Y0.8964  
G01 X0.7734  Y0.9046  
G01 X0.7521  Y0.9046  
G01 X0.7324  Y0.8964  
G01 X0.7174  Y0.8814  
G01 X0.7093  Y0.8617  
G01 X0.7093  Y0.7784  
G01 X0.7174  Y0.7587  
G01 X0.7324  Y0.7437  
G01 X0.7521  Y0.7356  
G01 X0.7734  Y0.7356  
G01 X0.7931  Y0.7437  
G01 X0.8021  Y0.7528  
G01 X0.8112  Y0.7437  
G00 Z0.1000  
G00 X0.8324  Y0.7163  
G01 Z-0.0070 F10    
G01 X0.8128  Y0.7244  F20    
G01 X0.7915  Y0.7244  
G01 X0.7718  Y0.7163  
G01 X0.7628  Y0.7072  
G01 X0.7537  Y0.7163  
G01 X0.7340  Y0.7244  
G01 X0.7127  Y0.7244  
G01 X0.6931  Y0.7163  
G01 X0.6780  Y0.7012  
G01 X0.6699  Y0.6816  
G01 X0.6699  Y0.5983  
G01 X0.6780  Y0.5786  
G01 X0.6931  Y0.5636  
G01 X0.7127  Y0.5554  
G01 X0.7340  Y0.5554  
G01 X0.7537  Y0.5636  
G01 X0.7628  Y0.5727  
G01 X0.7718  Y0.5636  
G01 X0.7915  Y0.5554  
G01 X0.8128  Y0.5554  
G01 X0.8324  Y0.5636  
G01 X0.8415  Y0.5727  
G01 X0.8506  Y0.5636  
G01 X0.8702  Y0.5554  
G01 X0.8915  Y0.5554  
G01 X0.9112  Y0.5636  
G01 X0.9262  Y0.5786  
G01 X0.9344  Y0.5983  
G01 X0.9344  Y0.6816  
G01 X0.9262  Y0.7012  
G01 X0.9112  Y0.7163  
G01 X0.8915  Y0.7244  
G01 X0.8702  Y0.7244  
G01 X0.8506  Y0.7163  
G01 X0.8415  Y0.7072  
G01 X0.8324  Y0.7163  
G00 Z0.1000  
G00 X1.3313  Y0.9946  
G01 Z-0.0070 F10    
G01 X1.3464  Y1.0097  F20    
G01 X1.3545  Y1.0294  
G01 X1.3545  Y1.0506  
G01 X1.3464  Y1.0703  
G01 X1.3313  Y1.0854  
G01 X1.3116  Y1.0935  
G01 X1.2284  Y1.0935  
G01 X1.2087  Y1.0854  
G01 X1.1936  Y1.0703  
G01 X1.1855  Y1.0506  
G01 X1.1855  Y1.0294  
G01 X1.1936  Y1.0097  
G01 X1.2087  Y0.9946  
G01 X1.2199  Y0.9900  
G01 X1.2087  Y0.9854  
G01 X1.1936  Y0.9703  
G01 X1.1855  Y0.9506  
G01 X1.1855  Y0.9294  
G01 X1.1936  Y0.9097  
G01 X1.2087  Y0.8946  
G01 X1.2199  Y0.8900  
G01 X1.2087  Y0.8854  
G01 X1.1936  Y0.8703  
G01 X1.1855  Y0.8506  
G01 X1.1855  Y0.8294  
G01 X1.1936  Y0.8097  
G01 X1.2087  Y0.7946  
G01 X1.2199  Y0.7900  
G01 X1.2087  Y0.7854  
G01 X1.1936  Y0.7703  
G01 X1.1855  Y0.7506  
G01 X1.1855  Y0.7294  
G01 X1.1936  Y0.7097  
G01 X1.2087  Y0.6946  
G01 X1.2199  Y0.6900  
G01 X1.2087  Y0.6854  
G01 X1.1936  Y0.6703  
G01 X1.1855  Y0.6506  
G01 X1.1855  Y0.6294  
G01 X1.1936  Y0.6097  
G01 X1.2087  Y0.5946  
G01 X1.2199  Y0.5900  
G01 X1.2087  Y0.5854  
G01 X1.1936  Y0.5703  
G01 X1.1855  Y0.5506  
G01 X1.1855  Y0.5294  
G01 X1.1936  Y0.5097  
G01 X1.2087  Y0.4946  
G01 X1.2199  Y0.4900  
G01 X1.2087  Y0.4854  
G01 X1.1936  Y0.4703  
G01 X1.1855  Y0.4506  
G01 X1.1855  Y0.4294  
G01 X1.1936  Y0.4097  
G01 X1.2087  Y0.3946  
G01 X1.2199  Y0.3900  
G01 X1.2087  Y0.3854  
G01 X1.1936  Y0.3703  
G01 X1.1855  Y0.3506  
G01 X1.1855  Y0.3294  
G01 X1.1936  Y0.3097  
G01 X1.2087  Y0.2946  
G01 X1.2284  Y0.2865  
G01 X1.3116  Y0.2865  
G01 X1.3313  Y0.2946  
G01 X1.3464  Y0.3097  
G01 X1.3545  Y0.3294  
G01 X1.3545  Y0.3506  
G01 X1.3464  Y0.3703  
G01 X1.3313  Y0.3854  
G01 X1.3201  Y0.3900  
G01 X1.3313  Y0.3946  
G01 X1.3464  Y0.4097  
G01 X1.3545  Y0.4294  
G01 X1.3545  Y0.4506  
G01 X1.3464  Y0.4703  
G01 X1.3313  Y0.4854  
G01 X1.3201  Y0.4900  
G01 X1.3313  Y0.4946  
G01 X1.3464  Y0.5097  
G01 X1.3545  Y0.5294  
G01 X1.3545  Y0.5506  
G01 X1.3464  Y0.5703  
G01 X1.3313  Y0.5854  
G01 X1.3201  Y0.5900  
G01 X1.3313  Y0.5946  
G01 X1.3464  Y0.6097  
G01 X1.3545  Y0.6294  
G01 X1.3545  Y0.6506  
G01 X1.3464  Y0.6703  
G01 X1.3313  Y0.6854  
G01 X1.3201  Y0.6900  
G01 X1.3313  Y0.6946  
G01 X1.3464  Y0.7097  
G01 X1.3545  Y0.7294  
G01 X1.3545  Y0.7506  
G01 X1.3464  Y0.7703  
G01 X1.3313  Y0.7854  
G01 X1.3201  Y0.7900  
G01 X1.3313  Y0.7946  
G01 X1.3464  Y0.8097  
G01 X1.3545  Y0.8294  
G01 X1.3545  Y0.8506  
G01 X1.3464  Y0.8703  
G01 X1.3313  Y0.8854  
G01 X1.3201  Y0.8900  
G01 X1.3313  Y0.8946  
G01 X1.3464  Y0.9097  
G01 X1.3545  Y0.9294  
G01 X1.3545  Y0.9506  
G01 X1.3464  Y0.9703  
G01 X1.3313  Y0.9854  
G01 X1.3201  Y0.9900  
G01 X1.3313  Y0.9946  
G00 Z0.1000  
G00 X0.8416  Y0.4235  
G01 Z-0.0070 F10    
G01 X0.7584  Y0.4235  F20    
G01 X0.7387  Y0.4154  
G01 X0.7236  Y0.4003  
G01 X0.7155  Y0.3806  
G01 X0.7155  Y0.3594  
G01 X0.7236  Y0.3397  
G01 X0.7387  Y0.3246  
G01 X0.7584  Y0.3165  
G01 X0.8416  Y0.3165  
G01 X0.8613  Y0.3246  
G01 X0.8764  Y0.3397  
G01 X0.8845  Y0.3594  
G01 X0.8845  Y0.3806  
G01 X0.8764  Y0.4003  
G01 X0.8613  Y0.4154  
G01 X0.8416  Y0.4235  
G00 Z0.1000  
G00 X1.1416  Y0.3235  
G01 Z-0.0070 F10    
G01 X1.0584  Y0.3235  F20    
G01 X1.0387  Y0.3154  
G01 X1.0236  Y0.3003  
G01 X1.0155  Y0.2806  
G01 X1.0155  Y0.2594  
G01 X1.0236  Y0.2397  
G01 X1.0387  Y0.2246  
G01 X1.0584  Y0.2165  
G01 X1.1416  Y0.2165  
G01 X1.1613  Y0.2246  
G01 X1.1764  Y0.2397  
G01 X1.1845  Y0.2594  
G01 X1.1845  Y0.2806  
G01 X1.1764  Y0.3003  
G01 X1.1613  Y0.3154  
G01 X1.1416  Y0.3235  
G00 Z0.1000  
G00 X0.6416  Y0.3235  
G01 Z-0.0070 F10    
G01 X0.5584  Y0.3235  F20    
G01 X0.5387  Y0.3154  
G01 X0.5236  Y0.3003  
G01 X0.5155  Y0.2806  
G01 X0.5155  Y0.2594  
G01 X0.5236  Y0.2397  
G01 X0.5387  Y0.2246  
G01 X0.5584  Y0.2165  
G01 X0.6416  Y0.2165  
G01 X0.6613  Y0.2246  
G01 X0.6764  Y0.2397  
G01 X0.6845  Y0.2594  
G01 X0.6845  Y0.2806  
G01 X0.6764  Y0.3003  
G01 X0.6613  Y0.3154  
G01 X0.6416  Y0.3235  
G00 Z0.1000  
G00 X2.1084  Y0.0965  
G01 Z-0.0070 F10    
G01 X2.1916  Y0.0965  F20    
G01 X2.2113  Y0.1046  
G01 X2.2264  Y0.1197  
G01 X2.2345  Y0.1394  
G01 X2.2345  Y0.1606  
G01 X2.2264  Y0.1803  
G01 X2.2113  Y0.1954  
G01 X2.2001  Y0.2000  
G01 X2.2113  Y0.2046  
G01 X2.2264  Y0.2197  
G01 X2.2345  Y0.2394  
G01 X2.2345  Y0.2606  
G01 X2.2264  Y0.2803  
G01 X2.2113  Y0.2954  
G01 X2.2001  Y0.3000  
G01 X2.2113  Y0.3046  
G01 X2.2264  Y0.3197  
G01 X2.2345  Y0.3394  
G01 X2.2345  Y0.3606  
G01 X2.2264  Y0.3803  
G01 X2.2113  Y0.3954  
G01 X2.1916  Y0.4035  
G01 X2.1084  Y0.4035  
G01 X2.0887  Y0.3954  
G01 X2.0736  Y0.3803  
G01 X2.0655  Y0.3606  
G01 X2.0655  Y0.3394  
G01 X2.0736  Y0.3197  
G01 X2.0887  Y0.3046  
G01 X2.0999  Y0.3000  
G01 X2.0887  Y0.2954  
G01 X2.0736  Y0.2803  
G01 X2.0655  Y0.2606  
G01 X2.0655  Y0.2394  
G01 X2.0736  Y0.2197  
G01 X2.0887  Y0.2046  
G01 X2.0999  Y0.2000  
G01 X2.0887  Y0.1954  
G01 X2.0736  Y0.1803  
G01 X2.0655  Y0.1606  
G01 X2.0655  Y0.1394  
G01 X2.0736  Y0.1197  
G01 X2.0887  Y0.1046  
G01 X2.1084  Y0.0965  
G00 Z0.1000  
G00 X1.9113  Y0.3046  
G01 Z-0.0070 F10    
G01 X1.9264  Y0.3197  F20    
G01 X1.9345  Y0.3394  
G01 X1.9345  Y0.3606  
G01 X1.9264  Y0.3803  
G01 X1.9113  Y0.3954  
G01 X1.8916  Y0.4035  
G01 X1.8084  Y0.4035  
G01 X1.7887  Y0.3954  
G01 X1.7736  Y0.3803  
G01 X1.7655  Y0.3606  
G01 X1.7655  Y0.3394  
G01 X1.7736  Y0.3197  
G01 X1.7887  Y0.3046  
G01 X1.7999  Y0.3000  
G01 X1.7887  Y0.2954  
G01 X1.7736  Y0.2803  
G01 X1.7655  Y0.2606  
G01 X1.7655  Y0.2394  
G01 X1.7736  Y0.2197  
G01 X1.7887  Y0.2046  
G01 X1.7999  Y0.2000  
G01 X1.7887  Y0.1954  
G01 X1.7736  Y0.1803  
G01 X1.7655  Y0.1606  
G01 X1.7655  Y0.1394  
G01 X1.7736  Y0.1197  
G01 X1.7887  Y0.1046  
G01 X1.8084  Y0.0965  
G01 X1.8916  Y0.0965  
G01 X1.9113  Y0.1046  
G01 X1.9264  Y0.1197  
G01 X1.9345  Y0.1394  
G01 X1.9345  Y0.1606  
G01 X1.9264  Y0.1803  
G01 X1.9113  Y0.1954  
G01 X1.9001  Y0.2000  
G01 X1.9113  Y0.2046  
G01 X1.9264  Y0.2197  
G01 X1.9345  Y0.2394  
G01 X1.9345  Y0.2606  
G01 X1.9264  Y0.2803  
G01 X1.9113  Y0.2954  
G01 X1.9001  Y0.3000  
G01 X1.9113  Y0.3046  
G00 Z0.1000  
G00 X1.8535  Y0.6578  
G01 Z-0.0070 F10    
G01 X1.8535  Y0.7022  F20    
G01 X1.8222  Y0.7335  
G01 X1.7778  Y0.7335  
G01 X1.7465  Y0.7022  
G01 X1.7465  Y0.6578  
G01 X1.7778  Y0.6265  
G01 X1.8222  Y0.6265  
G01 X1.8535  Y0.6578  
G00 Z0.1000  
G00 X1.8535  Y0.4578  
G01 Z-0.0070 F10    
