(.../src/pcbgcode-work/pcb-gcode.ulp)
(Copyright 2005 - 2009 by John Johnson)
(See readme.txt for licensing terms.)
(This file generated from the board:)
(.../docs/examples/04151_lcdi2c.brd)
(Current profile is .../pcbgcode-work/profiles/mach.pp  )
(This file generated 12/16/12 2:20 PM)
(Settings from pcb-machine.h)
(  Tool Size)
(0.0030  )
(Z Axis Settings)
(  High     Up        Down     Drill)
(0.5000  	0.1000  	-0.0070 	-0.0320 )
(spindle on time = 3.0000)
(milling depth = -0.0100)
(text depth = -0.0050)
(tool change at 0.5000  0.6000  1.0000  )
(feed rate xy = F20    )
(feed rate z  = F10    )
(Settings from pcb-defaults.h)
(isolate min = 0.0010)
(isolate max = 0.0002)
(isolate step = 0.0050)
(Generated bottom drill, )
(Unit of measure: inch)
(Inch Mode)
G20
(Absolute Coordinates)
G90
G00 X0.0000  Y0.0000  
M03
G04 P3.000000
G01 X0.0100  Y-0.0100 
G01 X2.7900  Y-0.0100 
G01 X2.7900  Y1.3300  
G00 Z0.1000  
G00 X-0.0100 Y1.3200  
G01 Z-0.0100 F10    
G01 X-0.0100 Y0.0000  F20    
G00 Z0.1000  
G00 X-0.0100 Y1.3300  
G01 Z-0.0100 F10    
G01 X2.7900  Y1.3300  F20    
G00 Z0.5000  
M05
M02
