(.../Documents/src/pcbgcode/pcb-gcode.ulp)
(Copyright 2005 - 2009 by John Johnson)
(See readme.txt for licensing terms.)
(This file generated from the board:)
(.../pcbgcode/docs/examples/enabtmr.brd)
(Current profile is .../pcbgcode/profiles/generic.pp  )
(This file generated 2/7/09 10:26 AM)
(Settings from pcb-machine.h)
(  Tool Size)
(0.0070 )
(Z Axis Settings)
(  High     Up        Down     Drill)
(0.5000 	0.1000 	-0.0070 	-0.0320 )
(spindle on time = 3.0000)
(milling depth = -0.0100)
(text depth = -0.0050)
(tool change at 0.0000 0.0000 0.0000 )
(feed rate xy = F20.00 )
(feed rate z  = F10.00 )
(Settings from pcb-defaults.h)
(Isolate min = 0.0010)
(isolate max = 0.0200)
(isolate step = 0.0050)
(Generated top outlines, top drill, bottom outlines, bottom drill, )
(Unit of measure: inch)
( Tool|       Size       |  Min Sub |  Max Sub |   Count )
( T01  0.500mm 0.0197in 0.0197in 0.0236in )
( T02  0.813mm 0.0320in 0.0320in 0.0320in )
( T03  1.016mm 0.0400in 0.0400in 0.0440in )
( T04  1.270mm 0.0500in 0.0470in 0.0500in )
( T06  3.175mm 0.1250in 0.0000in 0.0000in )
(Inch Mode)
G20
(Inch Mode)
G20
(Absolute Coordinates)
G90
(Absolute Coordinates)
G90
M05
G00 Z0.0000 
G00 X0.0000 Y0.0000 
M06 T01  ; 0.0197 
G00 Z0.1000 
M03
G04 P3.000000
M03
G04 P3.000000
G00 Z0.100000
G00 X1.6400 Y1.2700 
G01 Z-0.0320 F10.00 
G01 Z0.100000
(R0.1000  P1.000000)
G00 Z0.100000
G00 X1.6400 Y1.2700 
G01 Z-0.0320 F10.00 
G01 Z0.100000
(R0.1000  P1.000000)
G00 Z0.100000
G00 X1.6400 Y1.2700 
G01 Z-0.0320 F10.00 
G01 Z0.100000
(R0.1000  P1.000000)
G00 Z0.100000
G00 X1.6400 Y1.2700 
G01 Z-0.0320 F10.00 
G01 Z0.100000
(R0.1000  P1.000000)
G00 Z0.100000
G00 X1.6400 Y1.2700 
G01 Z-0.0320 F10.00 
G01 Z0.100000
(R0.1000  P1.000000)
(G00 Z0.100000)
G00 X1.9000 Y0.5700 
G01 Z-0.032000
G01 Z0.100000
(G00 Z0.100000)
G00 X1.9000 Y0.5700 
G01 Z-0.032000
G01 Z0.100000
(G00 Z0.100000)
G00 X1.9000 Y0.5700 
G01 Z-0.032000
G01 Z0.100000
(G00 Z0.100000)
G00 X1.9000 Y0.5700 
G01 Z-0.032000
G01 Z0.100000
(G00 Z0.100000)
G00 X1.9700 Y1.4700 
G01 Z-0.032000
G01 Z0.100000
(G00 Z0.100000)
G00 X1.9700 Y1.4700 
G01 Z-0.032000
G01 Z0.100000
(G00 Z0.100000)
G00 X1.9700 Y1.4700 
G01 Z-0.032000
G01 Z0.100000
(G00 Z0.100000)
G00 X1.9700 Y1.4700 
G01 Z-0.032000
G01 Z0.100000
(G00 Z0.100000)
G00 X1.9700 Y1.7900 
G01 Z-0.032000
G01 Z0.100000
(G00 Z0.100000)
G00 X1.9700 Y1.7900 
G01 Z-0.032000
G01 Z0.100000
(G00 Z0.100000)
G00 X1.9700 Y1.7900 
G01 Z-0.032000
G01 Z0.100000
(G00 Z0.100000)
G00 X1.9700 Y1.7900 
G01 Z-0.032000
G01 Z0.100000
(G00 Z0.100000)
G00 X2.2100 Y1.4700 
G01 Z-0.032000
G01 Z0.100000
(G00 Z0.100000)
G00 X2.2100 Y1.4700 
G01 Z-0.032000
G01 Z0.100000
(G00 Z0.100000)
G00 X2.2100 Y1.4700 
G01 Z-0.032000
G01 Z0.100000
(G00 Z0.100000)
G00 X2.2100 Y1.4700 
G01 Z-0.032000
G01 Z0.100000
(G00 Z0.100000)
G00 X2.2100 Y1.7400 
G01 Z-0.032000
G01 Z0.100000
(G00 Z0.100000)
G00 X2.2100 Y1.7400 
G01 Z-0.032000
G01 Z0.100000
(G00 Z0.100000)
G00 X2.2100 Y1.7400 
G01 Z-0.032000
G01 Z0.100000
(G00 Z0.100000)
G00 X2.2100 Y1.7400 
G01 Z-0.032000
G01 Z0.100000
(G00 Z0.100000)
G00 X2.5100 Y0.4600 
G01 Z-0.032000
G01 Z0.100000
(G00 Z0.100000)
G00 X2.5100 Y0.4600 
G01 Z-0.032000
G01 Z0.100000
(G00 Z0.100000)
G00 X2.5100 Y0.4600 
G01 Z-0.032000
G01 Z0.100000
(G00 Z0.100000)
G00 X2.5100 Y0.4600 
G01 Z-0.032000
G01 Z0.100000
(G00 Z0.100000)
G00 X2.5100 Y0.9100 
G01 Z-0.032000
G01 Z0.100000
(G00 Z0.100000)
G00 X2.5100 Y0.9100 
G01 Z-0.032000
G01 Z0.100000
(G00 Z0.100000)
G00 X2.5100 Y0.9100 
G01 Z-0.032000
G01 Z0.100000
(G00 Z0.100000)
G00 X2.5100 Y0.9100 
G01 Z-0.032000
G01 Z0.100000
M05
G00 Z0.0000 
G00 X0.0000 Y0.0000 
M06 T02  ; 0.0320 
G00 Z0.1000 
M03
G04 P3.000000
M03
G04 P3.000000
G00 Z0.100000
G00 X0.5600 Y0.9100 
G01 Z-0.0320 F10.00 
G01 Z0.100000
(R0.1000  P1.000000)
G00 Z0.100000
G00 X0.5600 Y0.9100 
G01 Z-0.0320 F10.00 
G01 Z0.100000
(R0.1000  P1.000000)
G00 Z0.100000
G00 X0.5600 Y0.9100 
G01 Z-0.0320 F10.00 
G01 Z0.100000
(R0.1000  P1.000000)
G00 Z0.100000
G00 X0.5600 Y0.9100 
G01 Z-0.0320 F10.00 
G01 Z0.100000
(R0.1000  P1.000000)
G00 Z0.100000
G00 X0.5600 Y0.9100 
G01 Z-0.0320 F10.00 
G01 Z0.100000
(R0.1000  P1.000000)
(G00 Z0.100000)
G00 X0.5600 Y1.1100 
G01 Z-0.032000
G01 Z0.100000
(G00 Z0.100000)
G00 X0.5600 Y1.1100 
G01 Z-0.032000
G01 Z0.100000
(G00 Z0.100000)
G00 X0.5600 Y1.1100 
G01 Z-0.032000
G01 Z0.100000
(G00 Z0.100000)
G00 X0.5600 Y1.1100 
G01 Z-0.032000
G01 Z0.100000
(G00 Z0.100000)
G00 X0.7200 Y1.3100 
G01 Z-0.032000
G01 Z0.100000
(G00 Z0.100000)
G00 X0.7200 Y1.3100 
G01 Z-0.032000
G01 Z0.100000
(G00 Z0.100000)
G00 X0.7200 Y1.3100 
G01 Z-0.032000
G01 Z0.100000
(G00 Z0.100000)
G00 X0.7200 Y1.3100 
G01 Z-0.032000
G01 Z0.100000
(G00 Z0.100000)
G00 X0.7200 Y1.5100 
G01 Z-0.032000
G01 Z0.100000
(G00 Z0.100000)
G00 X0.7200 Y1.5100 
G01 Z-0.032000
G01 Z0.100000
(G00 Z0.100000)
G00 X0.7200 Y1.5100 
G01 Z-0.032000
G01 Z0.100000
(G00 Z0.100000)
G00 X0.7200 Y1.5100 
G01 Z-0.032000
G01 Z0.100000
(G00 Z0.100000)
G00 X0.7600 Y1.8600 
G01 Z-0.032000
G01 Z0.100000
(G00 Z0.100000)
G00 X0.7600 Y1.8600 
G01 Z-0.032000
G01 Z0.100000
(G00 Z0.100000)
G00 X0.7600 Y1.8600 
G01 Z-0.032000
G01 Z0.100000
(G00 Z0.100000)
G00 X0.7600 Y1.8600 
G01 Z-0.032000
G01 Z0.100000
(G00 Z0.100000)
G00 X0.7800 Y0.3400 
G01 Z-0.032000
G01 Z0.100000
(G00 Z0.100000)
G00 X0.7800 Y0.3400 
G01 Z-0.032000
G01 Z0.100000
(G00 Z0.100000)
G00 X0.7800 Y0.3400 
G01 Z-0.032000
G01 Z0.100000
(G00 Z0.100000)
G00 X0.7800 Y0.3400 
G01 Z-0.032000
G01 Z0.100000
(G00 Z0.100000)
G00 X0.7800 Y0.5400 
G01 Z-0.032000
G01 Z0.100000
(G00 Z0.100000)
G00 X0.7800 Y0.5400 
G01 Z-0.032000
G01 Z0.100000
(G00 Z0.100000)
G00 X0.7800 Y0.5400 
G01 Z-0.032000
G01 Z0.100000
(G00 Z0.100000)
G00 X0.7800 Y0.5400 
G01 Z-0.032000
G01 Z0.100000
(G00 Z0.100000)
G00 X0.9500 Y0.8100 
G01 Z-0.032000
G01 Z0.100000
(G00 Z0.100000)
G00 X0.9500 Y0.8100 
G01 Z-0.032000
G01 Z0.100000
(G00 Z0.100000)
G00 X0.9500 Y0.8100 
G01 Z-0.032000
G01 Z0.100000
(G00 Z0.100000)
G00 X0.9500 Y0.8100 
G01 Z-0.032000
G01 Z0.100000
(G00 Z0.100000)
G00 X0.9500 Y0.9100 
G01 Z-0.032000
G01 Z0.100000
(G00 Z0.100000)
G00 X0.9500 Y0.9100 
G01 Z-0.032000
G01 Z0.100000
(G00 Z0.100000)
G00 X0.9500 Y0.9100 
G01 Z-0.032000
G01 Z0.100000
(G00 Z0.100000)
G00 X0.9500 Y0.9100 
G01 Z-0.032000
G01 Z0.100000
(G00 Z0.100000)
G00 X0.9500 Y1.0100 
G01 Z-0.032000
G01 Z0.100000
(G00 Z0.100000)
G00 X0.9500 Y1.0100 
G01 Z-0.032000
G01 Z0.100000
(G00 Z0.100000)
G00 X0.9500 Y1.0100 
G01 Z-0.032000
G01 Z0.100000
(G00 Z0.100000)
G00 X0.9500 Y1.0100 
G01 Z-0.032000
G01 Z0.100000
(G00 Z0.100000)
G00 X0.9500 Y1.1100 
G01 Z-0.032000
G01 Z0.100000
(G00 Z0.100000)
G00 X0.9500 Y1.1100 
G01 Z-0.032000
G01 Z0.100000
(G00 Z0.100000)
G00 X0.9500 Y1.1100 
G01 Z-0.032000
G01 Z0.100000
(G00 Z0.100000)
G00 X0.9500 Y1.1100 
G01 Z-0.032000
G01 Z0.100000
(G00 Z0.100000)
G00 X0.9500 Y1.2100 
G01 Z-0.032000
G01 Z0.100000
(G00 Z0.100000)
G00 X0.9500 Y1.2100 
G01 Z-0.032000
G01 Z0.100000
(G00 Z0.100000)
G00 X0.9500 Y1.2100 
G01 Z-0.032000
G01 Z0.100000
(G00 Z0.100000)
G00 X0.9500 Y1.2100 
G01 Z-0.032000
G01 Z0.100000
(G00 Z0.100000)
G00 X0.9500 Y1.3100 
G01 Z-0.032000
G01 Z0.100000
(G00 Z0.100000)
G00 X0.9500 Y1.3100 
G01 Z-0.032000
G01 Z0.100000
(G00 Z0.100000)
G00 X0.9500 Y1.3100 
G01 Z-0.032000
G01 Z0.100000
(G00 Z0.100000)
G00 X0.9500 Y1.3100 
G01 Z-0.032000
G01 Z0.100000
(G00 Z0.100000)
G00 X0.9500 Y1.4100 
G01 Z-0.032000
G01 Z0.100000
(G00 Z0.100000)
G00 X0.9500 Y1.4100 
G01 Z-0.032000
G01 Z0.100000
(G00 Z0.100000)
G00 X0.9500 Y1.4100 
G01 Z-0.032000
G01 Z0.100000
(G00 Z0.100000)
G00 X0.9500 Y1.4100 
G01 Z-0.032000
G01 Z0.100000
(G00 Z0.100000)
G00 X1.2500 Y0.8100 
G01 Z-0.032000
G01 Z0.100000
(G00 Z0.100000)
G00 X1.2500 Y0.8100 
G01 Z-0.032000
G01 Z0.100000
(G00 Z0.100000)
G00 X1.2500 Y0.8100 
G01 Z-0.032000
G01 Z0.100000
(G00 Z0.100000)
G00 X1.2500 Y0.8100 
G01 Z-0.032000
G01 Z0.100000
(G00 Z0.100000)
G00 X1.2500 Y0.9100 
G01 Z-0.032000
G01 Z0.100000
(G00 Z0.100000)
G00 X1.2500 Y0.9100 
G01 Z-0.032000
G01 Z0.100000
(G00 Z0.100000)
G00 X1.2500 Y0.9100 
G01 Z-0.032000
G01 Z0.100000
(G00 Z0.100000)
G00 X1.2500 Y0.9100 
G01 Z-0.032000
G01 Z0.100000
(G00 Z0.100000)
G00 X1.2500 Y1.0100 
G01 Z-0.032000
G01 Z0.100000
(G00 Z0.100000)
G00 X1.2500 Y1.0100 
G01 Z-0.032000
G01 Z0.100000
(G00 Z0.100000)
G00 X1.2500 Y1.0100 
G01 Z-0.032000
G01 Z0.100000
(G00 Z0.100000)
G00 X1.2500 Y1.0100 
G01 Z-0.032000
G01 Z0.100000
(G00 Z0.100000)
G00 X1.2500 Y1.1100 
G01 Z-0.032000
G01 Z0.100000
(G00 Z0.100000)
G00 X1.2500 Y1.1100 
G01 Z-0.032000
G01 Z0.100000
(G00 Z0.100000)
G00 X1.2500 Y1.1100 
G01 Z-0.032000
G01 Z0.100000
(G00 Z0.100000)
G00 X1.2500 Y1.1100 
G01 Z-0.032000
G01 Z0.100000
(G00 Z0.100000)
G00 X1.2500 Y1.2100 
G01 Z-0.032000
G01 Z0.100000
(G00 Z0.100000)
G00 X1.2500 Y1.2100 
G01 Z-0.032000
G01 Z0.100000
(G00 Z0.100000)
G00 X1.2500 Y1.2100 
G01 Z-0.032000
G01 Z0.100000
(G00 Z0.100000)
G00 X1.2500 Y1.2100 
G01 Z-0.032000
G01 Z0.100000
(G00 Z0.100000)
G00 X1.2500 Y1.3100 
G01 Z-0.032000
G01 Z0.100000
(G00 Z0.100000)
G00 X1.2500 Y1.3100 
G01 Z-0.032000
G01 Z0.100000
(G00 Z0.100000)
G00 X1.2500 Y1.3100 
G01 Z-0.032000
G01 Z0.100000
(G00 Z0.100000)
G00 X1.2500 Y1.3100 
G01 Z-0.032000
G01 Z0.100000
(G00 Z0.100000)
G00 X1.2500 Y1.4100 
G01 Z-0.032000
G01 Z0.100000
(G00 Z0.100000)
G00 X1.2500 Y1.4100 
G01 Z-0.032000
G01 Z0.100000
(G00 Z0.100000)
G00 X1.2500 Y1.4100 
G01 Z-0.032000
G01 Z0.100000
(G00 Z0.100000)
G00 X1.2500 Y1.4100 
G01 Z-0.032000
G01 Z0.100000
(G00 Z0.100000)
G00 X1.3200 Y0.2000 
G01 Z-0.032000
G01 Z0.100000
(G00 Z0.100000)
G00 X1.3200 Y0.2000 
G01 Z-0.032000
G01 Z0.100000
(G00 Z0.100000)
G00 X1.3200 Y0.2000 
G01 Z-0.032000
G01 Z0.100000
(G00 Z0.100000)
G00 X1.3200 Y0.2000 
G01 Z-0.032000
G01 Z0.100000
(G00 Z0.100000)
G00 X1.3600 Y1.8600 
G01 Z-0.032000
G01 Z0.100000
(G00 Z0.100000)
G00 X1.3600 Y1.8600 
G01 Z-0.032000
G01 Z0.100000
(G00 Z0.100000)
G00 X1.3600 Y1.8600 
G01 Z-0.032000
G01 Z0.100000
(G00 Z0.100000)
G00 X1.3600 Y1.8600 
G01 Z-0.032000
G01 Z0.100000
(G00 Z0.100000)
G00 X1.4300 Y0.7100 
G01 Z-0.032000
G01 Z0.100000
(G00 Z0.100000)
G00 X1.4300 Y0.7100 
G01 Z-0.032000
G01 Z0.100000
(G00 Z0.100000)
G00 X1.4300 Y0.7100 
G01 Z-0.032000
G01 Z0.100000
(G00 Z0.100000)
G00 X1.4300 Y0.7100 
G01 Z-0.032000
G01 Z0.100000
(G00 Z0.100000)
G00 X1.4300 Y1.2100 
G01 Z-0.032000
G01 Z0.100000
(G00 Z0.100000)
G00 X1.4300 Y1.2100 
G01 Z-0.032000
G01 Z0.100000
(G00 Z0.100000)
G00 X1.4300 Y1.2100 
G01 Z-0.032000
G01 Z0.100000
(G00 Z0.100000)
G00 X1.4300 Y1.2100 
G01 Z-0.032000
G01 Z0.100000
(G00 Z0.100000)
G00 X1.5000 Y1.9100 
G01 Z-0.032000
G01 Z0.100000
(G00 Z0.100000)
G00 X1.5000 Y1.9100 
G01 Z-0.032000
G01 Z0.100000
(G00 Z0.100000)
G00 X1.5000 Y1.9100 
G01 Z-0.032000
G01 Z0.100000
(G00 Z0.100000)
G00 X1.5000 Y1.9100 
G01 Z-0.032000
G01 Z0.100000
(G00 Z0.100000)
G00 X1.5500 Y0.6600 
G01 Z-0.032000
G01 Z0.100000
(G00 Z0.100000)
G00 X1.5500 Y0.6600 
G01 Z-0.032000
G01 Z0.100000
(G00 Z0.100000)
G00 X1.5500 Y0.6600 
G01 Z-0.032000
G01 Z0.100000
(G00 Z0.100000)
G00 X1.5500 Y0.6600 
G01 Z-0.032000
G01 Z0.100000
(G00 Z0.100000)
G00 X1.7500 Y0.6600 
G01 Z-0.032000
G01 Z0.100000
(G00 Z0.100000)
G00 X1.7500 Y0.6600 
G01 Z-0.032000
G01 Z0.100000
(G00 Z0.100000)
G00 X1.7500 Y0.6600 
G01 Z-0.032000
G01 Z0.100000
(G00 Z0.100000)
G00 X1.7500 Y0.6600 
G01 Z-0.032000
G01 Z0.100000
(G00 Z0.100000)
G00 X1.7700 Y1.2000 
G01 Z-0.032000
G01 Z0.100000
(G00 Z0.100000)
G00 X1.7700 Y1.2000 
G01 Z-0.032000
G01 Z0.100000
(G00 Z0.100000)
G00 X1.7700 Y1.2000 
G01 Z-0.032000
G01 Z0.100000
(G00 Z0.100000)
G00 X1.7700 Y1.2000 
G01 Z-0.032000
G01 Z0.100000
(G00 Z0.100000)
G00 X1.7700 Y1.7000 
G01 Z-0.032000
G01 Z0.100000
(G00 Z0.100000)
G00 X1.7700 Y1.7000 
G01 Z-0.032000
G01 Z0.100000
(G00 Z0.100000)
G00 X1.7700 Y1.7000 
G01 Z-0.032000
G01 Z0.100000
(G00 Z0.100000)
G00 X1.7700 Y1.7000 
G01 Z-0.032000
G01 Z0.100000
(G00 Z0.100000)
G00 X1.8200 Y0.2000 
G01 Z-0.032000
G01 Z0.100000
(G00 Z0.100000)
G00 X1.8200 Y0.2000 
G01 Z-0.032000
G01 Z0.100000
(G00 Z0.100000)
G00 X1.8200 Y0.2000 
G01 Z-0.032000
G01 Z0.100000
(G00 Z0.100000)
G00 X1.8200 Y0.2000 
G01 Z-0.032000
G01 Z0.100000
(G00 Z0.100000)
G00 X1.9600 Y1.0100 
G01 Z-0.032000
G01 Z0.100000
(G00 Z0.100000)
G00 X1.9600 Y1.0100 
G01 Z-0.032000
G01 Z0.100000
(G00 Z0.100000)
G00 X1.9600 Y1.0100 
G01 Z-0.032000
G01 Z0.100000
(G00 Z0.100000)
G00 X1.9600 Y1.0100 
G01 Z-0.032000
G01 Z0.100000
(G00 Z0.100000)
G00 X1.9600 Y1.1100 
G01 Z-0.032000
G01 Z0.100000
(G00 Z0.100000)
G00 X1.9600 Y1.1100 
G01 Z-0.032000
G01 Z0.100000
(G00 Z0.100000)
G00 X1.9600 Y1.1100 
G01 Z-0.032000
G01 Z0.100000
(G00 Z0.100000)
G00 X1.9600 Y1.1100 
G01 Z-0.032000
G01 Z0.100000
(G00 Z0.100000)
G00 X1.9600 Y1.2100 
G01 Z-0.032000
G01 Z0.100000
(G00 Z0.100000)
G00 X1.9600 Y1.2100 
G01 Z-0.032000
G01 Z0.100000
(G00 Z0.100000)
G00 X1.9600 Y1.2100 
G01 Z-0.032000
G01 Z0.100000
(G00 Z0.100000)
G00 X1.9600 Y1.2100 
G01 Z-0.032000
G01 Z0.100000
(G00 Z0.100000)
G00 X1.9600 Y1.3100 
G01 Z-0.032000
G01 Z0.100000
(G00 Z0.100000)
G00 X1.9600 Y1.3100 
G01 Z-0.032000
G01 Z0.100000
(G00 Z0.100000)
G00 X1.9600 Y1.3100 
G01 Z-0.032000
G01 Z0.100000
(G00 Z0.100000)
G00 X1.9600 Y1.3100 
G01 Z-0.032000
G01 Z0.100000
(G00 Z0.100000)
G00 X2.0000 Y1.9100 
G01 Z-0.032000
G01 Z0.100000
(G00 Z0.100000)
G00 X2.0000 Y1.9100 
G01 Z-0.032000
G01 Z0.100000
(G00 Z0.100000)
G00 X2.0000 Y1.9100 
G01 Z-0.032000
G01 Z0.100000
(G00 Z0.100000)
G00 X2.0000 Y1.9100 
G01 Z-0.032000
G01 Z0.100000
(G00 Z0.100000)
G00 X2.1400 Y0.2600 
G01 Z-0.032000
G01 Z0.100000
(G00 Z0.100000)
G00 X2.1400 Y0.2600 
G01 Z-0.032000
G01 Z0.100000
(G00 Z0.100000)
G00 X2.1400 Y0.2600 
G01 Z-0.032000
G01 Z0.100000
(G00 Z0.100000)
G00 X2.1400 Y0.2600 
G01 Z-0.032000
G01 Z0.100000
(G00 Z0.100000)
G00 X2.2600 Y1.0100 
G01 Z-0.032000
G01 Z0.100000
(G00 Z0.100000)
G00 X2.2600 Y1.0100 
G01 Z-0.032000
G01 Z0.100000
(G00 Z0.100000)
G00 X2.2600 Y1.0100 
G01 Z-0.032000
G01 Z0.100000
(G00 Z0.100000)
G00 X2.2600 Y1.0100 
G01 Z-0.032000
G01 Z0.100000
(G00 Z0.100000)
G00 X2.2600 Y1.1100 
G01 Z-0.032000
G01 Z0.100000
(G00 Z0.100000)
G00 X2.2600 Y1.1100 
G01 Z-0.032000
G01 Z0.100000
(G00 Z0.100000)
G00 X2.2600 Y1.1100 
G01 Z-0.032000
G01 Z0.100000
(G00 Z0.100000)
G00 X2.2600 Y1.1100 
G01 Z-0.032000
G01 Z0.100000
(G00 Z0.100000)
G00 X2.2600 Y1.2100 
G01 Z-0.032000
G01 Z0.100000
(G00 Z0.100000)
G00 X2.2600 Y1.2100 
G01 Z-0.032000
G01 Z0.100000
(G00 Z0.100000)
G00 X2.2600 Y1.2100 
G01 Z-0.032000
G01 Z0.100000
(G00 Z0.100000)
G00 X2.2600 Y1.2100 
G01 Z-0.032000
G01 Z0.100000
(G00 Z0.100000)
G00 X2.2600 Y1.3100 
G01 Z-0.032000
G01 Z0.100000
(G00 Z0.100000)
G00 X2.2600 Y1.3100 
G01 Z-0.032000
G01 Z0.100000
(G00 Z0.100000)
G00 X2.2600 Y1.3100 
G01 Z-0.032000
G01 Z0.100000
(G00 Z0.100000)
G00 X2.2600 Y1.3100 
G01 Z-0.032000
G01 Z0.100000
(G00 Z0.100000)
G00 X2.3000 Y1.4400 
G01 Z-0.032000
G01 Z0.100000
(G00 Z0.100000)
G00 X2.3000 Y1.4400 
G01 Z-0.032000
G01 Z0.100000
(G00 Z0.100000)
G00 X2.3000 Y1.4400 
G01 Z-0.032000
G01 Z0.100000
(G00 Z0.100000)
G00 X2.3000 Y1.4400 
G01 Z-0.032000
G01 Z0.100000
(G00 Z0.100000)
G00 X2.3400 Y1.7400 
G01 Z-0.032000
G01 Z0.100000
(G00 Z0.100000)
G00 X2.3400 Y1.7400 
G01 Z-0.032000
G01 Z0.100000
(G00 Z0.100000)
G00 X2.3400 Y1.7400 
G01 Z-0.032000
G01 Z0.100000
(G00 Z0.100000)
G00 X2.3400 Y1.7400 
G01 Z-0.032000
G01 Z0.100000
(G00 Z0.100000)
G00 X2.3900 Y1.6650 
G01 Z-0.032000
G01 Z0.100000
(G00 Z0.100000)
G00 X2.3900 Y1.6650 
G01 Z-0.032000
G01 Z0.100000
(G00 Z0.100000)
G00 X2.3900 Y1.6650 
G01 Z-0.032000
G01 Z0.100000
(G00 Z0.100000)
G00 X2.3900 Y1.6650 
G01 Z-0.032000
G01 Z0.100000
(G00 Z0.100000)
G00 X2.4400 Y1.7400 
G01 Z-0.032000
G01 Z0.100000
(G00 Z0.100000)
G00 X2.4400 Y1.7400 
G01 Z-0.032000
G01 Z0.100000
(G00 Z0.100000)
G00 X2.4400 Y1.7400 
G01 Z-0.032000
G01 Z0.100000
(G00 Z0.100000)
G00 X2.4400 Y1.7400 
G01 Z-0.032000
G01 Z0.100000
(G00 Z0.100000)
G00 X2.6400 Y0.2600 
G01 Z-0.032000
G01 Z0.100000
(G00 Z0.100000)
G00 X2.6400 Y0.2600 
G01 Z-0.032000
G01 Z0.100000
(G00 Z0.100000)
G00 X2.6400 Y0.2600 
G01 Z-0.032000
G01 Z0.100000
(G00 Z0.100000)
G00 X2.6400 Y0.2600 
G01 Z-0.032000
G01 Z0.100000
(G00 Z0.100000)
G00 X2.6600 Y1.6100 
G01 Z-0.032000
G01 Z0.100000
(G00 Z0.100000)
G00 X2.6600 Y1.6100 
G01 Z-0.032000
G01 Z0.100000
(G00 Z0.100000)
G00 X2.6600 Y1.6100 
G01 Z-0.032000
G01 Z0.100000
(G00 Z0.100000)
G00 X2.6600 Y1.6100 
G01 Z-0.032000
G01 Z0.100000
(G00 Z0.100000)
G00 X2.6700 Y0.7500 
G01 Z-0.032000
G01 Z0.100000
(G00 Z0.100000)
G00 X2.6700 Y0.7500 
G01 Z-0.032000
G01 Z0.100000
(G00 Z0.100000)
G00 X2.6700 Y0.7500 
G01 Z-0.032000
G01 Z0.100000
(G00 Z0.100000)
G00 X2.6700 Y0.7500 
G01 Z-0.032000
G01 Z0.100000
(G00 Z0.100000)
G00 X2.6700 Y1.2500 
G01 Z-0.032000
G01 Z0.100000
(G00 Z0.100000)
G00 X2.6700 Y1.2500 
G01 Z-0.032000
G01 Z0.100000
(G00 Z0.100000)
G00 X2.6700 Y1.2500 
G01 Z-0.032000
G01 Z0.100000
(G00 Z0.100000)
G00 X2.6700 Y1.2500 
G01 Z-0.032000
G01 Z0.100000
(G00 Z0.100000)
G00 X2.6700 Y1.7200 
G01 Z-0.032000
G01 Z0.100000
(G00 Z0.100000)
G00 X2.6700 Y1.7200 
G01 Z-0.032000
G01 Z0.100000
(G00 Z0.100000)
G00 X2.6700 Y1.7200 
G01 Z-0.032000
G01 Z0.100000
(G00 Z0.100000)
G00 X2.6700 Y1.7200 
G01 Z-0.032000
G01 Z0.100000
(G00 Z0.100000)
G00 X2.6700 Y1.8200 
G01 Z-0.032000
G01 Z0.100000
(G00 Z0.100000)
G00 X2.6700 Y1.8200 
G01 Z-0.032000
G01 Z0.100000
(G00 Z0.100000)
G00 X2.6700 Y1.8200 
G01 Z-0.032000
G01 Z0.100000
(G00 Z0.100000)
G00 X2.6700 Y1.8200 
G01 Z-0.032000
G01 Z0.100000
(G00 Z0.100000)
G00 X2.9000 Y1.4400 
G01 Z-0.032000
G01 Z0.100000
(G00 Z0.100000)
G00 X2.9000 Y1.4400 
G01 Z-0.032000
G01 Z0.100000
(G00 Z0.100000)
G00 X2.9000 Y1.4400 
G01 Z-0.032000
G01 Z0.100000
(G00 Z0.100000)
G00 X2.9000 Y1.4400 
G01 Z-0.032000
G01 Z0.100000
(G00 Z0.100000)
G00 X2.9500 Y1.1300 
G01 Z-0.032000
G01 Z0.100000
(G00 Z0.100000)
G00 X2.9500 Y1.1300 
G01 Z-0.032000
G01 Z0.100000
(G00 Z0.100000)
G00 X2.9500 Y1.1300 
G01 Z-0.032000
G01 Z0.100000
(G00 Z0.100000)
G00 X2.9500 Y1.1300 
G01 Z-0.032000
G01 Z0.100000
(G00 Z0.100000)
G00 X2.9500 Y1.3300 
G01 Z-0.032000
G01 Z0.100000
(G00 Z0.100000)
G00 X2.9500 Y1.3300 
G01 Z-0.032000
G01 Z0.100000
(G00 Z0.100000)
G00 X2.9500 Y1.3300 
G01 Z-0.032000
G01 Z0.100000
(G00 Z0.100000)
G00 X2.9500 Y1.3300 
G01 Z-0.032000
G01 Z0.100000
(G00 Z0.100000)
G00 X3.1600 Y1.6100 
G01 Z-0.032000
G01 Z0.100000
(G00 Z0.100000)
G00 X3.1600 Y1.6100 
G01 Z-0.032000
G01 Z0.100000
(G00 Z0.100000)
G00 X3.1600 Y1.6100 
G01 Z-0.032000
G01 Z0.100000
(G00 Z0.100000)
G00 X3.1600 Y1.6100 
G01 Z-0.032000
G01 Z0.100000
M05
G00 Z0.0000 
G00 X0.0000 Y0.0000 
M06 T03  ; 0.0400 
G00 Z0.1000 
M03
G04 P3.000000
M03
G04 P3.000000
G00 Z0.100000
G00 X1.4200 Y0.3400 
G01 Z-0.0320 F10.00 
G01 Z0.100000
(R0.1000  P1.000000)
G00 Z0.100000
G00 X1.4200 Y0.3400 
G01 Z-0.0320 F10.00 
G01 Z0.100000
(R0.1000  P1.000000)
G00 Z0.100000
G00 X1.4200 Y0.3400 
G01 Z-0.0320 F10.00 
G01 Z0.100000
(R0.1000  P1.000000)
G00 Z0.100000
G00 X1.4200 Y0.3400 
G01 Z-0.0320 F10.00 
G01 Z0.100000
(R0.1000  P1.000000)
G00 Z0.100000
G00 X1.4200 Y0.3400 
G01 Z-0.0320 F10.00 
G01 Z0.100000
(R0.1000  P1.000000)
(G00 Z0.100000)
G00 X1.4200 Y0.5000 
G01 Z-0.032000
G01 Z0.100000
(G00 Z0.100000)
G00 X1.4200 Y0.5000 
G01 Z-0.032000
G01 Z0.100000
(G00 Z0.100000)
G00 X1.4200 Y0.5000 
G01 Z-0.032000
G01 Z0.100000
(G00 Z0.100000)
G00 X1.4200 Y0.5000 
G01 Z-0.032000
G01 Z0.100000
(G00 Z0.100000)
G00 X1.5000 Y1.3100 
G01 Z-0.032000
G01 Z0.100000
(G00 Z0.100000)
G00 X1.5000 Y1.3100 
G01 Z-0.032000
G01 Z0.100000
(G00 Z0.100000)
G00 X1.5000 Y1.3100 
G01 Z-0.032000
G01 Z0.100000
(G00 Z0.100000)
G00 X1.5000 Y1.3100 
G01 Z-0.032000
G01 Z0.100000
(G00 Z0.100000)
G00 X1.5000 Y1.7100 
G01 Z-0.032000
G01 Z0.100000
(G00 Z0.100000)
G00 X1.5000 Y1.7100 
G01 Z-0.032000
G01 Z0.100000
(G00 Z0.100000)
G00 X1.5000 Y1.7100 
G01 Z-0.032000
G01 Z0.100000
(G00 Z0.100000)
G00 X1.5000 Y1.7100 
G01 Z-0.032000
G01 Z0.100000
(G00 Z0.100000)
G00 X1.8200 Y0.3400 
G01 Z-0.032000
G01 Z0.100000
(G00 Z0.100000)
G00 X1.8200 Y0.3400 
G01 Z-0.032000
G01 Z0.100000
(G00 Z0.100000)
G00 X1.8200 Y0.3400 
G01 Z-0.032000
G01 Z0.100000
(G00 Z0.100000)
G00 X1.8200 Y0.3400 
G01 Z-0.032000
G01 Z0.100000
(G00 Z0.100000)
G00 X1.8200 Y0.5000 
G01 Z-0.032000
G01 Z0.100000
(G00 Z0.100000)
G00 X1.8200 Y0.5000 
G01 Z-0.032000
G01 Z0.100000
(G00 Z0.100000)
G00 X1.8200 Y0.5000 
G01 Z-0.032000
G01 Z0.100000
(G00 Z0.100000)
G00 X1.8200 Y0.5000 
G01 Z-0.032000
G01 Z0.100000
(G00 Z0.100000)
G00 X2.0100 Y0.2600 
G01 Z-0.032000
G01 Z0.100000
(G00 Z0.100000)
G00 X2.0100 Y0.2600 
G01 Z-0.032000
G01 Z0.100000
(G00 Z0.100000)
G00 X2.0100 Y0.2600 
G01 Z-0.032000
G01 Z0.100000
(G00 Z0.100000)
G00 X2.0100 Y0.2600 
G01 Z-0.032000
G01 Z0.100000
(G00 Z0.100000)
G00 X2.0100 Y0.6600 
G01 Z-0.032000
G01 Z0.100000
(G00 Z0.100000)
G00 X2.0100 Y0.6600 
G01 Z-0.032000
G01 Z0.100000
(G00 Z0.100000)
G00 X2.0100 Y0.6600 
G01 Z-0.032000
G01 Z0.100000
(G00 Z0.100000)
G00 X2.0100 Y0.6600 
G01 Z-0.032000
G01 Z0.100000
M05
G00 Z0.0000 
G00 X0.0000 Y0.0000 
M06 T04  ; 0.0500 
G00 Z0.1000 
M03
G04 P3.000000
M03
G04 P3.000000
G00 Z0.100000
G00 X0.2000 Y0.7116 
G01 Z-0.0320 F10.00 
G01 Z0.100000
(R0.1000  P1.000000)
G00 Z0.100000
G00 X0.2000 Y0.7116 
G01 Z-0.0320 F10.00 
G01 Z0.100000
(R0.1000  P1.000000)
G00 Z0.100000
G00 X0.2000 Y0.7116 
G01 Z-0.0320 F10.00 
G01 Z0.100000
(R0.1000  P1.000000)
G00 Z0.100000
G00 X0.2000 Y0.7116 
G01 Z-0.0320 F10.00 
G01 Z0.100000
(R0.1000  P1.000000)
G00 Z0.100000
G00 X0.2000 Y0.7116 
G01 Z-0.0320 F10.00 
G01 Z0.100000
(R0.1000  P1.000000)
(G00 Z0.100000)
G00 X0.2000 Y0.9084 
G01 Z-0.032000
G01 Z0.100000
(G00 Z0.100000)
G00 X0.2000 Y0.9084 
G01 Z-0.032000
G01 Z0.100000
(G00 Z0.100000)
G00 X0.2000 Y0.9084 
G01 Z-0.032000
G01 Z0.100000
(G00 Z0.100000)
G00 X0.2000 Y0.9084 
G01 Z-0.032000
G01 Z0.100000
(G00 Z0.100000)
G00 X0.2000 Y1.1116 
G01 Z-0.032000
G01 Z0.100000
(G00 Z0.100000)
G00 X0.2000 Y1.1116 
G01 Z-0.032000
G01 Z0.100000
(G00 Z0.100000)
G00 X0.2000 Y1.1116 
G01 Z-0.032000
G01 Z0.100000
(G00 Z0.100000)
G00 X0.2000 Y1.1116 
G01 Z-0.032000
G01 Z0.100000
(G00 Z0.100000)
G00 X0.2000 Y1.3084 
G01 Z-0.032000
G01 Z0.100000
(G00 Z0.100000)
G00 X0.2000 Y1.3084 
G01 Z-0.032000
G01 Z0.100000
(G00 Z0.100000)
G00 X0.2000 Y1.3084 
G01 Z-0.032000
G01 Z0.100000
(G00 Z0.100000)
G00 X0.2000 Y1.3084 
G01 Z-0.032000
G01 Z0.100000
(G00 Z0.100000)
G00 X0.2000 Y1.5916 
G01 Z-0.032000
G01 Z0.100000
(G00 Z0.100000)
G00 X0.2000 Y1.5916 
G01 Z-0.032000
G01 Z0.100000
(G00 Z0.100000)
G00 X0.2000 Y1.5916 
G01 Z-0.032000
G01 Z0.100000
(G00 Z0.100000)
G00 X0.2000 Y1.5916 
G01 Z-0.032000
G01 Z0.100000
(G00 Z0.100000)
G00 X0.2000 Y1.7884 
G01 Z-0.032000
G01 Z0.100000
(G00 Z0.100000)
G00 X0.2000 Y1.7884 
G01 Z-0.032000
G01 Z0.100000
(G00 Z0.100000)
G00 X0.2000 Y1.7884 
G01 Z-0.032000
G01 Z0.100000
(G00 Z0.100000)
G00 X0.2000 Y1.7884 
G01 Z-0.032000
G01 Z0.100000
(G00 Z0.100000)
G00 X2.9200 Y0.5516 
G01 Z-0.032000
G01 Z0.100000
(G00 Z0.100000)
G00 X2.9200 Y0.5516 
G01 Z-0.032000
G01 Z0.100000
(G00 Z0.100000)
G00 X2.9200 Y0.5516 
G01 Z-0.032000
G01 Z0.100000
(G00 Z0.100000)
G00 X2.9200 Y0.5516 
G01 Z-0.032000
G01 Z0.100000
(G00 Z0.100000)
G00 X2.9200 Y0.7484 
G01 Z-0.032000
G01 Z0.100000
(G00 Z0.100000)
G00 X2.9200 Y0.7484 
G01 Z-0.032000
G01 Z0.100000
(G00 Z0.100000)
G00 X2.9200 Y0.7484 
G01 Z-0.032000
G01 Z0.100000
(G00 Z0.100000)
G00 X2.9200 Y0.7484 
G01 Z-0.032000
G01 Z0.100000
M05
G00 Z0.0000 
G00 X0.0000 Y0.0000 
M06 T06  ; 0.1250 
G00 Z0.1000 
M03
G04 P3.000000
M03
G04 P3.000000
G00 Z0.100000
G00 X0.2200 Y0.1800 
G01 Z-0.0320 F10.00 
G01 Z0.100000
(R0.1000  P1.000000)
G00 Z0.100000
G00 X0.2200 Y0.1800 
G01 Z-0.0320 F10.00 
G01 Z0.100000
(R0.1000  P1.000000)
G00 Z0.100000
G00 X0.2200 Y0.1800 
G01 Z-0.0320 F10.00 
G01 Z0.100000
(R0.1000  P1.000000)
G00 Z0.100000
G00 X0.2200 Y0.1800 
G01 Z-0.0320 F10.00 
G01 Z0.100000
(R0.1000  P1.000000)
G00 Z0.100000
G00 X0.2200 Y0.1800 
G01 Z-0.0320 F10.00 
G01 Z0.100000
(R0.1000  P1.000000)
(G00 Z0.100000)
G00 X0.2300 Y2.0300 
G01 Z-0.032000
G01 Z0.100000
(G00 Z0.100000)
G00 X0.2300 Y2.0300 
G01 Z-0.032000
G01 Z0.100000
(G00 Z0.100000)
G00 X0.2300 Y2.0300 
G01 Z-0.032000
G01 Z0.100000
(G00 Z0.100000)
G00 X0.2300 Y2.0300 
G01 Z-0.032000
G01 Z0.100000
(G00 Z0.100000)
G00 X3.0700 Y0.1900 
G01 Z-0.032000
G01 Z0.100000
(G00 Z0.100000)
G00 X3.0700 Y0.1900 
G01 Z-0.032000
G01 Z0.100000
(G00 Z0.100000)
G00 X3.0700 Y0.1900 
G01 Z-0.032000
G01 Z0.100000
(G00 Z0.100000)
G00 X3.0700 Y0.1900 
G01 Z-0.032000
G01 Z0.100000
(G00 Z0.100000)
G00 X3.0700 Y2.0100 
G01 Z-0.032000
G01 Z0.100000
(G00 Z0.100000)
G00 X3.0700 Y2.0100 
G01 Z-0.032000
G01 Z0.100000
(G00 Z0.100000)
G00 X3.0700 Y2.0100 
G01 Z-0.032000
G01 Z0.100000
(G00 Z0.100000)
G00 X3.0700 Y2.0100 
G01 Z-0.032000
G01 Z0.100000
T01 
G00 Z0.5000 
M05
M02
