(.../src/pcbgcode-work/pcb-gcode.ulp)
(Copyright 2005 - 2009 by John Johnson)
(See readme.txt for licensing terms.)
(This file generated from the board:)
(.../pcbgcode-work/docs/examples/enabtmr.brd)
(Current profile is .../pcbgcode-work/profiles/mach.pp  )
(This file generated 12/16/12 5:50 PM)
(Settings from pcb-machine.h)
(  Tool Size)
(0.0050  )
(Z Axis Settings)
(  High     Up        Down     Drill)
(0.5000  	0.1000  	-0.0070 	-0.0320 )
(spindle on time = 3.0000)
(milling depth = -0.0100)
(text depth = -0.0050)
(tool change at 0.5000  0.6000  1.0000  )
(feed rate xy = F20    )
(feed rate z  = F10    )
(Settings from pcb-defaults.h)
(isolate min = 0.0010)
(isolate max = 0.0200)
(isolate step = 0.0030)
(Generated bottom outlines, bottom drill, )
(Unit of measure: inch)
(Inch Mode)
G20
(Absolute Coordinates)
G90
G00 X0.0000  Y0.0000  
M03
G04 P3.000000
G00 Z0.1000  
G00 X-0.4315 Y0.2844  
G01 Z-0.0070 F10    
G01 X-0.4315 Y0.2844  F20    
G01 X-0.4435 Y0.2555  
G01 X-0.4655 Y0.2335  
G01 X-0.4944 Y0.2215  
G01 X-0.5043 Y0.2215  
G01 X-0.5100 Y0.2215  
G01 X-0.5157 Y0.2215  
G01 X-1.0400 Y0.2215  
G01 X-1.0442 Y0.2211  
G01 X-1.0519 Y0.2179  
G01 X-1.0579 Y0.2119  
G01 X-1.0611 Y0.2042  
G01 X-1.0615 Y0.2000  
G01 X-1.0615 Y0.1970  
G01 X-1.0615 Y0.1943  
G01 X-1.0615 Y0.1443  
G01 X-1.0615 Y0.1344  
G01 X-1.0735 Y0.1055  
G01 X-1.0955 Y0.0835  
G01 X-1.1244 Y0.0715  
G01 X-1.1343 Y0.0715  
G01 X-1.6057 Y0.0715  
G01 X-1.6156 Y0.0715  
G01 X-1.6445 Y0.0835  
G01 X-1.6665 Y0.1055  
G01 X-1.6785 Y0.1344  
G01 X-1.6785 Y0.1443  
G01 X-1.6785 Y0.1509  
G01 X-1.6785 Y0.1557  
G01 X-1.6785 Y0.8657  
G01 X-1.6785 Y0.8756  
G01 X-1.6665 Y0.9045  
G01 X-1.6445 Y0.9265  
G01 X-1.6156 Y0.9385  
G01 X-1.6057 Y0.9385  
G01 X-1.6000 Y0.9385  
G01 X-1.5943 Y0.9385  
G01 X-1.3372 Y0.9385  
G01 X-1.3305 Y0.9452  
G01 X-1.3153 Y0.9515  
G01 X-1.1847 Y0.9515  
G01 X-1.1695 Y0.9452  
G01 X-1.1578 Y0.9335  
G01 X-1.1515 Y0.9183  
G01 X-1.1515 Y0.9017  
G01 X-1.1578 Y0.8865  
G01 X-1.1695 Y0.8748  
G01 X-1.1847 Y0.8685  
G01 X-1.3153 Y0.8685  
G01 X-1.3305 Y0.8748  
G01 X-1.3372 Y0.8815  
G01 X-1.5943 Y0.8815  
G01 X-1.6000 Y0.8815  
G01 X-1.6042 Y0.8811  
G01 X-1.6119 Y0.8779  
G01 X-1.6179 Y0.8719  
G01 X-1.6211 Y0.8642  
G01 X-1.6215 Y0.8600  
G01 X-1.6215 Y0.1557  
G01 X-1.6215 Y0.1508  
G01 X-1.6215 Y0.1500  
G01 X-1.6211 Y0.1458  
G01 X-1.6179 Y0.1381  
G01 X-1.6119 Y0.1321  
G01 X-1.6042 Y0.1289  
G01 X-1.6000 Y0.1285  
G01 X-1.1400 Y0.1285  
G01 X-1.1358 Y0.1289  
G01 X-1.1281 Y0.1321  
G01 X-1.1221 Y0.1381  
G01 X-1.1189 Y0.1458  
G01 X-1.1185 Y0.1500  
G01 X-1.1185 Y0.1943  
G01 X-1.1185 Y0.1970  
G01 X-1.1185 Y0.2057  
G01 X-1.1185 Y0.2156  
G01 X-1.1065 Y0.2445  
G01 X-1.0845 Y0.2665  
G01 X-1.0556 Y0.2785  
G01 X-1.0457 Y0.2785  
G01 X-0.5157 Y0.2785  
G01 X-0.5100 Y0.2785  
G01 X-0.5058 Y0.2789  
G01 X-0.4981 Y0.2821  
G01 X-0.4921 Y0.2881  
G01 X-0.4889 Y0.2958  
G01 X-0.4885 Y0.3000  
G01 X-0.4885 Y0.6543  
G01 X-0.4885 Y0.6553  
G01 X-0.4885 Y0.6657  
G01 X-0.4885 Y0.6756  
G01 X-0.4765 Y0.7045  
G01 X-0.4545 Y0.7265  
G01 X-0.4256 Y0.7385  
G01 X-0.4157 Y0.7385  
G01 X-0.4131 Y0.7385  
G01 X-0.4100 Y0.7385  
G01 X-0.4043 Y0.7385  
G01 X-0.3101 Y0.7385  
G01 X-0.3098 Y0.7393  
G01 X-0.2960 Y0.7531  
G01 X-0.2780 Y0.7606  
G01 X-0.1220 Y0.7606  
G01 X-0.1040 Y0.7531  
G01 X-0.0902 Y0.7393  
G01 X-0.0828 Y0.7213  
G01 X-0.0828 Y0.7018  
G01 X-0.0902 Y0.6838  
G01 X-0.1040 Y0.6700  
G01 X-0.1220 Y0.6626  
G01 X-0.2780 Y0.6626  
G01 X-0.2960 Y0.6700  
G01 X-0.3075 Y0.6815  
G01 X-0.4043 Y0.6815  
G01 X-0.4100 Y0.6815  
G01 X-0.4142 Y0.6811  
G01 X-0.4219 Y0.6779  
G01 X-0.4279 Y0.6719  
G01 X-0.4311 Y0.6642  
G01 X-0.4315 Y0.6600  
G01 X-0.4315 Y0.6553  
G01 X-0.4315 Y0.6543  
G01 X-0.4315 Y0.2943  
G01 X-0.4315 Y0.2844  
G00 Z0.1000  
G00 X-0.4036 Y0.8815  
G01 Z-0.0070 F10    
G01 X-0.4036 Y0.8815  F20    
G01 X-0.4288 Y0.8919  
G01 X-0.4481 Y0.9112  
G01 X-0.4585 Y0.9364  
G01 X-0.4585 Y0.9443  
G01 X-0.4585 Y0.9497  
G01 X-0.4585 Y0.9500  
G01 X-0.4585 Y0.9557  
G01 X-0.4585 Y0.9600  
G01 X-0.4589 Y0.9642  
G01 X-0.4621 Y0.9719  
G01 X-0.4681 Y0.9779  
G01 X-0.4758 Y0.9811  
G01 X-0.4800 Y0.9815  
G01 X-0.4857 Y0.9815  
G01 X-0.8628 Y0.9815  
G01 X-0.8695 Y0.9748  
G01 X-0.8847 Y0.9685  
G01 X-1.0153 Y0.9685  
G01 X-1.0305 Y0.9748  
G01 X-1.0422 Y0.9865  
G01 X-1.0485 Y1.0017  
G01 X-1.0485 Y1.0183  
G01 X-1.0422 Y1.0335  
G01 X-1.0305 Y1.0452  
G01 X-1.0153 Y1.0515  
G01 X-0.8847 Y1.0515  
G01 X-0.8695 Y1.0452  
G01 X-0.8628 Y1.0385  
G01 X-0.4857 Y1.0385  
G01 X-0.4800 Y1.0385  
G01 X-0.4798 Y1.0385  
G01 X-0.4743 Y1.0385  
G01 X-0.4644 Y1.0385  
G01 X-0.4355 Y1.0265  
G01 X-0.4135 Y1.0045  
G01 X-0.4015 Y0.9756  
G01 X-0.4015 Y0.9657  
G01 X-0.4015 Y0.9557  
G01 X-0.4015 Y0.9500  
G01 X-0.4013 Y0.9478  
G01 X-0.3996 Y0.9436  
G01 X-0.3964 Y0.9404  
G01 X-0.3922 Y0.9387  
G01 X-0.3900 Y0.9385  
G01 X-0.3075 Y0.9385  
G01 X-0.2960 Y0.9500  
G01 X-0.2780 Y0.9574  
G01 X-0.1220 Y0.9574  
G01 X-0.1040 Y0.9500  
G01 X-0.0902 Y0.9362  
G01 X-0.0828 Y0.9182  
G01 X-0.0828 Y0.8987  
G01 X-0.0902 Y0.8807  
G01 X-0.1040 Y0.8669  
G01 X-0.1220 Y0.8594  
G01 X-0.2780 Y0.8594  
G01 X-0.2960 Y0.8669  
G01 X-0.3098 Y0.8807  
G01 X-0.3101 Y0.8815  
G01 X-0.3957 Y0.8815  
G01 X-0.4036 Y0.8815  
G00 Z0.1000  
G00 X-0.4457 Y1.2385  
G01 Z-0.0070 F10    
G01 X-0.4400 Y1.2385  F20    
G01 X-0.4369 Y1.2385  
G01 X-0.4343 Y1.2385  
G01 X-0.4264 Y1.2385  
G01 X-0.4012 Y1.2281  
G01 X-0.3819 Y1.2088  
G01 X-0.3715 Y1.1836  
G01 X-0.3715 Y1.1757  
G01 X-0.3715 Y1.1690  
G01 X-0.3715 Y1.1643  
G01 X-0.3715 Y1.1616  
G01 X-0.3711 Y1.1574  
G01 X-0.3679 Y1.1496  
G01 X-0.3619 Y1.1437  
G01 X-0.3542 Y1.1405  
G01 X-0.3500 Y1.1401  
G01 X-0.3454 Y1.1401  
G01 X-0.3443 Y1.1401  
G01 X-0.3090 Y1.1401  
G01 X-0.2960 Y1.1531  
G01 X-0.2780 Y1.1606  
G01 X-0.1220 Y1.1606  
G01 X-0.1040 Y1.1531  
G01 X-0.0902 Y1.1393  
G01 X-0.0828 Y1.1213  
G01 X-0.0828 Y1.1018  
G01 X-0.0902 Y1.0838  
G01 X-0.1040 Y1.0700  
G01 X-0.1220 Y1.0626  
G01 X-0.2780 Y1.0626  
G01 X-0.2960 Y1.0700  
G01 X-0.3090 Y1.0831  
G01 X-0.3443 Y1.0831  
G01 X-0.3454 Y1.0831  
G01 X-0.3557 Y1.0831  
G01 X-0.3656 Y1.0831  
G01 X-0.3945 Y1.0950  
G01 X-0.4165 Y1.1171  
G01 X-0.4285 Y1.1460  
G01 X-0.4285 Y1.1559  
G01 X-0.4285 Y1.1643  
G01 X-0.4285 Y1.1690  
G01 X-0.4285 Y1.1700  
G01 X-0.4287 Y1.1722  
G01 X-0.4304 Y1.1764  
G01 X-0.4336 Y1.1796  
G01 X-0.4378 Y1.1813  
G01 X-0.4400 Y1.1815  
G01 X-0.4457 Y1.1815  
G01 X-0.8628 Y1.1815  
G01 X-0.8695 Y1.1748  
G01 X-0.8847 Y1.1685  
G01 X-1.0153 Y1.1685  
G01 X-1.0305 Y1.1748  
G01 X-1.0422 Y1.1865  
G01 X-1.0485 Y1.2017  
G01 X-1.0485 Y1.2183  
G01 X-1.0422 Y1.2335  
G01 X-1.0305 Y1.2452  
G01 X-1.0153 Y1.2515  
G01 X-0.8847 Y1.2515  
G01 X-0.8695 Y1.2452  
G01 X-0.8628 Y1.2385  
G01 X-0.4457 Y1.2385  
G00 Z0.1000  
G00 X-0.5744 Y1.4385  
G01 Z-0.0070 F10    
G01 X-0.5744 Y1.4385  F20    
G01 X-0.5455 Y1.4265  
G01 X-0.5235 Y1.4045  
G01 X-0.5115 Y1.3756  
G01 X-0.5115 Y1.3657  
G01 X-0.5115 Y1.3602  
G01 X-0.5115 Y1.3600  
G01 X-0.5115 Y1.3584  
G01 X-0.5111 Y1.3542  
G01 X-0.5079 Y1.3465  
G01 X-0.5019 Y1.3405  
G01 X-0.4942 Y1.3373  
G01 X-0.4900 Y1.3369  
G01 X-0.4892 Y1.3369  
G01 X-0.4843 Y1.3369  
G01 X-0.3090 Y1.3369  
G01 X-0.2960 Y1.3500  
G01 X-0.2780 Y1.3574  
G01 X-0.1220 Y1.3574  
G01 X-0.1040 Y1.3500  
G01 X-0.0902 Y1.3362  
G01 X-0.0828 Y1.3182  
G01 X-0.0828 Y1.2987  
G01 X-0.0902 Y1.2807  
G01 X-0.1040 Y1.2669  
G01 X-0.1220 Y1.2594  
G01 X-0.2780 Y1.2594  
G01 X-0.2960 Y1.2669  
G01 X-0.3090 Y1.2799  
G01 X-0.4843 Y1.2799  
G01 X-0.4892 Y1.2799  
G01 X-0.4900 Y1.2799  
G01 X-0.4957 Y1.2799  
G01 X-0.5056 Y1.2799  
G01 X-0.5345 Y1.2919  
G01 X-0.5565 Y1.3140  
G01 X-0.5685 Y1.3428  
G01 X-0.5685 Y1.3527  
G01 X-0.5685 Y1.3543  
G01 X-0.5685 Y1.3600  
G01 X-0.5689 Y1.3642  
G01 X-0.5721 Y1.3719  
G01 X-0.5781 Y1.3779  
G01 X-0.5858 Y1.3811  
G01 X-0.5900 Y1.3815  
G01 X-0.8628 Y1.3815  
G01 X-0.8695 Y1.3748  
G01 X-0.8847 Y1.3685  
G01 X-1.0153 Y1.3685  
G01 X-1.0305 Y1.3748  
G01 X-1.0422 Y1.3865  
G01 X-1.0485 Y1.4017  
G01 X-1.0485 Y1.4183  
G01 X-1.0422 Y1.4335  
G01 X-1.0305 Y1.4452  
G01 X-1.0153 Y1.4515  
G01 X-0.8847 Y1.4515  
G01 X-0.8695 Y1.4452  
G01 X-0.8628 Y1.4385  
G01 X-0.5843 Y1.4385  
G01 X-0.5744 Y1.4385  
G00 Z0.1000  
G00 X-2.5553 Y0.4412  
G01 Z-0.0070 F10    
G01 X-2.5553 Y0.4788  F20    
G01 X-2.5288 Y0.5053  
G01 X-2.4912 Y0.5053  
G01 X-2.4647 Y0.4788  
G01 X-2.4647 Y0.4412  
G01 X-2.4715 Y0.4344  
G01 X-2.4715 Y0.2677  
G01 X-2.4715 Y0.1900  
G01 X-2.4714 Y0.1882  
G01 X-2.4702 Y0.1848  
G01 X-2.4681 Y0.1819  
G01 X-2.4652 Y0.1797  
G01 X-2.4618 Y0.1786  
G01 X-2.4600 Y0.1785  
G01 X-2.4533 Y0.1785  
G01 X-2.4523 Y0.1785  
G01 X-1.8700 Y0.1785  
G01 X-1.8682 Y0.1786  
G01 X-1.8648 Y0.1797  
G01 X-1.8619 Y0.1819  
G01 X-1.8613 Y0.1826  
G01 X-1.8615 Y0.1828  
G01 X-1.8615 Y0.2172  
G01 X-1.8372 Y0.2415  
G01 X-1.8028 Y0.2415  
G01 X-1.7785 Y0.2172  
G01 X-1.7785 Y0.1828  
G01 X-1.7815 Y0.1798  
G01 X-1.7815 Y0.1760  
G01 X-1.7902 Y0.1493  
G01 X-1.8066 Y0.1266  
G01 X-1.8293 Y0.1102  
G01 X-1.8560 Y0.1015  
G01 X-1.8623 Y0.1015  
G01 X-2.4523 Y0.1015  
G01 X-2.4533 Y0.1015  
G01 X-2.4677 Y0.1015  
G01 X-2.4740 Y0.1015  
G01 X-2.5007 Y0.1102  
G01 X-2.5234 Y0.1266  
G01 X-2.5398 Y0.1493  
G01 X-2.5485 Y0.1760  
G01 X-2.5485 Y0.1823  
G01 X-2.5485 Y0.2315  
G01 X-2.6098 Y0.2315  
G01 X-2.6228 Y0.2185  
G01 X-2.6572 Y0.2185  
G01 X-2.6815 Y0.2428  
G01 X-2.6815 Y0.2772  
G01 X-2.6572 Y0.3015  
G01 X-2.6228 Y0.3015  
G01 X-2.6098 Y0.2885  
G01 X-2.5485 Y0.2885  
G01 X-2.5485 Y0.4344  
G01 X-2.5553 Y0.4412  
G00 Z0.1000  
G00 X-1.9315 Y1.4356  
G01 Z-0.0070 F10    
G01 X-1.9315 Y1.4356  F20    
G01 X-1.9315 Y1.4257  
G01 X-1.9315 Y1.3515  
G01 X-1.8947 Y1.3515  
G01 X-1.8795 Y1.3452  
G01 X-1.8678 Y1.3335  
G01 X-1.8615 Y1.3183  
G01 X-1.8615 Y1.3017  
G01 X-1.8678 Y1.2865  
G01 X-1.8795 Y1.2748  
G01 X-1.8947 Y1.2685  
G01 X-2.0253 Y1.2685  
G01 X-2.0405 Y1.2748  
G01 X-2.0522 Y1.2865  
G01 X-2.0585 Y1.3017  
G01 X-2.0585 Y1.3183  
G01 X-2.0522 Y1.3335  
G01 X-2.0405 Y1.3452  
G01 X-2.0253 Y1.3515  
G01 X-1.9885 Y1.3515  
G01 X-1.9885 Y1.4200  
G01 X-1.9889 Y1.4242  
G01 X-1.9894 Y1.4253  
G01 X-2.0047 Y1.4406  
G01 X-2.0058 Y1.4411  
G01 X-2.0100 Y1.4415  
G01 X-2.1744 Y1.4415  
G01 X-2.1912 Y1.4247  
G01 X-2.2288 Y1.4247  
G01 X-2.2355 Y1.4314  
G01 X-2.2540 Y1.4253  
G01 X-2.2540 Y1.4209  
G01 X-2.2809 Y1.3940  
G01 X-2.3191 Y1.3940  
G01 X-2.3460 Y1.4209  
G01 X-2.3460 Y1.4591  
G01 X-2.3191 Y1.4860  
G01 X-2.2809 Y1.4860  
G01 X-2.2737 Y1.4788  
G01 X-2.2553 Y1.4849  
G01 X-2.2553 Y1.4888  
G01 X-2.2288 Y1.5153  
G01 X-2.1912 Y1.5153  
G01 X-2.1744 Y1.4985  
G01 X-2.0056 Y1.4985  
G01 X-1.9888 Y1.5153  
G01 X-1.9512 Y1.5153  
G01 X-1.9247 Y1.4888  
G01 X-1.9247 Y1.4512  
G01 X-1.9341 Y1.4418  
G01 X-1.9315 Y1.4356  
G00 Z0.1000  
G00 X-1.3615 Y0.1828  
G01 Z-0.0070 F10    
G01 X-1.3615 Y0.2172  F20    
G01 X-1.3385 Y0.2402  
G01 X-1.3385 Y0.3115  
G01 X-1.3813 Y0.3115  
G01 X-1.3931 Y0.2997  
G01 X-1.4105 Y0.2925  
G01 X-1.4294 Y0.2925  
G01 X-1.4469 Y0.2997  
G01 X-1.4603 Y0.3131  
G01 X-1.4675 Y0.3305  
G01 X-1.4675 Y0.3494  
G01 X-1.4603 Y0.3669  
G01 X-1.4469 Y0.3803  
G01 X-1.4294 Y0.3875  
G01 X-1.4105 Y0.3875  
G01 X-1.3931 Y0.3803  
G01 X-1.3813 Y0.3685  
G01 X-1.3043 Y0.3685  
G01 X-0.8102 Y0.3685  
G01 X-0.7972 Y0.3815  
G01 X-0.7628 Y0.3815  
G01 X-0.7385 Y0.3572  
G01 X-0.7385 Y0.3228  
G01 X-0.7628 Y0.2985  
G01 X-0.7972 Y0.2985  
G01 X-0.8102 Y0.3115  
G01 X-1.2815 Y0.3115  
G01 X-1.2815 Y0.2202  
G01 X-1.2785 Y0.2172  
G01 X-1.2785 Y0.1828  
G01 X-1.3028 Y0.1585  
G01 X-1.3372 Y0.1585  
G01 X-1.3615 Y0.1828  
G00 Z0.1000  
G00 X-1.5415 Y1.8928  
G01 Z-0.0070 F10    
G01 X-1.5415 Y1.9272  F20    
G01 X-1.5172 Y1.9515  
G01 X-1.4828 Y1.9515  
G01 X-1.4585 Y1.9272  
G01 X-1.4585 Y1.8928  
G01 X-1.4715 Y1.8798  
G01 X-1.4715 Y1.7487  
G01 X-1.4597 Y1.7369  
G01 X-1.4525 Y1.7194  
G01 X-1.4525 Y1.7005  
G01 X-1.4534 Y1.6985  
G01 X-1.4516 Y1.6985  
G01 X-1.4475 Y1.6989  
G01 X-1.4459 Y1.6985  
G01 X-0.7757 Y1.6985  
G01 X-0.7700 Y1.6985  
G01 X-0.7665 Y1.6985  
G01 X-0.7643 Y1.6985  
G01 X-0.7544 Y1.6985  
G01 X-0.7255 Y1.6865  
G01 X-0.7035 Y1.6645  
G01 X-0.6915 Y1.6356  
G01 X-0.6915 Y1.6257  
G01 X-0.6915 Y1.5402  
G01 X-0.6785 Y1.5272  
G01 X-0.6785 Y1.4928  
G01 X-0.7028 Y1.4685  
G01 X-0.7372 Y1.4685  
G01 X-0.7615 Y1.4928  
G01 X-0.7615 Y1.5272  
G01 X-0.7485 Y1.5402  
G01 X-0.7485 Y1.6200  
G01 X-0.7489 Y1.6242  
G01 X-0.7521 Y1.6319  
G01 X-0.7581 Y1.6379  
G01 X-0.7658 Y1.6411  
G01 X-0.7700 Y1.6415  
G01 X-0.7757 Y1.6415  
G01 X-1.4484 Y1.6415  
G01 X-1.4614 Y1.6401  
G01 X-1.4896 Y1.6482  
G01 X-1.5075 Y1.6625  
G01 X-1.5094 Y1.6625  
G01 X-1.5269 Y1.6697  
G01 X-1.5403 Y1.6831  
G01 X-1.5475 Y1.7005  
G01 X-1.5475 Y1.7194  
G01 X-1.5403 Y1.7369  
G01 X-1.5285 Y1.7487  
G01 X-1.5285 Y1.8798  
G01 X-1.5415 Y1.8928  
G00 Z0.1000  
G00 X-1.7285 Y1.2172  
G01 Z-0.0070 F10    
G01 X-1.7285 Y1.1828  F20    
G01 X-1.7528 Y1.1585  
G01 X-1.7872 Y1.1585  
G01 X-1.8002 Y1.1715  
G01 X-1.8875 Y1.1715  
G01 X-1.8947 Y1.1685  
G01 X-2.0253 Y1.1685  
G01 X-2.0405 Y1.1748  
G01 X-2.0522 Y1.1865  
G01 X-2.0585 Y1.2017  
G01 X-2.0585 Y1.2183  
G01 X-2.0522 Y1.2335  
G01 X-2.0405 Y1.2452  
G01 X-2.0253 Y1.2515  
G01 X-1.8947 Y1.2515  
G01 X-1.8795 Y1.2452  
G01 X-1.8678 Y1.2335  
G01 X-1.8657 Y1.2285  
G01 X-1.8002 Y1.2285  
G01 X-1.7985 Y1.2302  
G01 X-1.7985 Y1.2815  
G01 X-1.8043 Y1.2815  
G01 X-1.8157 Y1.2815  
G01 X-1.8261 Y1.2858  
G01 X-1.8342 Y1.2939  
G01 X-1.8385 Y1.3043  
G01 X-1.8385 Y1.5343  
G01 X-1.8385 Y1.5400  
G01 X-1.8387 Y1.5422  
G01 X-1.8404 Y1.5464  
G01 X-1.8436 Y1.5496  
G01 X-1.8478 Y1.5513  
G01 X-1.8500 Y1.5515  
G01 X-1.8557 Y1.5515  
G01 X-2.3343 Y1.5515  
G01 X-2.3361 Y1.5515  
G01 X-2.3457 Y1.5515  
G01 X-2.3556 Y1.5515  
G01 X-2.3845 Y1.5635  
G01 X-2.4065 Y1.5855  
G01 X-2.4185 Y1.6144  
G01 X-2.4185 Y1.6243  
G01 X-2.4185 Y1.6348  
G01 X-2.4315 Y1.6478  
G01 X-2.4315 Y1.6822  
G01 X-2.4072 Y1.7065  
G01 X-2.3728 Y1.7065  
G01 X-2.3485 Y1.6822  
G01 X-2.3485 Y1.6478  
G01 X-2.3615 Y1.6348  
G01 X-2.3615 Y1.6300  
G01 X-2.3611 Y1.6258  
G01 X-2.3579 Y1.6181  
G01 X-2.3519 Y1.6121  
G01 X-2.3442 Y1.6089  
G01 X-2.3400 Y1.6085  
G01 X-2.3360 Y1.6085  
G01 X-2.3343 Y1.6085  
G01 X-1.8557 Y1.6085  
G01 X-1.8443 Y1.6085  
G01 X-1.8364 Y1.6085  
G01 X-1.8112 Y1.5981  
G01 X-1.7919 Y1.5788  
G01 X-1.7815 Y1.5536  
G01 X-1.7815 Y1.5457  
G01 X-1.7815 Y1.5401  
G01 X-1.7815 Y1.5400  
G01 X-1.7815 Y1.5343  
G01 X-1.7815 Y1.3385  
G01 X-1.7757 Y1.3385  
G01 X-1.7643 Y1.3385  
G01 X-1.6457 Y1.3385  
G01 X-1.6343 Y1.3385  
G01 X-1.5387 Y1.3385  
G01 X-1.5269 Y1.3503  
G01 X-1.5094 Y1.3575  
G01 X-1.4905 Y1.3575  
G01 X-1.4731 Y1.3503  
G01 X-1.4597 Y1.3369  
G01 X-1.4525 Y1.3194  
G01 X-1.4525 Y1.3005  
G01 X-1.4597 Y1.2831  
G01 X-1.4731 Y1.2697  
G01 X-1.4905 Y1.2625  
G01 X-1.5094 Y1.2625  
G01 X-1.5269 Y1.2697  
G01 X-1.5387 Y1.2815  
G01 X-1.5947 Y1.2815  
G01 X-1.5947 Y1.2512  
G01 X-1.6212 Y1.2247  
G01 X-1.6588 Y1.2247  
G01 X-1.6853 Y1.2512  
G01 X-1.6853 Y1.2815  
G01 X-1.7415 Y1.2815  
G01 X-1.7415 Y1.2302  
G01 X-1.7285 Y1.2172  
G00 Z0.1000  
G00 X-2.9915 Y1.1128  
G01 Z-0.0070 F10    
G01 X-2.9915 Y1.1472  F20    
G01 X-2.9672 Y1.1715  
G01 X-2.9328 Y1.1715  
G01 X-2.9085 Y1.1472  
G01 X-2.9085 Y1.1128  
G01 X-2.9215 Y1.0998  
G01 X-2.9215 Y1.0600  
G01 X-2.9211 Y1.0558  
G01 X-2.9179 Y1.0480  
G01 X-2.9119 Y1.0421  
G01 X-2.9042 Y1.0389  
G01 X-2.9000 Y1.0385  
G01 X-2.8950 Y1.0385  
G01 X-2.8943 Y1.0385  
G01 X-2.3472 Y1.0385  
G01 X-2.3405 Y1.0452  
G01 X-2.3253 Y1.0515  
G01 X-2.1947 Y1.0515  
G01 X-2.1795 Y1.0452  
G01 X-2.1678 Y1.0335  
G01 X-2.1615 Y1.0183  
G01 X-2.1615 Y1.0017  
G01 X-2.1678 Y0.9865  
G01 X-2.1795 Y0.9748  
G01 X-2.1947 Y0.9685  
G01 X-2.3253 Y0.9685  
G01 X-2.3405 Y0.9748  
G01 X-2.3472 Y0.9815  
G01 X-2.8943 Y0.9815  
G01 X-2.8950 Y0.9815  
G01 X-2.9057 Y0.9815  
G01 X-2.9156 Y0.9815  
G01 X-2.9445 Y0.9935  
G01 X-2.9665 Y1.0155  
G01 X-2.9785 Y1.0444  
G01 X-2.9785 Y1.0543  
G01 X-2.9785 Y1.0998  
G01 X-2.9915 Y1.1128  
G00 Z0.1000  
G00 X-2.6872 Y1.7615  
G01 Z-0.0070 F10    
G01 X-2.6528 Y1.7615  F20    
G01 X-2.6398 Y1.7485  
G01 X-2.6300 Y1.7485  
G01 X-2.6258 Y1.7489  
G01 X-2.6181 Y1.7521  
G01 X-2.6121 Y1.7581  
G01 X-2.6089 Y1.7658  
G01 X-2.6085 Y1.7700  
G01 X-2.6085 Y1.7730  
G01 X-2.6085 Y1.7757  
G01 X-2.6085 Y1.7857  
G01 X-2.6085 Y1.7956  
G01 X-2.5965 Y1.8245  
G01 X-2.5745 Y1.8465  
G01 X-2.5456 Y1.8585  
G01 X-2.5357 Y1.8585  
G01 X-2.3843 Y1.8585  
G01 X-2.3744 Y1.8585  
G01 X-2.3455 Y1.8465  
G01 X-2.3235 Y1.8245  
G01 X-2.3115 Y1.7956  
G01 X-2.3115 Y1.7857  
G01 X-2.3115 Y1.7702  
G01 X-2.3098 Y1.7685  
G01 X-2.2456 Y1.7685  
G01 X-2.2288 Y1.7853  
G01 X-2.1912 Y1.7853  
G01 X-2.1647 Y1.7588  
G01 X-2.1647 Y1.7212  
G01 X-2.1912 Y1.6947  
G01 X-2.2288 Y1.6947  
G01 X-2.2456 Y1.7115  
G01 X-2.3098 Y1.7115  
G01 X-2.3228 Y1.6985  
G01 X-2.3572 Y1.6985  
G01 X-2.3815 Y1.7228  
G01 X-2.3815 Y1.7572  
G01 X-2.3685 Y1.7702  
G01 X-2.3685 Y1.7800  
G01 X-2.3689 Y1.7842  
G01 X-2.3721 Y1.7919  
G01 X-2.3781 Y1.7979  
G01 X-2.3858 Y1.8011  
G01 X-2.3900 Y1.8015  
G01 X-2.5300 Y1.8015  
G01 X-2.5342 Y1.8011  
G01 X-2.5419 Y1.7979  
G01 X-2.5479 Y1.7919  
G01 X-2.5511 Y1.7842  
G01 X-2.5515 Y1.7800  
G01 X-2.5515 Y1.7757  
G01 X-2.5515 Y1.7730  
G01 X-2.5515 Y1.7643  
G01 X-2.5515 Y1.7544  
G01 X-2.5635 Y1.7255  
G01 X-2.5855 Y1.7035  
G01 X-2.6144 Y1.6915  
G01 X-2.6243 Y1.6915  
G01 X-2.6398 Y1.6915  
G01 X-2.6528 Y1.6785  
G01 X-2.6872 Y1.6785  
G01 X-2.7002 Y1.6915  
G01 X-2.7300 Y1.6915  
G01 X-2.7342 Y1.6911  
G01 X-2.7419 Y1.6879  
G01 X-2.7479 Y1.6819  
G01 X-2.7511 Y1.6742  
G01 X-2.7515 Y1.6700  
G01 X-2.7515 Y1.6656  
G01 X-2.7515 Y1.6643  
G01 X-2.7515 Y1.5943  
G01 X-2.7515 Y1.5864  
G01 X-2.7619 Y1.5612  
G01 X-2.7812 Y1.5419  
G01 X-2.8064 Y1.5315  
G01 X-2.8143 Y1.5315  
G01 X-2.8198 Y1.5315  
G01 X-2.8200 Y1.5315  
G01 X-2.8257 Y1.5315  
G01 X-2.9600 Y1.5315  
G01 X-2.9603 Y1.5315  
G01 X-2.9608 Y1.5312  
G01 X-2.9612 Y1.5308  
G01 X-2.9615 Y1.5303  
G01 X-2.9615 Y1.5300  
G01 X-2.9615 Y1.5243  
G01 X-2.9615 Y1.3715  
G01 X-2.9328 Y1.3715  
G01 X-2.9085 Y1.3472  
G01 X-2.9085 Y1.3128  
G01 X-2.9328 Y1.2885  
G01 X-2.9672 Y1.2885  
G01 X-2.9915 Y1.3128  
G01 X-2.9915 Y1.3146  
G01 X-3.0081 Y1.3312  
G01 X-3.0185 Y1.3564  
G01 X-3.0185 Y1.3643  
G01 X-3.0185 Y1.3665  
G01 X-3.0185 Y1.3700  
G01 X-3.0185 Y1.5243  
G01 X-3.0185 Y1.5300  
G01 X-3.0185 Y1.5416  
G01 X-3.0096 Y1.5631  
G01 X-2.9931 Y1.5796  
G01 X-2.9716 Y1.5885  
G01 X-2.9657 Y1.5885  
G01 X-2.8257 Y1.5885  
G01 X-2.8200 Y1.5885  
G01 X-2.8178 Y1.5887  
G01 X-2.8136 Y1.5904  
G01 X-2.8104 Y1.5936  
G01 X-2.8087 Y1.5978  
G01 X-2.8085 Y1.6000  
G01 X-2.8085 Y1.6643  
G01 X-2.8085 Y1.6656  
G01 X-2.8085 Y1.6757  
G01 X-2.8085 Y1.6856  
G01 X-2.7965 Y1.7145  
G01 X-2.7745 Y1.7365  
G01 X-2.7456 Y1.7485  
G01 X-2.7357 Y1.7485  
G01 X-2.7002 Y1.7485  
G01 X-2.6872 Y1.7615  
G00 Z0.1000  
G00 X-1.5915 Y0.6428  
G01 Z-0.0070 F10    
G01 X-1.5915 Y0.6772  F20    
G01 X-1.5785 Y0.6902  
G01 X-1.5785 Y0.7543  
G01 X-1.5785 Y0.7555  
G01 X-1.5785 Y0.7657  
G01 X-1.5785 Y0.7756  
G01 X-1.5665 Y0.8045  
G01 X-1.5445 Y0.8265  
G01 X-1.5156 Y0.8385  
G01 X-1.5057 Y0.8385  
G01 X-1.3372 Y0.8385  
G01 X-1.3305 Y0.8452  
G01 X-1.3153 Y0.8515  
G01 X-1.1847 Y0.8515  
G01 X-1.1695 Y0.8452  
G01 X-1.1578 Y0.8335  
G01 X-1.1515 Y0.8183  
G01 X-1.1515 Y0.8017  
G01 X-1.1578 Y0.7865  
G01 X-1.1695 Y0.7748  
G01 X-1.1847 Y0.7685  
G01 X-1.3153 Y0.7685  
G01 X-1.3305 Y0.7748  
G01 X-1.3372 Y0.7815  
G01 X-1.5000 Y0.7815  
G01 X-1.5042 Y0.7811  
G01 X-1.5119 Y0.7779  
G01 X-1.5179 Y0.7719  
G01 X-1.5211 Y0.7642  
G01 X-1.5215 Y0.7600  
G01 X-1.5215 Y0.7555  
G01 X-1.5215 Y0.7543  
G01 X-1.5215 Y0.6902  
G01 X-1.5085 Y0.6772  
G01 X-1.5085 Y0.6428  
G01 X-1.5328 Y0.6185  
G01 X-1.5672 Y0.6185  
G01 X-1.5915 Y0.6428  
G00 Z0.1000  
G00 X-0.5772 Y1.1515  
G01 Z-0.0070 F10    
G01 X-0.5428 Y1.1515  F20    
G01 X-0.5185 Y1.1272  
G01 X-0.5185 Y1.0928  
G01 X-0.5428 Y1.0685  
G01 X-0.5772 Y1.0685  
G01 X-0.5902 Y1.0815  
G01 X-0.8628 Y1.0815  
G01 X-0.8695 Y1.0748  
G01 X-0.8847 Y1.0685  
G01 X-1.0153 Y1.0685  
G01 X-1.0305 Y1.0748  
G01 X-1.0422 Y1.0865  
G01 X-1.0485 Y1.1017  
G01 X-1.0485 Y1.1183  
G01 X-1.0422 Y1.1335  
G01 X-1.0305 Y1.1452  
G01 X-1.0153 Y1.1515  
G01 X-0.8847 Y1.1515  
G01 X-0.8695 Y1.1452  
G01 X-0.8628 Y1.1385  
G01 X-0.5902 Y1.1385  
G01 X-0.5772 Y1.1515  
G00 Z0.1000  
G00 X-2.8420 Y0.5026  
G01 Z-0.0070 F10    
G01 X-2.9980 Y0.5026  F20    
G01 X-3.0160 Y0.5100  
G01 X-3.0298 Y0.5238  
G01 X-3.0372 Y0.5418  
G01 X-3.0372 Y0.5613  
G01 X-3.0298 Y0.5793  
G01 X-3.0160 Y0.5931  
G01 X-2.9980 Y0.6006  
G01 X-2.8420 Y0.6006  
G01 X-2.8240 Y0.5931  
G01 X-2.8102 Y0.5793  
G01 X-2.8099 Y0.5785  
G01 X-2.2757 Y0.5785  
G01 X-2.2700 Y0.5785  
G01 X-2.2678 Y0.5787  
G01 X-2.2636 Y0.5804  
G01 X-2.2604 Y0.5836  
G01 X-2.2587 Y0.5878  
G01 X-2.2585 Y0.5900  
G01 X-2.2585 Y0.5933  
G01 X-2.2585 Y0.5957  
G01 X-2.2585 Y0.7157  
G01 X-2.2585 Y0.7236  
G01 X-2.2481 Y0.7488  
G01 X-2.2288 Y0.7681  
G01 X-2.2036 Y0.7785  
G01 X-2.1957 Y0.7785  
G01 X-2.1906 Y0.7785  
G01 X-2.1900 Y0.7785  
G01 X-2.1843 Y0.7785  
G01 X-1.7857 Y0.7785  
G01 X-1.7800 Y0.7785  
G01 X-1.7758 Y0.7789  
G01 X-1.7681 Y0.7821  
G01 X-1.7621 Y0.7881  
G01 X-1.7589 Y0.7958  
G01 X-1.7585 Y0.8000  
G01 X-1.7585 Y0.9643  
G01 X-1.7585 Y0.9651  
G01 X-1.7585 Y0.9757  
G01 X-1.7585 Y0.9836  
G01 X-1.7481 Y1.0088  
G01 X-1.7288 Y1.0281  
G01 X-1.7036 Y1.0385  
G01 X-1.6957 Y1.0385  
G01 X-1.3372 Y1.0385  
G01 X-1.3305 Y1.0452  
G01 X-1.3153 Y1.0515  
G01 X-1.1847 Y1.0515  
G01 X-1.1695 Y1.0452  
G01 X-1.1578 Y1.0335  
G01 X-1.1515 Y1.0183  
G01 X-1.1515 Y1.0017  
G01 X-1.1578 Y0.9865  
G01 X-1.1695 Y0.9748  
G01 X-1.1847 Y0.9685  
G01 X-1.3153 Y0.9685  
G01 X-1.3305 Y0.9748  
G01 X-1.3372 Y0.9815  
G01 X-1.6900 Y0.9815  
G01 X-1.6922 Y0.9813  
G01 X-1.6964 Y0.9796  
G01 X-1.6996 Y0.9764  
G01 X-1.7013 Y0.9722  
G01 X-1.7015 Y0.9700  
G01 X-1.7015 Y0.9651  
G01 X-1.7015 Y0.9643  
G01 X-1.7015 Y0.7943  
G01 X-1.7015 Y0.7844  
G01 X-1.7135 Y0.7555  
G01 X-1.7355 Y0.7335  
G01 X-1.7644 Y0.7215  
G01 X-1.7743 Y0.7215  
G01 X-1.7767 Y0.7215  
G01 X-1.7800 Y0.7215  
G01 X-1.7857 Y0.7215  
G01 X-2.1843 Y0.7215  
G01 X-2.1900 Y0.7215  
G01 X-2.1922 Y0.7213  
G01 X-2.1964 Y0.7196  
G01 X-2.1996 Y0.7164  
G01 X-2.2013 Y0.7122  
G01 X-2.2015 Y0.7100  
G01 X-2.2015 Y0.5957  
G01 X-2.2015 Y0.5932  
G01 X-2.2015 Y0.5843  
G01 X-2.2015 Y0.5764  
G01 X-2.2119 Y0.5512  
G01 X-2.2312 Y0.5319  
G01 X-2.2564 Y0.5215  
G01 X-2.2643 Y0.5215  
G01 X-2.2689 Y0.5215  
G01 X-2.2700 Y0.5215  
G01 X-2.2757 Y0.5215  
G01 X-2.8125 Y0.5215  
G01 X-2.8240 Y0.5100  
G01 X-2.8420 Y0.5026  
G00 Z0.1000  
G00 X-1.3153 Y1.3515  
G01 Z-0.0070 F10    
G01 X-1.1847 Y1.3515  F20    
G01 X-1.1695 Y1.3452  
G01 X-1.1578 Y1.3335  
G01 X-1.1515 Y1.3183  
G01 X-1.1515 Y1.3017  
G01 X-1.1578 Y1.2865  
G01 X-1.1695 Y1.2748  
G01 X-1.1847 Y1.2685  
G01 X-1.3153 Y1.2685  
G01 X-1.3305 Y1.2748  
G01 X-1.3422 Y1.2865  
G01 X-1.3485 Y1.3017  
G01 X-1.3485 Y1.3183  
G01 X-1.3422 Y1.3335  
G01 X-1.3305 Y1.3452  
G01 X-1.3153 Y1.3515  
G00 Z0.1000  
G00 X-1.3153 Y1.2515  
G01 Z-0.0070 F10    
G01 X-1.1847 Y1.2515  F20    
G01 X-1.1695 Y1.2452  
G01 X-1.1578 Y1.2335  
G01 X-1.1515 Y1.2183  
G01 X-1.1515 Y1.2017  
G01 X-1.1578 Y1.1865  
G01 X-1.1695 Y1.1748  
G01 X-1.1847 Y1.1685  
G01 X-1.3153 Y1.1685  
G01 X-1.3305 Y1.1748  
G01 X-1.3422 Y1.1865  
G01 X-1.3485 Y1.2017  
G01 X-1.3485 Y1.2183  
G01 X-1.3422 Y1.2335  
G01 X-1.3305 Y1.2452  
G01 X-1.3153 Y1.2515  
G00 Z0.1000  
G00 X-1.3153 Y1.1515  
G01 Z-0.0070 F10    
G01 X-1.1847 Y1.1515  F20    
G01 X-1.1695 Y1.1452  
G01 X-1.1578 Y1.1335  
G01 X-1.1515 Y1.1183  
G01 X-1.1515 Y1.1017  
G01 X-1.1578 Y1.0865  
G01 X-1.1695 Y1.0748  
G01 X-1.1847 Y1.0685  
G01 X-1.3153 Y1.0685  
G01 X-1.3305 Y1.0748  
G01 X-1.3372 Y1.0815  
G01 X-1.7815 Y1.0815  
G01 X-1.7815 Y0.8743  
G01 X-1.7815 Y0.8644  
G01 X-1.7935 Y0.8355  
G01 X-1.8155 Y0.8135  
G01 X-1.8444 Y0.8015  
G01 X-1.8543 Y0.8015  
G01 X-2.2800 Y0.8015  
G01 X-2.2842 Y0.8011  
G01 X-2.2919 Y0.7979  
G01 X-2.2979 Y0.7919  
G01 X-2.3011 Y0.7842  
G01 X-2.3015 Y0.7800  
G01 X-2.3015 Y0.7543  
G01 X-2.3015 Y0.7504  
G01 X-2.3089 Y0.7325  
G01 X-2.3225 Y0.7189  
G01 X-2.3404 Y0.7115  
G01 X-2.3500 Y0.7115  
G01 X-2.3557 Y0.7115  
G01 X-2.6498 Y0.7115  
G01 X-2.6528 Y0.7085  
G01 X-2.6872 Y0.7085  
G01 X-2.7002 Y0.7215  
G01 X-2.8099 Y0.7215  
G01 X-2.8102 Y0.7207  
G01 X-2.8240 Y0.7069  
G01 X-2.8420 Y0.6994  
G01 X-2.9980 Y0.6994  
G01 X-3.0160 Y0.7069  
G01 X-3.0298 Y0.7207  
G01 X-3.0372 Y0.7387  
G01 X-3.0372 Y0.7582  
G01 X-3.0298 Y0.7762  
G01 X-3.0160 Y0.7900  
G01 X-2.9980 Y0.7974  
G01 X-2.8420 Y0.7974  
G01 X-2.8240 Y0.7900  
G01 X-2.8125 Y0.7785  
G01 X-2.7002 Y0.7785  
G01 X-2.6872 Y0.7915  
G01 X-2.6528 Y0.7915  
G01 X-2.6298 Y0.7685  
G01 X-2.3585 Y0.7685  
G01 X-2.3585 Y0.7857  
G01 X-2.3585 Y0.7956  
G01 X-2.3465 Y0.8245  
G01 X-2.3245 Y0.8465  
G01 X-2.2956 Y0.8585  
G01 X-2.2857 Y0.8585  
G01 X-1.8600 Y0.8585  
G01 X-1.8558 Y0.8589  
G01 X-1.8481 Y0.8621  
G01 X-1.8421 Y0.8681  
G01 X-1.8389 Y0.8758  
G01 X-1.8385 Y0.8800  
G01 X-1.8385 Y1.0815  
G01 X-1.8728 Y1.0815  
G01 X-1.8795 Y1.0748  
G01 X-1.8947 Y1.0685  
G01 X-2.0253 Y1.0685  
G01 X-2.0405 Y1.0748  
G01 X-2.0522 Y1.0865  
G01 X-2.0585 Y1.1017  
G01 X-2.0585 Y1.1183  
G01 X-2.0522 Y1.1335  
G01 X-2.0405 Y1.1452  
G01 X-2.0253 Y1.1515  
G01 X-1.8947 Y1.1515  
G01 X-1.8795 Y1.1452  
G01 X-1.8728 Y1.1385  
G01 X-1.8157 Y1.1385  
G01 X-1.8043 Y1.1385  
G01 X-1.3372 Y1.1385  
G01 X-1.3305 Y1.1452  
G01 X-1.3153 Y1.1515  
G00 Z0.1000  
G00 X-1.0153 Y0.9515  
G01 Z-0.0070 F10    
G01 X-0.8847 Y0.9515  F20    
G01 X-0.8695 Y0.9452  
G01 X-0.8628 Y0.9385  
G01 X-0.8357 Y0.9385  
G01 X-0.8336 Y0.9385  
G01 X-0.8243 Y0.9385  
G01 X-0.8144 Y0.9385  
G01 X-0.7855 Y0.9265  
G01 X-0.7635 Y0.9045  
G01 X-0.7515 Y0.8756  
G01 X-0.7515 Y0.8657  
G01 X-0.7515 Y0.5702  
G01 X-0.7385 Y0.5572  
G01 X-0.7385 Y0.5228  
G01 X-0.7628 Y0.4985  
G01 X-0.7972 Y0.4985  
G01 X-0.8215 Y0.5228  
G01 X-0.8215 Y0.5572  
G01 X-0.8085 Y0.5702  
G01 X-0.8085 Y0.8600  
G01 X-0.8089 Y0.8642  
G01 X-0.8121 Y0.8719  
G01 X-0.8181 Y0.8779  
G01 X-0.8258 Y0.8811  
G01 X-0.8300 Y0.8815  
G01 X-0.8337 Y0.8815  
G01 X-0.8357 Y0.8815  
G01 X-0.8628 Y0.8815  
G01 X-0.8695 Y0.8748  
G01 X-0.8847 Y0.8685  
G01 X-1.0153 Y0.8685  
G01 X-1.0305 Y0.8748  
G01 X-1.0422 Y0.8865  
G01 X-1.0485 Y0.9017  
G01 X-1.0485 Y0.9183  
G01 X-1.0422 Y0.9335  
G01 X-1.0305 Y0.9452  
G01 X-1.0153 Y0.9515  
G00 Z0.1000  
G00 X-1.0153 Y1.3515  
G01 Z-0.0070 F10    
G01 X-0.8847 Y1.3515  F20    
G01 X-0.8695 Y1.3452  
G01 X-0.8628 Y1.3385  
G01 X-0.7502 Y1.3385  
G01 X-0.7372 Y1.3515  
G01 X-0.7028 Y1.3515  
G01 X-0.6785 Y1.3272  
G01 X-0.6785 Y1.2928  
G01 X-0.7028 Y1.2685  
G01 X-0.7372 Y1.2685  
G01 X-0.7502 Y1.2815  
G01 X-0.8628 Y1.2815  
G01 X-0.8695 Y1.2748  
G01 X-0.8847 Y1.2685  
G01 X-1.0153 Y1.2685  
G01 X-1.0305 Y1.2748  
G01 X-1.0422 Y1.2865  
G01 X-1.0485 Y1.3017  
G01 X-1.0485 Y1.3183  
G01 X-1.0422 Y1.3335  
G01 X-1.0305 Y1.3452  
G01 X-1.0153 Y1.3515  
G00 Z0.1000  
G00 X-2.7015 Y1.5928  
G01 Z-0.0070 F10    
G01 X-2.7015 Y1.6272  F20    
G01 X-2.6772 Y1.6515  
G01 X-2.6428 Y1.6515  
G01 X-2.6298 Y1.6385  
G01 X-2.5285 Y1.6385  
G01 X-2.5285 Y1.7043  
G01 X-2.5285 Y1.7053  
G01 X-2.5285 Y1.7157  
G01 X-2.5285 Y1.7216  
G01 X-2.5196 Y1.7431  
G01 X-2.5031 Y1.7596  
G01 X-2.4816 Y1.7685  
G01 X-2.4757 Y1.7685  
G01 X-2.4702 Y1.7685  
G01 X-2.4572 Y1.7815  
G01 X-2.4228 Y1.7815  
G01 X-2.3985 Y1.7572  
G01 X-2.3985 Y1.7228  
G01 X-2.4228 Y1.6985  
G01 X-2.4572 Y1.6985  
G01 X-2.4702 Y1.7115  
G01 X-2.4703 Y1.7115  
G01 X-2.4708 Y1.7112  
G01 X-2.4712 Y1.7108  
G01 X-2.4715 Y1.7103  
G01 X-2.4715 Y1.7100  
G01 X-2.4715 Y1.7053  
G01 X-2.4715 Y1.7043  
G01 X-2.4715 Y1.6043  
G01 X-2.4758 Y1.5939  
G01 X-2.4839 Y1.5858  
G01 X-2.4915 Y1.5827  
G01 X-2.4915 Y1.4457  
G01 X-2.4915 Y1.4343  
G01 X-2.4915 Y1.2600  
G01 X-2.4911 Y1.2558  
G01 X-2.4879 Y1.2481  
G01 X-2.4819 Y1.2421  
G01 X-2.4742 Y1.2389  
G01 X-2.4700 Y1.2385  
G01 X-2.4663 Y1.2385  
G01 X-2.4643 Y1.2385  
G01 X-2.3472 Y1.2385  
G01 X-2.3405 Y1.2452  
G01 X-2.3253 Y1.2515  
G01 X-2.1947 Y1.2515  
G01 X-2.1795 Y1.2452  
G01 X-2.1678 Y1.2335  
G01 X-2.1615 Y1.2183  
G01 X-2.1615 Y1.2017  
G01 X-2.1678 Y1.1865  
G01 X-2.1795 Y1.1748  
G01 X-2.1947 Y1.1685  
G01 X-2.2315 Y1.1685  
G01 X-2.2315 Y1.1515  
G01 X-2.1947 Y1.1515  
G01 X-2.1795 Y1.1452  
G01 X-2.1678 Y1.1335  
G01 X-2.1615 Y1.1183  
G01 X-2.1615 Y1.1017  
G01 X-2.1678 Y1.0865  
G01 X-2.1795 Y1.0748  
G01 X-2.1947 Y1.0685  
G01 X-2.3253 Y1.0685  
G01 X-2.3405 Y1.0748  
G01 X-2.3522 Y1.0865  
G01 X-2.3585 Y1.1017  
G01 X-2.3585 Y1.1183  
G01 X-2.3522 Y1.1335  
G01 X-2.3405 Y1.1452  
G01 X-2.3253 Y1.1515  
G01 X-2.2885 Y1.1515  
G01 X-2.2885 Y1.1685  
G01 X-2.3253 Y1.1685  
G01 X-2.3405 Y1.1748  
G01 X-2.3472 Y1.1815  
G01 X-2.4643 Y1.1815  
G01 X-2.4664 Y1.1815  
G01 X-2.4757 Y1.1815  
G01 X-2.4856 Y1.1815  
G01 X-2.5145 Y1.1935  
G01 X-2.5365 Y1.2155  
G01 X-2.5485 Y1.2444  
G01 X-2.5485 Y1.2543  
G01 X-2.5485 Y1.4115  
G01 X-2.8634 Y1.4115  
G01 X-2.8739 Y1.4010  
G01 X-2.8908 Y1.3940  
G01 X-2.9091 Y1.3940  
G01 X-2.9261 Y1.4010  
G01 X-2.9390 Y1.4139  
G01 X-2.9460 Y1.4308  
G01 X-2.9460 Y1.4491  
G01 X-2.9390 Y1.4661  
G01 X-2.9261 Y1.4790  
G01 X-2.9091 Y1.4860  
G01 X-2.8908 Y1.4860  
G01 X-2.8739 Y1.4790  
G01 X-2.8634 Y1.4685  
G01 X-2.5485 Y1.4685  
G01 X-2.5485 Y1.5815  
G01 X-2.6298 Y1.5815  
G01 X-2.6428 Y1.5685  
G01 X-2.6772 Y1.5685  
G01 X-2.7015 Y1.5928  
G00 Z0.1000  
G00 X-2.0575 Y0.2505  
G01 Z-0.0070 F10    
G01 X-2.0575 Y0.2694  F20    
G01 X-2.0503 Y0.2869  
G01 X-2.0385 Y0.2987  
G01 X-2.0385 Y0.3056  
G01 X-2.0265 Y0.3345  
G01 X-2.0045 Y0.3565  
G01 X-1.9756 Y0.3685  
G01 X-1.9657 Y0.3685  
G01 X-1.8587 Y0.3685  
G01 X-1.8485 Y0.3787  
G01 X-1.8485 Y0.4613  
G01 X-1.8587 Y0.4715  
G01 X-1.8656 Y0.4715  
G01 X-1.8945 Y0.4835  
G01 X-1.9165 Y0.5055  
G01 X-1.9285 Y0.5344  
G01 X-1.9453 Y0.5512  
G01 X-1.9453 Y0.5888  
G01 X-1.9188 Y0.6153  
G01 X-1.8812 Y0.6153  
G01 X-1.8547 Y0.5888  
G01 X-1.8547 Y0.5512  
G01 X-1.8679 Y0.5381  
G01 X-1.8619 Y0.5321  
G01 X-1.8571 Y0.5301  
G01 X-1.8469 Y0.5403  
G01 X-1.8294 Y0.5475  
G01 X-1.8105 Y0.5475  
G01 X-1.7931 Y0.5403  
G01 X-1.7797 Y0.5269  
G01 X-1.7725 Y0.5094  
G01 X-1.7725 Y0.4905  
G01 X-1.7797 Y0.4731  
G01 X-1.7915 Y0.4613  
G01 X-1.7915 Y0.3787  
G01 X-1.7797 Y0.3669  
G01 X-1.7725 Y0.3494  
G01 X-1.7725 Y0.3305  
G01 X-1.7797 Y0.3131  
G01 X-1.7931 Y0.2997  
G01 X-1.8105 Y0.2925  
G01 X-1.8294 Y0.2925  
G01 X-1.8469 Y0.2997  
G01 X-1.8587 Y0.3115  
G01 X-1.9600 Y0.3115  
G01 X-1.9642 Y0.3111  
G01 X-1.9719 Y0.3079  
G01 X-1.9779 Y0.3019  
G01 X-1.9799 Y0.2971  
G01 X-1.9697 Y0.2869  
G01 X-1.9625 Y0.2694  
G01 X-1.9625 Y0.2505  
G01 X-1.9697 Y0.2331  
G01 X-1.9831 Y0.2197  
G01 X-2.0005 Y0.2125  
G01 X-2.0194 Y0.2125  
G01 X-2.0369 Y0.2197  
G01 X-2.0503 Y0.2331  
G01 X-2.0575 Y0.2505  
G00 Z0.1000  
G00 X-0.5856 Y1.5715  
G01 Z-0.0070 F10    
G01 X-0.5856 Y1.5715  F20    
G01 X-0.6145 Y1.5835  
G01 X-0.6365 Y1.6055  
G01 X-0.6485 Y1.6344  
G01 X-0.6485 Y1.6443  
G01 X-0.6485 Y1.6500  
G01 X-0.6485 Y1.6557  
G01 X-0.6485 Y1.7200  
G01 X-0.6487 Y1.7222  
G01 X-0.6504 Y1.7264  
G01 X-0.6536 Y1.7296  
G01 X-0.6578 Y1.7313  
G01 X-0.6600 Y1.7315  
G01 X-1.3043 Y1.7315  
G01 X-1.3055 Y1.7315  
G01 X-1.3157 Y1.7315  
G01 X-1.3256 Y1.7315  
G01 X-1.3545 Y1.7435  
G01 X-1.3765 Y1.7655  
G01 X-1.3885 Y1.7944  
G01 X-1.3885 Y1.8043  
G01 X-1.3885 Y1.8234  
G01 X-1.4060 Y1.8409  
G01 X-1.4060 Y1.8791  
G01 X-1.3885 Y1.8966  
G01 X-1.3885 Y1.9543  
G01 X-1.3885 Y1.9590  
G01 X-1.3885 Y1.9600  
G01 X-1.3889 Y1.9642  
G01 X-1.3921 Y1.9719  
G01 X-1.3981 Y1.9779  
G01 X-1.4058 Y1.9811  
G01 X-1.4100 Y1.9815  
G01 X-1.4157 Y1.9815  
G01 X-1.5643 Y1.9815  
G01 X-1.5700 Y1.9815  
G01 X-1.5742 Y1.9811  
G01 X-1.5819 Y1.9779  
G01 X-1.5879 Y1.9719  
G01 X-1.5911 Y1.9642  
G01 X-1.5915 Y1.9600  
G01 X-1.5915 Y1.7957  
G01 X-1.5915 Y1.7743  
G01 X-1.5915 Y1.6357  
G01 X-1.5915 Y1.6300  
G01 X-1.5911 Y1.6258  
G01 X-1.5879 Y1.6181  
G01 X-1.5819 Y1.6121  
G01 X-1.5742 Y1.6089  
G01 X-1.5700 Y1.6085  
G01 X-1.5694 Y1.6085  
G01 X-1.5643 Y1.6085  
G01 X-1.1443 Y1.6085  
G01 X-1.1344 Y1.6085  
G01 X-1.1055 Y1.5965  
G01 X-1.0835 Y1.5745  
G01 X-1.0715 Y1.5456  
G01 X-1.0715 Y1.5357  
G01 X-1.0715 Y1.5304  
G01 X-1.0715 Y1.5300  
G01 X-1.0715 Y1.5243  
G01 X-1.0715 Y0.8600  
G01 X-1.0711 Y0.8558  
G01 X-1.0679 Y0.8480  
G01 X-1.0619 Y0.8421  
G01 X-1.0542 Y0.8389  
G01 X-1.0500 Y0.8385  
G01 X-1.0450 Y0.8385  
G01 X-1.0443 Y0.8385  
G01 X-1.0372 Y0.8385  
G01 X-1.0305 Y0.8452  
G01 X-1.0153 Y0.8515  
G01 X-0.8847 Y0.8515  
G01 X-0.8695 Y0.8452  
G01 X-0.8578 Y0.8335  
G01 X-0.8515 Y0.8183  
G01 X-0.8515 Y0.8017  
G01 X-0.8578 Y0.7865  
G01 X-0.8695 Y0.7748  
G01 X-0.8847 Y0.7685  
G01 X-1.0153 Y0.7685  
G01 X-1.0305 Y0.7748  
G01 X-1.0372 Y0.7815  
G01 X-1.0443 Y0.7815  
G01 X-1.0450 Y0.7815  
G01 X-1.0557 Y0.7815  
G01 X-1.0656 Y0.7815  
G01 X-1.0945 Y0.7935  
G01 X-1.1165 Y0.8155  
G01 X-1.1285 Y0.8444  
G01 X-1.1285 Y0.8543  
G01 X-1.1285 Y1.5243  
G01 X-1.1285 Y1.5300  
G01 X-1.1289 Y1.5342  
G01 X-1.1321 Y1.5419  
G01 X-1.1381 Y1.5479  
G01 X-1.1458 Y1.5511  
G01 X-1.1500 Y1.5515  
G01 X-1.5643 Y1.5515  
G01 X-1.5694 Y1.5515  
G01 X-1.5757 Y1.5515  
G01 X-1.5856 Y1.5515  
G01 X-1.6145 Y1.5635  
G01 X-1.6365 Y1.5855  
G01 X-1.6485 Y1.6144  
G01 X-1.6485 Y1.6243  
G01 X-1.6485 Y1.6299  
G01 X-1.6485 Y1.6357  
G01 X-1.6485 Y1.7615  
G01 X-1.9344 Y1.7615  
G01 X-1.9512 Y1.7447  
G01 X-1.9888 Y1.7447  
G01 X-2.0153 Y1.7712  
G01 X-2.0153 Y1.8088  
G01 X-1.9888 Y1.8353  
G01 X-1.9512 Y1.8353  
G01 X-1.9344 Y1.8185  
G01 X-1.6485 Y1.8185  
G01 X-1.6485 Y1.9657  
G01 X-1.6485 Y1.9756  
G01 X-1.6365 Y2.0045  
G01 X-1.6145 Y2.0265  
G01 X-1.5856 Y2.0385  
G01 X-1.5757 Y2.0385  
G01 X-1.5707 Y2.0385  
G01 X-1.5700 Y2.0385  
G01 X-1.5643 Y2.0385  
G01 X-1.4157 Y2.0385  
G01 X-1.4100 Y2.0385  
G01 X-1.4065 Y2.0385  
G01 X-1.4043 Y2.0385  
G01 X-1.3944 Y2.0385  
G01 X-1.3655 Y2.0265  
G01 X-1.3435 Y2.0045  
G01 X-1.3315 Y1.9756  
G01 X-1.3315 Y1.9657  
G01 X-1.3315 Y1.9590  
G01 X-1.3315 Y1.9543  
G01 X-1.3315 Y1.8966  
G01 X-1.3140 Y1.8791  
G01 X-1.3140 Y1.8409  
G01 X-1.3315 Y1.8234  
G01 X-1.3315 Y1.8100  
G01 X-1.3311 Y1.8058  
G01 X-1.3279 Y1.7981  
G01 X-1.3219 Y1.7921  
G01 X-1.3142 Y1.7889  
G01 X-1.3100 Y1.7885  
G01 X-1.3055 Y1.7885  
G01 X-1.3043 Y1.7885  
G01 X-0.6543 Y1.7885  
G01 X-0.6464 Y1.7885  
G01 X-0.6212 Y1.7781  
G01 X-0.6019 Y1.7588  
G01 X-0.5915 Y1.7336  
G01 X-0.5915 Y1.7257  
G01 X-0.5915 Y1.6557  
G01 X-0.5915 Y1.6500  
G01 X-0.5911 Y1.6458  
G01 X-0.5879 Y1.6381  
G01 X-0.5819 Y1.6321  
G01 X-0.5742 Y1.6289  
G01 X-0.5700 Y1.6285  
G01 X-0.3006 Y1.6285  
G01 X-0.2960 Y1.6331  
G01 X-0.2780 Y1.6406  
G01 X-0.1220 Y1.6406  
G01 X-0.1040 Y1.6331  
G01 X-0.0902 Y1.6193  
G01 X-0.0828 Y1.6013  
G01 X-0.0828 Y1.5818  
G01 X-0.0902 Y1.5638  
G01 X-0.1040 Y1.5500  
G01 X-0.1220 Y1.5426  
G01 X-0.2780 Y1.5426  
G01 X-0.2960 Y1.5500  
G01 X-0.3098 Y1.5638  
G01 X-0.3130 Y1.5715  
G01 X-0.5757 Y1.5715  
G01 X-0.5856 Y1.5715  
G00 Z0.1000  
G00 X-2.9215 Y1.7664  
G01 Z-0.0070 F10    
G01 X-2.9215 Y1.7664  F20    
G01 X-2.9319 Y1.7412  
G01 X-2.9512 Y1.7219  
G01 X-2.9764 Y1.7115  
G01 X-2.9843 Y1.7115  
G01 X-2.9896 Y1.7115  
G01 X-2.9900 Y1.7115  
G01 X-2.9957 Y1.7115  
G01 X-3.1100 Y1.7115  
G01 X-3.1142 Y1.7111  
G01 X-3.1219 Y1.7079  
G01 X-3.1279 Y1.7019  
G01 X-3.1311 Y1.6942  
G01 X-3.1315 Y1.6900  
G01 X-3.1315 Y1.6850  
G01 X-3.1315 Y1.6843  
G01 X-3.1315 Y1.6402  
G01 X-3.1185 Y1.6272  
G01 X-3.1185 Y1.5928  
G01 X-3.1315 Y1.5798  
G01 X-3.1315 Y0.9600  
G01 X-3.1311 Y0.9558  
G01 X-3.1279 Y0.9481  
G01 X-3.1219 Y0.9421  
G01 X-3.1142 Y0.9389  
G01 X-3.1100 Y0.9385  
G01 X-3.1057 Y0.9385  
G01 X-3.1043 Y0.9385  
G01 X-2.5456 Y0.9385  
G01 X-2.5288 Y0.9553  
G01 X-2.4912 Y0.9553  
G01 X-2.4744 Y0.9385  
G01 X-2.1657 Y0.9385  
G01 X-2.1600 Y0.9385  
G01 X-2.1558 Y0.9389  
G01 X-2.1481 Y0.9421  
G01 X-2.1421 Y0.9481  
G01 X-2.1389 Y0.9558  
G01 X-2.1385 Y0.9600  
G01 X-2.1385 Y1.0657  
G01 X-2.1385 Y1.2782  
G01 X-2.1418 Y1.2815  
G01 X-2.1728 Y1.2815  
G01 X-2.1795 Y1.2748  
G01 X-2.1947 Y1.2685  
G01 X-2.3253 Y1.2685  
G01 X-2.3405 Y1.2748  
G01 X-2.3522 Y1.2865  
G01 X-2.3585 Y1.3017  
G01 X-2.3585 Y1.3183  
G01 X-2.3522 Y1.3335  
G01 X-2.3405 Y1.3452  
G01 X-2.3253 Y1.3515  
G01 X-2.1947 Y1.3515  
G01 X-2.1795 Y1.3452  
G01 X-2.1728 Y1.3385  
G01 X-2.1243 Y1.3385  
G01 X-2.1204 Y1.3385  
G01 X-2.1025 Y1.3311  
G01 X-2.0889 Y1.3175  
G01 X-2.0815 Y1.2996  
G01 X-2.0815 Y1.2957  
G01 X-2.0815 Y1.2843  
G01 X-2.0815 Y1.0657  
G01 X-2.0815 Y1.0518  
G01 X-2.0682 Y1.0385  
G01 X-2.0472 Y1.0385  
G01 X-2.0405 Y1.0452  
G01 X-2.0253 Y1.0515  
G01 X-1.8947 Y1.0515  
G01 X-1.8795 Y1.0452  
G01 X-1.8678 Y1.0335  
G01 X-1.8615 Y1.0183  
G01 X-1.8615 Y1.0017  
G01 X-1.8678 Y0.9865  
G01 X-1.8795 Y0.9748  
G01 X-1.8947 Y0.9685  
G01 X-2.0253 Y0.9685  
G01 X-2.0405 Y0.9748  
G01 X-2.0472 Y0.9815  
G01 X-2.0743 Y0.9815  
G01 X-2.0815 Y0.9815  
G01 X-2.0815 Y0.9543  
G01 X-2.0815 Y0.9444  
G01 X-2.0935 Y0.9155  
G01 X-2.1155 Y0.8935  
G01 X-2.1444 Y0.8815  
G01 X-2.1543 Y0.8815  
G01 X-2.1588 Y0.8815  
G01 X-2.1600 Y0.8815  
G01 X-2.1657 Y0.8815  
G01 X-2.4744 Y0.8815  
G01 X-2.4912 Y0.8647  
G01 X-2.5288 Y0.8647  
G01 X-2.5456 Y0.8815  
G01 X-3.1043 Y0.8815  
G01 X-3.1057 Y0.8815  
G01 X-3.1157 Y0.8815  
G01 X-3.1256 Y0.8815  
G01 X-3.1545 Y0.8935  
G01 X-3.1765 Y0.9155  
G01 X-3.1885 Y0.9444  
G01 X-3.1885 Y0.9543  
G01 X-3.1885 Y1.5798  
G01 X-3.2015 Y1.5928  
G01 X-3.2015 Y1.6272  
G01 X-3.1885 Y1.6402  
G01 X-3.1885 Y1.6843  
G01 X-3.1885 Y1.6850  
G01 X-3.1885 Y1.6957  
G01 X-3.1885 Y1.7056  
G01 X-3.1765 Y1.7345  
G01 X-3.1545 Y1.7565  
G01 X-3.1256 Y1.7685  
G01 X-3.1157 Y1.7685  
G01 X-2.9957 Y1.7685  
G01 X-2.9900 Y1.7685  
G01 X-2.9878 Y1.7687  
G01 X-2.9836 Y1.7704  
G01 X-2.9804 Y1.7736  
G01 X-2.9787 Y1.7778  
G01 X-2.9785 Y1.7800  
G01 X-2.9785 Y1.8543  
G01 X-2.9785 Y1.8559  
G01 X-2.9785 Y1.8657  
G01 X-2.9785 Y1.8756  
G01 X-2.9665 Y1.9045  
G01 X-2.9445 Y1.9265  
G01 X-2.9156 Y1.9385  
G01 X-2.9057 Y1.9385  
G01 X-2.0957 Y1.9385  
G01 X-2.0843 Y1.9385  
G01 X-2.0302 Y1.9385  
G01 X-2.0172 Y1.9515  
G01 X-1.9828 Y1.9515  
G01 X-1.9698 Y1.9385  
G01 X-1.7700 Y1.9385  
G01 X-1.7658 Y1.9389  
G01 X-1.7581 Y1.9421  
G01 X-1.7521 Y1.9481  
G01 X-1.7489 Y1.9558  
G01 X-1.7485 Y1.9600  
G01 X-1.7485 Y1.9644  
G01 X-1.7485 Y1.9657  
G01 X-1.7485 Y2.0657  
G01 X-1.7485 Y2.0756  
G01 X-1.7365 Y2.1045  
G01 X-1.7145 Y2.1265  
G01 X-1.6856 Y2.1385  
G01 X-1.6757 Y2.1385  
G01 X-1.6703 Y2.1385  
G01 X-1.6700 Y2.1385  
G01 X-1.6643 Y2.1385  
G01 X-1.2543 Y2.1385  
G01 X-1.2444 Y2.1385  
G01 X-1.2155 Y2.1265  
G01 X-1.1935 Y2.1045  
G01 X-1.1815 Y2.0756  
G01 X-1.1815 Y2.0657  
G01 X-1.1815 Y2.0606  
G01 X-1.1815 Y2.0600  
G01 X-1.1815 Y2.0543  
G01 X-1.1815 Y1.9157  
G01 X-1.1815 Y1.9100  
G01 X-1.1811 Y1.9058  
G01 X-1.1779 Y1.8981  
G01 X-1.1719 Y1.8921  
G01 X-1.1642 Y1.8889  
G01 X-1.1600 Y1.8885  
G01 X-1.1559 Y1.8885  
G01 X-1.1543 Y1.8885  
G01 X-0.7966 Y1.8885  
G01 X-0.7861 Y1.8990  
G01 X-0.7691 Y1.9060  
G01 X-0.7508 Y1.9060  
G01 X-0.7339 Y1.8990  
G01 X-0.7234 Y1.8885  
G01 X-0.2659 Y1.8885  
G01 X-0.2517 Y1.8885  
G01 X-0.2149 Y1.8733  
G01 X-0.1867 Y1.8451  
G01 X-0.1836 Y1.8374  
G01 X-0.1220 Y1.8374  
G01 X-0.1040 Y1.8300  
G01 X-0.0902 Y1.8162  
G01 X-0.0828 Y1.7982  
G01 X-0.0828 Y1.7787  
G01 X-0.0902 Y1.7607  
G01 X-0.1040 Y1.7469  
G01 X-0.1220 Y1.7394  
G01 X-0.2780 Y1.7394  
G01 X-0.2960 Y1.7469  
G01 X-0.3098 Y1.7607  
G01 X-0.3172 Y1.7787  
G01 X-0.3172 Y1.7982  
G01 X-0.3098 Y1.8162  
G01 X-0.2960 Y1.8300  
G01 X-0.2923 Y1.8315  
G01 X-0.7234 Y1.8315  
G01 X-0.7339 Y1.8210  
G01 X-0.7508 Y1.8140  
G01 X-0.7691 Y1.8140  
G01 X-0.7861 Y1.8210  
G01 X-0.7966 Y1.8315  
G01 X-1.1543 Y1.8315  
G01 X-1.1559 Y1.8315  
G01 X-1.1657 Y1.8315  
G01 X-1.1756 Y1.8315  
G01 X-1.2045 Y1.8435  
G01 X-1.2265 Y1.8655  
G01 X-1.2385 Y1.8944  
G01 X-1.2385 Y1.9043  
G01 X-1.2385 Y1.9060  
G01 X-1.2385 Y1.9100  
G01 X-1.2385 Y1.9157  
G01 X-1.2385 Y2.0543  
G01 X-1.2385 Y2.0600  
G01 X-1.2389 Y2.0642  
G01 X-1.2421 Y2.0719  
G01 X-1.2481 Y2.0779  
G01 X-1.2558 Y2.0811  
G01 X-1.2600 Y2.0815  
G01 X-1.6643 Y2.0815  
G01 X-1.6700 Y2.0815  
G01 X-1.6742 Y2.0811  
G01 X-1.6819 Y2.0779  
G01 X-1.6879 Y2.0719  
G01 X-1.6911 Y2.0642  
G01 X-1.6915 Y2.0600  
G01 X-1.6915 Y1.9657  
G01 X-1.6915 Y1.9644  
G01 X-1.6915 Y1.9543  
G01 X-1.6915 Y1.9444  
G01 X-1.7035 Y1.9155  
G01 X-1.7255 Y1.8935  
G01 X-1.7544 Y1.8815  
G01 X-1.7643 Y1.8815  
G01 X-1.9698 Y1.8815  
G01 X-1.9828 Y1.8685  
G01 X-2.0172 Y1.8685  
G01 X-2.0302 Y1.8815  
G01 X-2.0615 Y1.8815  
G01 X-2.0615 Y1.7500  
G01 X-2.0611 Y1.7458  
G01 X-2.0579 Y1.7381  
G01 X-2.0519 Y1.7321  
G01 X-2.0442 Y1.7289  
G01 X-2.0400 Y1.7285  
G01 X-2.0354 Y1.7285  
G01 X-2.0343 Y1.7285  
G01 X-1.8002 Y1.7285  
G01 X-1.7872 Y1.7415  
G01 X-1.7528 Y1.7415  
G01 X-1.7398 Y1.7285  
G01 X-1.7343 Y1.7285  
G01 X-1.7284 Y1.7285  
G01 X-1.7069 Y1.7196  
G01 X-1.6904 Y1.7031  
G01 X-1.6815 Y1.6816  
G01 X-1.6815 Y1.6757  
G01 X-1.6815 Y1.5100  
G01 X-1.6811 Y1.5058  
G01 X-1.6779 Y1.4981  
G01 X-1.6719 Y1.4921  
G01 X-1.6642 Y1.4889  
G01 X-1.6600 Y1.4885  
G01 X-1.6578 Y1.4885  
G01 X-1.6543 Y1.4885  
G01 X-1.4657 Y1.4885  
G01 X-1.4600 Y1.4885  
G01 X-1.4567 Y1.4885  
G01 X-1.4543 Y1.4885  
G01 X-1.4444 Y1.4885  
G01 X-1.4155 Y1.4765  
G01 X-1.3935 Y1.4545  
G01 X-1.3852 Y1.4345  
G01 X-1.3756 Y1.4385  
G01 X-1.3657 Y1.4385  
G01 X-1.3596 Y1.4385  
G01 X-1.3543 Y1.4385  
G01 X-1.3372 Y1.4385  
G01 X-1.3305 Y1.4452  
G01 X-1.3153 Y1.4515  
G01 X-1.1847 Y1.4515  
G01 X-1.1695 Y1.4452  
G01 X-1.1578 Y1.4335  
G01 X-1.1515 Y1.4183  
G01 X-1.1515 Y1.4017  
G01 X-1.1578 Y1.3865  
G01 X-1.1695 Y1.3748  
G01 X-1.1847 Y1.3685  
G01 X-1.3153 Y1.3685  
G01 X-1.3305 Y1.3748  
G01 X-1.3372 Y1.3815  
G01 X-1.3543 Y1.3815  
G01 X-1.3596 Y1.3815  
G01 X-1.3600 Y1.3815  
G01 X-1.3642 Y1.3811  
G01 X-1.3719 Y1.3779  
G01 X-1.3779 Y1.3719  
G01 X-1.3811 Y1.3642  
G01 X-1.3815 Y1.3600  
G01 X-1.3815 Y1.2543  
G01 X-1.3815 Y1.2450  
G01 X-1.3815 Y1.2351  
G01 X-1.3885 Y1.2182  
G01 X-1.3885 Y1.1928  
G01 X-1.4128 Y1.1685  
G01 X-1.4472 Y1.1685  
G01 X-1.4715 Y1.1928  
G01 X-1.4715 Y1.2272  
G01 X-1.4472 Y1.2515  
G01 X-1.4385 Y1.2515  
G01 X-1.4385 Y1.2543  
G01 X-1.4385 Y1.4100  
G01 X-1.4389 Y1.4142  
G01 X-1.4421 Y1.4219  
G01 X-1.4481 Y1.4279  
G01 X-1.4558 Y1.4311  
G01 X-1.4600 Y1.4315  
G01 X-1.4657 Y1.4315  
G01 X-1.6543 Y1.4315  
G01 X-1.6578 Y1.4315  
G01 X-1.6657 Y1.4315  
G01 X-1.6756 Y1.4315  
G01 X-1.7045 Y1.4435  
G01 X-1.7265 Y1.4655  
G01 X-1.7385 Y1.4944  
G01 X-1.7385 Y1.5043  
G01 X-1.7385 Y1.6700  
G01 X-1.7385 Y1.6703  
G01 X-1.7387 Y1.6708  
G01 X-1.7392 Y1.6712  
G01 X-1.7397 Y1.6715  
G01 X-1.7398 Y1.6715  
G01 X-1.7528 Y1.6585  
G01 X-1.7872 Y1.6585  
G01 X-1.7999 Y1.6712  
G01 X-1.8011 Y1.6715  
G01 X-2.0343 Y1.6715  
G01 X-2.0354 Y1.6715  
G01 X-2.0457 Y1.6715  
G01 X-2.0556 Y1.6715  
G01 X-2.0845 Y1.6835  
G01 X-2.1065 Y1.7055  
G01 X-2.1185 Y1.7344  
G01 X-2.1185 Y1.7443  
G01 X-2.1185 Y1.8815  
G01 X-2.9000 Y1.8815  
G01 X-2.9042 Y1.8811  
G01 X-2.9119 Y1.8779  
G01 X-2.9179 Y1.8719  
G01 X-2.9211 Y1.8642  
G01 X-2.9215 Y1.8600  
G01 X-2.9215 Y1.8559  
G01 X-2.9215 Y1.8543  
G01 X-2.9215 Y1.7743  
G01 X-2.9215 Y1.7664  
G00 Z0.1000  
G00 X-3.0985 Y1.6156  
G01 Z-0.0070 F10    
G01 X-3.0985 Y1.6156  F20    
G01 X-3.0865 Y1.6445  
G01 X-3.0645 Y1.6665  
G01 X-3.0356 Y1.6785  
G01 X-3.0257 Y1.6785  
G01 X-3.0197 Y1.6785  
G01 X-3.0143 Y1.6785  
G01 X-2.9000 Y1.6785  
G01 X-2.8997 Y1.6785  
G01 X-2.8992 Y1.6787  
G01 X-2.8987 Y1.6792  
G01 X-2.8985 Y1.6797  
G01 X-2.8985 Y1.6800  
G01 X-2.8985 Y1.6843  
G01 X-2.8985 Y1.6857  
G01 X-2.8985 Y1.7757  
G01 X-2.8985 Y1.7856  
G01 X-2.8865 Y1.8145  
G01 X-2.8645 Y1.8365  
G01 X-2.8356 Y1.8485  
G01 X-2.8257 Y1.8485  
G01 X-2.8204 Y1.8485  
G01 X-2.8200 Y1.8485  
G01 X-2.8143 Y1.8485  
G01 X-2.7002 Y1.8485  
G01 X-2.6872 Y1.8615  
G01 X-2.6528 Y1.8615  
G01 X-2.6285 Y1.8372  
G01 X-2.6285 Y1.8028  
G01 X-2.6528 Y1.7785  
G01 X-2.6872 Y1.7785  
G01 X-2.7002 Y1.7915  
G01 X-2.8143 Y1.7915  
G01 X-2.8200 Y1.7915  
G01 X-2.8242 Y1.7911  
G01 X-2.8319 Y1.7879  
G01 X-2.8379 Y1.7819  
G01 X-2.8411 Y1.7742  
G01 X-2.8415 Y1.7700  
G01 X-2.8415 Y1.6857  
G01 X-2.8415 Y1.6842  
G01 X-2.8415 Y1.6743  
G01 X-2.8415 Y1.6684  
G01 X-2.8504 Y1.6469  
G01 X-2.8669 Y1.6304  
G01 X-2.8884 Y1.6215  
G01 X-2.8943 Y1.6215  
G01 X-3.0143 Y1.6215  
G01 X-3.0198 Y1.6215  
G01 X-3.0200 Y1.6215  
G01 X-3.0242 Y1.6211  
G01 X-3.0319 Y1.6179  
G01 X-3.0379 Y1.6119  
G01 X-3.0411 Y1.6042  
G01 X-3.0415 Y1.6000  
G01 X-3.0415 Y1.2900  
G01 X-3.0411 Y1.2858  
G01 X-3.0379 Y1.2781  
G01 X-3.0319 Y1.2721  
G01 X-3.0242 Y1.2689  
G01 X-3.0200 Y1.2685  
G01 X-2.7228 Y1.2685  
G01 X-2.7200 Y1.2691  
G01 X-2.7172 Y1.2685  
G01 X-2.7143 Y1.2685  
G01 X-2.7117 Y1.2674  
G01 X-2.7113 Y1.2673  
G01 X-2.6872 Y1.2915  
G01 X-2.6528 Y1.2915  
G01 X-2.6285 Y1.2672  
G01 X-2.6285 Y1.2328  
G01 X-2.6528 Y1.2085  
G01 X-2.6783 Y1.2085  
G01 X-2.6999 Y1.2042  
G01 X-2.7251 Y1.2092  
G01 X-2.7286 Y1.2115  
G01 X-3.0257 Y1.2115  
G01 X-3.0356 Y1.2115  
G01 X-3.0645 Y1.2235  
G01 X-3.0865 Y1.2455  
G01 X-3.0985 Y1.2744  
G01 X-3.0985 Y1.2843  
G01 X-3.0985 Y1.6057  
G01 X-3.0985 Y1.6156  
G00 Z0.1000  
G00 X-2.1685 Y0.6256  
G01 Z-0.0070 F10    
G01 X-2.1685 Y0.6256  F20    
G01 X-2.1565 Y0.6545  
G01 X-2.1345 Y0.6765  
G01 X-2.1056 Y0.6885  
G01 X-2.0957 Y0.6885  
G01 X-2.0899 Y0.6885  
G01 X-2.0843 Y0.6885  
G01 X-2.0487 Y0.6885  
G01 X-2.0369 Y0.7003  
G01 X-2.0194 Y0.7075  
G01 X-2.0005 Y0.7075  
G01 X-1.9831 Y0.7003  
G01 X-1.9713 Y0.6885  
G01 X-1.7802 Y0.6885  
G01 X-1.7672 Y0.7015  
G01 X-1.7328 Y0.7015  
G01 X-1.7085 Y0.6772  
G01 X-1.7085 Y0.6428  
G01 X-1.7328 Y0.6185  
G01 X-1.7672 Y0.6185  
G01 X-1.7802 Y0.6315  
G01 X-1.9713 Y0.6315  
G01 X-1.9831 Y0.6197  
G01 X-2.0005 Y0.6125  
G01 X-2.0194 Y0.6125  
G01 X-2.0369 Y0.6197  
G01 X-2.0487 Y0.6315  
G01 X-2.0843 Y0.6315  
G01 X-2.0900 Y0.6315  
G01 X-2.0942 Y0.6311  
G01 X-2.1019 Y0.6279  
G01 X-2.1079 Y0.6219  
G01 X-2.1111 Y0.6142  
G01 X-2.1115 Y0.6100  
G01 X-2.1115 Y0.2902  
G01 X-2.0985 Y0.2772  
G01 X-2.0985 Y0.2428  
G01 X-2.1228 Y0.2185  
G01 X-2.1572 Y0.2185  
G01 X-2.1815 Y0.2428  
G01 X-2.1815 Y0.2772  
G01 X-2.1685 Y0.2902  
G01 X-2.1685 Y0.6157  
G01 X-2.1685 Y0.6256  
G00 Z0.1000  
G00 X-0.5315 Y0.4744  
G01 Z-0.0070 F10    
G01 X-0.5315 Y0.4744  F20    
G01 X-0.5435 Y0.4455  
G01 X-0.5655 Y0.4235  
G01 X-0.5944 Y0.4115  
G01 X-0.6043 Y0.4115  
G01 X-0.6100 Y0.4115  
G01 X-0.6157 Y0.4115  
G01 X-1.3757 Y0.4115  
G01 X-1.3856 Y0.4115  
G01 X-1.4145 Y0.4235  
G01 X-1.4365 Y0.4455  
G01 X-1.4415 Y0.4575  
G01 X-1.4469 Y0.4597  
G01 X-1.4603 Y0.4731  
G01 X-1.4675 Y0.4905  
G01 X-1.4675 Y0.5094  
G01 X-1.4603 Y0.5269  
G01 X-1.4585 Y0.5287  
G01 X-1.4585 Y0.6798  
G01 X-1.4715 Y0.6928  
G01 X-1.4715 Y0.7272  
G01 X-1.4472 Y0.7515  
G01 X-1.4128 Y0.7515  
G01 X-1.3885 Y0.7272  
G01 X-1.3885 Y0.6928  
G01 X-1.4015 Y0.6798  
G01 X-1.4015 Y0.5437  
G01 X-1.3931 Y0.5403  
G01 X-1.3797 Y0.5269  
G01 X-1.3725 Y0.5094  
G01 X-1.3725 Y0.4905  
G01 X-1.3797 Y0.4731  
G01 X-1.3811 Y0.4718  
G01 X-1.3742 Y0.4689  
G01 X-1.3700 Y0.4685  
G01 X-0.6157 Y0.4685  
G01 X-0.6100 Y0.4685  
G01 X-0.6058 Y0.4689  
G01 X-0.5981 Y0.4721  
G01 X-0.5921 Y0.4781  
G01 X-0.5889 Y0.4858  
G01 X-0.5885 Y0.4900  
G01 X-0.5885 Y0.8798  
G01 X-0.6015 Y0.8928  
G01 X-0.6015 Y0.9272  
G01 X-0.5772 Y0.9515  
G01 X-0.5428 Y0.9515  
G01 X-0.5185 Y0.9272  
G01 X-0.5185 Y0.8928  
G01 X-0.5315 Y0.8798  
G01 X-0.5315 Y0.4843  
G01 X-0.5315 Y0.4744  
G00 Z0.1000  
G00 X-0.4285 Y0.2838  
G01 Z-0.0070 F10    
G01 X-0.4285 Y0.2838  F20    
G01 X-0.4409 Y0.2538  
G01 X-0.4638 Y0.2309  
G01 X-0.4938 Y0.2185  
G01 X-0.5037 Y0.2185  
G01 X-0.5100 Y0.2185  
G01 X-0.5163 Y0.2185  
G01 X-1.0400 Y0.2185  
G01 X-1.0436 Y0.2181  
G01 X-1.0503 Y0.2154  
G01 X-1.0554 Y0.2103  
G01 X-1.0581 Y0.2036  
G01 X-1.0585 Y0.2000  
G01 X-1.0585 Y0.1964  
G01 X-1.0585 Y0.1937  
G01 X-1.0585 Y0.1437  
G01 X-1.0585 Y0.1338  
G01 X-1.0709 Y0.1038  
G01 X-1.0938 Y0.0809  
G01 X-1.1238 Y0.0685  
G01 X-1.1337 Y0.0685  
G01 X-1.1393 Y0.0685  
G01 X-1.1400 Y0.0685  
G01 X-1.1463 Y0.0685  
G01 X-1.5937 Y0.0685  
G01 X-1.6000 Y0.0685  
G01 X-1.6037 Y0.0685  
G01 X-1.6063 Y0.0685  
G01 X-1.6162 Y0.0685  
G01 X-1.6462 Y0.0809  
G01 X-1.6691 Y0.1038  
G01 X-1.6815 Y0.1338  
G01 X-1.6815 Y0.1437  
G01 X-1.6815 Y0.1511  
G01 X-1.6815 Y0.1563  
G01 X-1.6815 Y0.8663  
G01 X-1.6815 Y0.8762  
G01 X-1.6691 Y0.9062  
G01 X-1.6462 Y0.9291  
G01 X-1.6162 Y0.9415  
G01 X-1.6063 Y0.9415  
G01 X-1.6000 Y0.9415  
G01 X-1.5937 Y0.9415  
G01 X-1.3384 Y0.9415  
G01 X-1.3322 Y0.9477  
G01 X-1.3159 Y0.9545  
G01 X-1.1841 Y0.9545  
G01 X-1.1678 Y0.9477  
G01 X-1.1553 Y0.9352  
G01 X-1.1485 Y0.9189  
G01 X-1.1485 Y0.9011  
G01 X-1.1553 Y0.8848  
G01 X-1.1678 Y0.8723  
G01 X-1.1841 Y0.8655  
G01 X-1.3159 Y0.8655  
G01 X-1.3322 Y0.8723  
G01 X-1.3384 Y0.8785  
G01 X-1.5937 Y0.8785  
G01 X-1.6000 Y0.8785  
G01 X-1.6036 Y0.8781  
G01 X-1.6103 Y0.8754  
G01 X-1.6154 Y0.8703  
G01 X-1.6181 Y0.8636  
G01 X-1.6185 Y0.8600  
G01 X-1.6185 Y0.1563  
G01 X-1.6185 Y0.1511  
G01 X-1.6185 Y0.1500  
G01 X-1.6181 Y0.1464  
G01 X-1.6154 Y0.1397  
G01 X-1.6103 Y0.1346  
G01 X-1.6036 Y0.1319  
G01 X-1.6000 Y0.1315  
G01 X-1.5937 Y0.1315  
G01 X-1.1463 Y0.1315  
G01 X-1.1400 Y0.1315  
G01 X-1.1364 Y0.1319  
G01 X-1.1297 Y0.1346  
G01 X-1.1246 Y0.1397  
G01 X-1.1219 Y0.1464  
G01 X-1.1215 Y0.1500  
G01 X-1.1215 Y0.1937  
G01 X-1.1215 Y0.1964  
G01 X-1.1215 Y0.2063  
G01 X-1.1215 Y0.2162  
G01 X-1.1091 Y0.2462  
G01 X-1.0862 Y0.2691  
G01 X-1.0562 Y0.2815  
G01 X-1.0463 Y0.2815  
G01 X-0.5163 Y0.2815  
G01 X-0.5100 Y0.2815  
G01 X-0.5064 Y0.2819  
G01 X-0.4997 Y0.2846  
G01 X-0.4946 Y0.2897  
G01 X-0.4919 Y0.2964  
G01 X-0.4915 Y0.3000  
G01 X-0.4915 Y0.6537  
G01 X-0.4915 Y0.6548  
G01 X-0.4915 Y0.6663  
G01 X-0.4915 Y0.6762  
G01 X-0.4791 Y0.7062  
G01 X-0.4562 Y0.7291  
G01 X-0.4262 Y0.7415  
G01 X-0.4163 Y0.7415  
G01 X-0.4132 Y0.7415  
G01 X-0.4100 Y0.7415  
G01 X-0.4037 Y0.7415  
G01 X-0.3119 Y0.7415  
G01 X-0.2977 Y0.7557  
G01 X-0.2786 Y0.7636  
G01 X-0.1214 Y0.7636  
G01 X-0.1023 Y0.7557  
G01 X-0.0877 Y0.7410  
G01 X-0.0798 Y0.7219  
G01 X-0.0798 Y0.7012  
G01 X-0.0877 Y0.6821  
G01 X-0.1023 Y0.6675  
G01 X-0.1214 Y0.6596  
G01 X-0.2786 Y0.6596  
G01 X-0.2977 Y0.6675  
G01 X-0.3087 Y0.6785  
G01 X-0.4037 Y0.6785  
G01 X-0.4100 Y0.6785  
G01 X-0.4136 Y0.6781  
G01 X-0.4203 Y0.6754  
G01 X-0.4254 Y0.6703  
G01 X-0.4281 Y0.6636  
G01 X-0.4285 Y0.6600  
G01 X-0.4285 Y0.6548  
G01 X-0.4285 Y0.6537  
G01 X-0.4285 Y0.2937  
G01 X-0.4285 Y0.2838  
G00 Z0.1000  
G00 X-2.1715 Y0.6262  
G01 Z-0.0070 F10    
G01 X-2.1715 Y0.6262  F20    
G01 X-2.1591 Y0.6562  
G01 X-2.1362 Y0.6791  
G01 X-2.1062 Y0.6915  
G01 X-2.0963 Y0.6915  
G01 X-2.0897 Y0.6915  
G01 X-2.0837 Y0.6915  
G01 X-2.0499 Y0.6915  
G01 X-2.0386 Y0.7028  
G01 X-2.0200 Y0.7105  
G01 X-2.0000 Y0.7105  
G01 X-1.9814 Y0.7028  
G01 X-1.9701 Y0.6915  
G01 X-1.7814 Y0.6915  
G01 X-1.7684 Y0.7045  
G01 X-1.7316 Y0.7045  
G01 X-1.7055 Y0.6784  
G01 X-1.7055 Y0.6416  
G01 X-1.7316 Y0.6155  
G01 X-1.7684 Y0.6155  
G01 X-1.7814 Y0.6285  
G01 X-1.9701 Y0.6285  
G01 X-1.9814 Y0.6172  
G01 X-2.0000 Y0.6095  
G01 X-2.0200 Y0.6095  
G01 X-2.0386 Y0.6172  
G01 X-2.0499 Y0.6285  
G01 X-2.0837 Y0.6285  
G01 X-2.0898 Y0.6285  
G01 X-2.0900 Y0.6285  
G01 X-2.0936 Y0.6281  
G01 X-2.1003 Y0.6254  
G01 X-2.1054 Y0.6203  
G01 X-2.1081 Y0.6136  
G01 X-2.1085 Y0.6100  
G01 X-2.1085 Y0.2914  
G01 X-2.0955 Y0.2784  
G01 X-2.0955 Y0.2416  
G01 X-2.1216 Y0.2155  
G01 X-2.1584 Y0.2155  
G01 X-2.1845 Y0.2416  
G01 X-2.1845 Y0.2784  
G01 X-2.1715 Y0.2914  
G01 X-2.1715 Y0.6163  
G01 X-2.1715 Y0.6262  
G00 Z0.1000  
G00 X-3.1015 Y1.6162  
G01 Z-0.0070 F10    
G01 X-3.1015 Y1.6162  F20    
G01 X-3.0891 Y1.6462  
G01 X-3.0662 Y1.6691  
G01 X-3.0362 Y1.6815  
G01 X-3.0263 Y1.6815  
G01 X-3.0195 Y1.6815  
G01 X-3.0137 Y1.6815  
G01 X-2.9015 Y1.6815  
G01 X-2.9015 Y1.6848  
G01 X-2.9015 Y1.6863  
G01 X-2.9015 Y1.7763  
G01 X-2.9015 Y1.7862  
G01 X-2.8891 Y1.8162  
G01 X-2.8662 Y1.8391  
G01 X-2.8362 Y1.8515  
G01 X-2.8263 Y1.8515  
G01 X-2.8203 Y1.8515  
G01 X-2.8200 Y1.8515  
G01 X-2.8137 Y1.8515  
G01 X-2.7014 Y1.8515  
G01 X-2.6884 Y1.8645  
G01 X-2.6516 Y1.8645  
G01 X-2.6255 Y1.8384  
G01 X-2.6255 Y1.8016  
G01 X-2.6516 Y1.7755  
G01 X-2.6884 Y1.7755  
G01 X-2.7014 Y1.7885  
G01 X-2.8137 Y1.7885  
G01 X-2.8200 Y1.7885  
G01 X-2.8236 Y1.7881  
G01 X-2.8303 Y1.7854  
G01 X-2.8354 Y1.7803  
G01 X-2.8381 Y1.7736  
G01 X-2.8385 Y1.7700  
G01 X-2.8385 Y1.6863  
G01 X-2.8385 Y1.6848  
G01 X-2.8385 Y1.6737  
G01 X-2.8385 Y1.6678  
G01 X-2.8479 Y1.6452  
G01 X-2.8652 Y1.6279  
G01 X-2.8878 Y1.6185  
G01 X-2.8937 Y1.6185  
G01 X-3.0137 Y1.6185  
G01 X-3.0196 Y1.6185  
G01 X-3.0200 Y1.6185  
G01 X-3.0236 Y1.6181  
G01 X-3.0303 Y1.6154  
G01 X-3.0354 Y1.6103  
G01 X-3.0381 Y1.6036  
G01 X-3.0385 Y1.6000  
G01 X-3.0385 Y1.2900  
G01 X-3.0381 Y1.2864  
G01 X-3.0354 Y1.2797  
G01 X-3.0303 Y1.2746  
G01 X-3.0236 Y1.2719  
G01 X-3.0200 Y1.2715  
G01 X-3.0137 Y1.2715  
G01 X-2.7231 Y1.2715  
G01 X-2.7200 Y1.2721  
G01 X-2.7169 Y1.2715  
G01 X-2.7137 Y1.2715  
G01 X-2.7121 Y1.2708  
G01 X-2.6884 Y1.2945  
G01 X-2.6516 Y1.2945  
G01 X-2.6255 Y1.2684  
G01 X-2.6255 Y1.2316  
G01 X-2.6516 Y1.2055  
G01 X-2.6780 Y1.2055  
G01 X-2.6999 Y1.2011  
G01 X-2.7263 Y1.2063  
G01 X-2.7295 Y1.2085  
G01 X-3.0137 Y1.2085  
G01 X-3.0200 Y1.2085  
G01 X-3.0202 Y1.2085  
G01 X-3.0263 Y1.2085  
G01 X-3.0362 Y1.2085  
G01 X-3.0662 Y1.2209  
G01 X-3.0891 Y1.2438  
G01 X-3.1015 Y1.2738  
G01 X-3.1015 Y1.2837  
G01 X-3.1015 Y1.6063  
G01 X-3.1015 Y1.6162  
G00 Z0.1000  
G00 X-2.5583 Y0.4400  
G01 Z-0.0070 F10    
G01 X-2.5583 Y0.4800  F20    
G01 X-2.5300 Y0.5083  
G01 X-2.4900 Y0.5083  
G01 X-2.4617 Y0.4800  
G01 X-2.4617 Y0.4400  
G01 X-2.4685 Y0.4332  
G01 X-2.4685 Y0.2683  
G01 X-2.4685 Y0.1900  
G01 X-2.4684 Y0.1887  
G01 X-2.4676 Y0.1861  
G01 X-2.4660 Y0.1840  
G01 X-2.4639 Y0.1824  
G01 X-2.4613 Y0.1816  
G01 X-2.4600 Y0.1815  
G01 X-2.4528 Y0.1815  
G01 X-2.4517 Y0.1815  
G01 X-1.8700 Y0.1815  
G01 X-1.8687 Y0.1816  
G01 X-1.8661 Y0.1824  
G01 X-1.8645 Y0.1836  
G01 X-1.8645 Y0.2184  
G01 X-1.8384 Y0.2445  
G01 X-1.8016 Y0.2445  
G01 X-1.7755 Y0.2184  
G01 X-1.7755 Y0.1816  
G01 X-1.7785 Y0.1786  
G01 X-1.7785 Y0.1755  
G01 X-1.7875 Y0.1479  
G01 X-1.8045 Y0.1245  
G01 X-1.8279 Y0.1075  
G01 X-1.8555 Y0.0985  
G01 X-1.8617 Y0.0985  
G01 X-2.4517 Y0.0985  
G01 X-2.4528 Y0.0985  
G01 X-2.4683 Y0.0985  
G01 X-2.4745 Y0.0985  
G01 X-2.5021 Y0.1075  
G01 X-2.5255 Y0.1245  
G01 X-2.5425 Y0.1479  
G01 X-2.5515 Y0.1755  
G01 X-2.5515 Y0.1817  
G01 X-2.5515 Y0.2285  
G01 X-2.6086 Y0.2285  
G01 X-2.6216 Y0.2155  
G01 X-2.6584 Y0.2155  
G01 X-2.6845 Y0.2416  
G01 X-2.6845 Y0.2784  
G01 X-2.6584 Y0.3045  
G01 X-2.6216 Y0.3045  
G01 X-2.6086 Y0.2915  
G01 X-2.5515 Y0.2915  
G01 X-2.5515 Y0.4332  
G01 X-2.5583 Y0.4400  
G00 Z0.1000  
G00 X-1.9285 Y1.4362  
G01 Z-0.0070 F10    
G01 X-1.9285 Y1.4362  F20    
G01 X-1.9285 Y1.4263  
G01 X-1.9285 Y1.3545  
G01 X-1.8941 Y1.3545  
G01 X-1.8778 Y1.3477  
G01 X-1.8653 Y1.3352  
G01 X-1.8585 Y1.3189  
G01 X-1.8585 Y1.3011  
G01 X-1.8653 Y1.2848  
G01 X-1.8778 Y1.2723  
G01 X-1.8941 Y1.2655  
G01 X-2.0259 Y1.2655  
G01 X-2.0422 Y1.2723  
G01 X-2.0547 Y1.2848  
G01 X-2.0615 Y1.3011  
G01 X-2.0615 Y1.3189  
G01 X-2.0547 Y1.3352  
G01 X-2.0422 Y1.3477  
G01 X-2.0259 Y1.3545  
G01 X-1.9915 Y1.3545  
G01 X-1.9915 Y1.4200  
G01 X-1.9918 Y1.4235  
G01 X-2.0065 Y1.4382  
G01 X-2.0100 Y1.4385  
G01 X-2.1732 Y1.4385  
G01 X-2.1900 Y1.4217  
G01 X-2.2300 Y1.4217  
G01 X-2.2363 Y1.4280  
G01 X-2.2510 Y1.4231  
G01 X-2.2510 Y1.4197  
G01 X-2.2797 Y1.3910  
G01 X-2.3203 Y1.3910  
G01 X-2.3490 Y1.4197  
G01 X-2.3490 Y1.4603  
G01 X-2.3203 Y1.4890  
G01 X-2.2797 Y1.4890  
G01 X-2.2729 Y1.4822  
G01 X-2.2583 Y1.4871  
G01 X-2.2583 Y1.4900  
G01 X-2.2300 Y1.5183  
G01 X-2.1900 Y1.5183  
G01 X-2.1732 Y1.5015  
G01 X-2.0068 Y1.5015  
G01 X-1.9900 Y1.5183  
G01 X-1.9500 Y1.5183  
G01 X-1.9217 Y1.4900  
G01 X-1.9217 Y1.4500  
G01 X-1.9305 Y1.4411  
G01 X-1.9285 Y1.4362  
G00 Z0.1000  
G00 X-1.5445 Y1.8916  
G01 Z-0.0070 F10    
G01 X-1.5445 Y1.9284  F20    
G01 X-1.5184 Y1.9545  
G01 X-1.4816 Y1.9545  
G01 X-1.4555 Y1.9284  
G01 X-1.4555 Y1.8916  
G01 X-1.4685 Y1.8786  
G01 X-1.4685 Y1.7499  
G01 X-1.4572 Y1.7386  
G01 X-1.4495 Y1.7200  
G01 X-1.4495 Y1.7017  
G01 X-1.4472 Y1.7020  
G01 X-1.4455 Y1.7015  
G01 X-0.7763 Y1.7015  
G01 X-0.7700 Y1.7015  
G01 X-0.7664 Y1.7015  
G01 X-0.7637 Y1.7015  
G01 X-0.7538 Y1.7015  
G01 X-0.7238 Y1.6891  
G01 X-0.7009 Y1.6662  
G01 X-0.6885 Y1.6362  
G01 X-0.6885 Y1.6263  
G01 X-0.6885 Y1.5414  
G01 X-0.6755 Y1.5284  
G01 X-0.6755 Y1.4916  
G01 X-0.7016 Y1.4655  
G01 X-0.7384 Y1.4655  
G01 X-0.7645 Y1.4916  
G01 X-0.7645 Y1.5284  
G01 X-0.7515 Y1.5414  
G01 X-0.7515 Y1.6200  
G01 X-0.7518 Y1.6236  
G01 X-0.7546 Y1.6303  
G01 X-0.7597 Y1.6354  
G01 X-0.7664 Y1.6381  
G01 X-0.7700 Y1.6385  
G01 X-0.7763 Y1.6385  
G01 X-1.4483 Y1.6385  
G01 X-1.4617 Y1.6370  
G01 X-1.4910 Y1.6455  
G01 X-1.5085 Y1.6595  
G01 X-1.5100 Y1.6595  
G01 X-1.5286 Y1.6672  
G01 X-1.5428 Y1.6814  
G01 X-1.5505 Y1.7000  
G01 X-1.5505 Y1.7200  
G01 X-1.5428 Y1.7386  
G01 X-1.5315 Y1.7499  
G01 X-1.5315 Y1.8786  
G01 X-1.5445 Y1.8916  
G00 Z0.1000  
G00 X-2.9945 Y1.1116  
G01 Z-0.0070 F10    
G01 X-2.9945 Y1.1484  F20    
G01 X-2.9684 Y1.1745  
G01 X-2.9316 Y1.1745  
G01 X-2.9055 Y1.1484  
G01 X-2.9055 Y1.1116  
G01 X-2.9185 Y1.0986  
G01 X-2.9185 Y1.0600  
G01 X-2.9181 Y1.0564  
G01 X-2.9154 Y1.0497  
G01 X-2.9103 Y1.0446  
G01 X-2.9036 Y1.0419  
G01 X-2.9000 Y1.0415  
G01 X-2.8945 Y1.0415  
G01 X-2.8937 Y1.0415  
G01 X-2.3484 Y1.0415  
G01 X-2.3422 Y1.0477  
G01 X-2.3259 Y1.0545  
G01 X-2.1941 Y1.0545  
G01 X-2.1778 Y1.0477  
G01 X-2.1653 Y1.0352  
G01 X-2.1585 Y1.0189  
G01 X-2.1585 Y1.0011  
G01 X-2.1653 Y0.9848  
G01 X-2.1778 Y0.9723  
G01 X-2.1941 Y0.9655  
G01 X-2.3259 Y0.9655  
G01 X-2.3422 Y0.9723  
G01 X-2.3484 Y0.9785  
G01 X-2.8937 Y0.9785  
G01 X-2.8945 Y0.9785  
G01 X-2.9063 Y0.9785  
G01 X-2.9162 Y0.9785  
G01 X-2.9462 Y0.9909  
G01 X-2.9691 Y1.0138  
G01 X-2.9815 Y1.0438  
G01 X-2.9815 Y1.0537  
G01 X-2.9815 Y1.0986  
G01 X-2.9945 Y1.1116  
G00 Z0.1000  
G00 X-1.5945 Y0.6416  
G01 Z-0.0070 F10    
G01 X-1.5945 Y0.6784  F20    
G01 X-1.5815 Y0.6914  
G01 X-1.5815 Y0.7537  
G01 X-1.5815 Y0.7549  
G01 X-1.5815 Y0.7663  
G01 X-1.5815 Y0.7762  
G01 X-1.5691 Y0.8062  
G01 X-1.5462 Y0.8291  
G01 X-1.5162 Y0.8415  
G01 X-1.5063 Y0.8415  
G01 X-1.3384 Y0.8415  
G01 X-1.3322 Y0.8477  
G01 X-1.3159 Y0.8545  
G01 X-1.1841 Y0.8545  
G01 X-1.1678 Y0.8477  
G01 X-1.1553 Y0.8352  
G01 X-1.1485 Y0.8189  
G01 X-1.1485 Y0.8011  
G01 X-1.1553 Y0.7848  
G01 X-1.1678 Y0.7723  
G01 X-1.1841 Y0.7655  
G01 X-1.3159 Y0.7655  
G01 X-1.3322 Y0.7723  
G01 X-1.3384 Y0.7785  
G01 X-1.5000 Y0.7785  
G01 X-1.5036 Y0.7781  
G01 X-1.5103 Y0.7754  
G01 X-1.5154 Y0.7703  
G01 X-1.5181 Y0.7636  
G01 X-1.5185 Y0.7600  
G01 X-1.5185 Y0.7549  
G01 X-1.5185 Y0.7537  
G01 X-1.5185 Y0.6914  
G01 X-1.5055 Y0.6784  
G01 X-1.5055 Y0.6416  
G01 X-1.5316 Y0.6155  
G01 X-1.5684 Y0.6155  
G01 X-1.5945 Y0.6416  
G00 Z0.1000  
G00 X-0.7984 Y0.3845  
G01 Z-0.0070 F10    
G01 X-0.7616 Y0.3845  F20    
G01 X-0.7355 Y0.3584  
G01 X-0.7355 Y0.3216  
G01 X-0.7616 Y0.2955  
G01 X-0.7984 Y0.2955  
G01 X-0.8114 Y0.3085  
G01 X-1.2785 Y0.3085  
G01 X-1.2785 Y0.2214  
G01 X-1.2755 Y0.2184  
G01 X-1.2755 Y0.1816  
G01 X-1.3016 Y0.1555  
G01 X-1.3384 Y0.1555  
G01 X-1.3645 Y0.1816  
G01 X-1.3645 Y0.2184  
G01 X-1.3415 Y0.2414  
G01 X-1.3415 Y0.3085  
G01 X-1.3801 Y0.3085  
G01 X-1.3914 Y0.2972  
G01 X-1.4100 Y0.2895  
G01 X-1.4300 Y0.2895  
G01 X-1.4486 Y0.2972  
G01 X-1.4628 Y0.3114  
G01 X-1.4705 Y0.3300  
G01 X-1.4705 Y0.3500  
G01 X-1.4628 Y0.3686  
G01 X-1.4486 Y0.3828  
G01 X-1.4300 Y0.3905  
G01 X-1.4100 Y0.3905  
G01 X-1.3914 Y0.3828  
G01 X-1.3801 Y0.3715  
G01 X-1.3037 Y0.3715  
G01 X-0.8114 Y0.3715  
G01 X-0.7984 Y0.3845  
G00 Z0.1000  
G00 X-0.5784 Y1.1545  
G01 Z-0.0070 F10    
G01 X-0.5416 Y1.1545  F20    
G01 X-0.5155 Y1.1284  
G01 X-0.5155 Y1.0916  
G01 X-0.5416 Y1.0655  
G01 X-0.5784 Y1.0655  
G01 X-0.5914 Y1.0785  
G01 X-0.8616 Y1.0785  
G01 X-0.8678 Y1.0723  
G01 X-0.8841 Y1.0655  
G01 X-1.0159 Y1.0655  
G01 X-1.0322 Y1.0723  
G01 X-1.0447 Y1.0848  
G01 X-1.0515 Y1.1011  
G01 X-1.0515 Y1.1189  
G01 X-1.0447 Y1.1352  
G01 X-1.0322 Y1.1477  
G01 X-1.0159 Y1.1545  
G01 X-0.8841 Y1.1545  
G01 X-0.8678 Y1.1477  
G01 X-0.8616 Y1.1415  
G01 X-0.5914 Y1.1415  
G01 X-0.5784 Y1.1545  
G00 Z0.1000  
G00 X-1.3159 Y1.3545  
G01 Z-0.0070 F10    
G01 X-1.1841 Y1.3545  F20    
G01 X-1.1678 Y1.3477  
G01 X-1.1553 Y1.3352  
G01 X-1.1485 Y1.3189  
G01 X-1.1485 Y1.3011  
G01 X-1.1553 Y1.2848  
G01 X-1.1678 Y1.2723  
G01 X-1.1841 Y1.2655  
G01 X-1.3159 Y1.2655  
G01 X-1.3322 Y1.2723  
G01 X-1.3447 Y1.2848  
G01 X-1.3515 Y1.3011  
G01 X-1.3515 Y1.3189  
G01 X-1.3447 Y1.3352  
G01 X-1.3322 Y1.3477  
G01 X-1.3159 Y1.3545  
G00 Z0.1000  
G00 X-1.3159 Y1.2545  
G01 Z-0.0070 F10    
G01 X-1.1841 Y1.2545  F20    
G01 X-1.1678 Y1.2477  
G01 X-1.1553 Y1.2352  
G01 X-1.1485 Y1.2189  
G01 X-1.1485 Y1.2011  
G01 X-1.1553 Y1.1848  
G01 X-1.1678 Y1.1723  
G01 X-1.1841 Y1.1655  
G01 X-1.3159 Y1.1655  
G01 X-1.3322 Y1.1723  
G01 X-1.3447 Y1.1848  
G01 X-1.3515 Y1.2011  
G01 X-1.3515 Y1.2189  
G01 X-1.3447 Y1.2352  
G01 X-1.3322 Y1.2477  
G01 X-1.3159 Y1.2545  
G00 Z0.1000  
G00 X-1.3159 Y1.1545  
G01 Z-0.0070 F10    
G01 X-1.1841 Y1.1545  F20    
G01 X-1.1678 Y1.1477  
G01 X-1.1553 Y1.1352  
G01 X-1.1485 Y1.1189  
G01 X-1.1485 Y1.1011  
G01 X-1.1553 Y1.0848  
G01 X-1.1678 Y1.0723  
G01 X-1.1841 Y1.0655  
G01 X-1.3159 Y1.0655  
G01 X-1.3322 Y1.0723  
G01 X-1.3384 Y1.0785  
G01 X-1.7785 Y1.0785  
G01 X-1.7785 Y0.8737  
G01 X-1.7785 Y0.8638  
G01 X-1.7909 Y0.8338  
G01 X-1.8138 Y0.8109  
G01 X-1.8438 Y0.7985  
G01 X-1.8537 Y0.7985  
G01 X-1.8562 Y0.7985  
G01 X-1.8600 Y0.7985  
G01 X-1.8663 Y0.7985  
G01 X-2.2737 Y0.7985  
G01 X-2.2800 Y0.7985  
G01 X-2.2836 Y0.7981  
G01 X-2.2903 Y0.7954  
G01 X-2.2954 Y0.7903  
G01 X-2.2981 Y0.7836  
G01 X-2.2985 Y0.7800  
G01 X-2.2985 Y0.7537  
G01 X-2.2985 Y0.7498  
G01 X-2.3063 Y0.7308  
G01 X-2.3208 Y0.7163  
G01 X-2.3398 Y0.7085  
G01 X-2.3500 Y0.7085  
G01 X-2.3563 Y0.7085  
G01 X-2.6486 Y0.7085  
G01 X-2.6516 Y0.7055  
G01 X-2.6884 Y0.7055  
G01 X-2.7014 Y0.7185  
G01 X-2.8081 Y0.7185  
G01 X-2.8223 Y0.7043  
G01 X-2.8414 Y0.6964  
G01 X-2.9986 Y0.6964  
G01 X-3.0177 Y0.7043  
G01 X-3.0323 Y0.7190  
G01 X-3.0402 Y0.7381  
G01 X-3.0402 Y0.7588  
G01 X-3.0323 Y0.7779  
G01 X-3.0177 Y0.7925  
G01 X-2.9986 Y0.8004  
G01 X-2.8414 Y0.8004  
G01 X-2.8223 Y0.7925  
G01 X-2.8113 Y0.7815  
G01 X-2.7014 Y0.7815  
G01 X-2.6884 Y0.7945  
G01 X-2.6516 Y0.7945  
G01 X-2.6286 Y0.7715  
G01 X-2.3615 Y0.7715  
G01 X-2.3615 Y0.7863  
G01 X-2.3615 Y0.7962  
G01 X-2.3491 Y0.8262  
G01 X-2.3262 Y0.8491  
G01 X-2.2962 Y0.8615  
G01 X-2.2863 Y0.8615  
G01 X-2.2807 Y0.8615  
G01 X-2.2800 Y0.8615  
G01 X-2.2737 Y0.8615  
G01 X-1.8663 Y0.8615  
G01 X-1.8600 Y0.8615  
G01 X-1.8564 Y0.8619  
G01 X-1.8497 Y0.8646  
G01 X-1.8446 Y0.8697  
G01 X-1.8419 Y0.8764  
G01 X-1.8415 Y0.8800  
G01 X-1.8415 Y1.0785  
G01 X-1.8716 Y1.0785  
G01 X-1.8778 Y1.0723  
G01 X-1.8941 Y1.0655  
G01 X-2.0259 Y1.0655  
G01 X-2.0422 Y1.0723  
G01 X-2.0547 Y1.0848  
G01 X-2.0615 Y1.1011  
G01 X-2.0615 Y1.1189  
G01 X-2.0547 Y1.1352  
G01 X-2.0422 Y1.1477  
G01 X-2.0259 Y1.1545  
G01 X-1.8941 Y1.1545  
G01 X-1.8778 Y1.1477  
G01 X-1.8716 Y1.1415  
G01 X-1.8163 Y1.1415  
G01 X-1.8037 Y1.1415  
G01 X-1.3384 Y1.1415  
G01 X-1.3322 Y1.1477  
G01 X-1.3159 Y1.1545  
G00 Z0.1000  
G00 X-1.0159 Y0.9545  
G01 Z-0.0070 F10    
G01 X-0.8841 Y0.9545  F20    
G01 X-0.8678 Y0.9477  
G01 X-0.8616 Y0.9415  
G01 X-0.8363 Y0.9415  
G01 X-0.8342 Y0.9415  
G01 X-0.8237 Y0.9415  
G01 X-0.8138 Y0.9415  
G01 X-0.7838 Y0.9291  
G01 X-0.7609 Y0.9062  
G01 X-0.7485 Y0.8762  
G01 X-0.7485 Y0.8663  
G01 X-0.7485 Y0.5714  
G01 X-0.7355 Y0.5584  
G01 X-0.7355 Y0.5216  
G01 X-0.7616 Y0.4955  
G01 X-0.7984 Y0.4955  
G01 X-0.8245 Y0.5216  
G01 X-0.8245 Y0.5584  
G01 X-0.8115 Y0.5714  
G01 X-0.8115 Y0.8600  
G01 X-0.8119 Y0.8636  
G01 X-0.8146 Y0.8703  
G01 X-0.8197 Y0.8754  
G01 X-0.8264 Y0.8781  
G01 X-0.8300 Y0.8785  
G01 X-0.8342 Y0.8785  
G01 X-0.8363 Y0.8785  
G01 X-0.8616 Y0.8785  
G01 X-0.8678 Y0.8723  
G01 X-0.8841 Y0.8655  
G01 X-1.0159 Y0.8655  
G01 X-1.0322 Y0.8723  
G01 X-1.0447 Y0.8848  
G01 X-1.0515 Y0.9011  
G01 X-1.0515 Y0.9189  
G01 X-1.0447 Y0.9352  
G01 X-1.0322 Y0.9477  
G01 X-1.0159 Y0.9545  
G00 Z0.1000  
G00 X-1.0159 Y1.3545  
G01 Z-0.0070 F10    
G01 X-0.8841 Y1.3545  F20    
G01 X-0.8678 Y1.3477  
G01 X-0.8616 Y1.3415  
G01 X-0.7514 Y1.3415  
G01 X-0.7384 Y1.3545  
G01 X-0.7016 Y1.3545  
G01 X-0.6755 Y1.3284  
G01 X-0.6755 Y1.2916  
G01 X-0.7016 Y1.2655  
G01 X-0.7384 Y1.2655  
G01 X-0.7514 Y1.2785  
G01 X-0.8616 Y1.2785  
G01 X-0.8678 Y1.2723  
G01 X-0.8841 Y1.2655  
G01 X-1.0159 Y1.2655  
G01 X-1.0322 Y1.2723  
G01 X-1.0447 Y1.2848  
G01 X-1.0515 Y1.3011  
G01 X-1.0515 Y1.3189  
G01 X-1.0447 Y1.3352  
G01 X-1.0322 Y1.3477  
G01 X-1.0159 Y1.3545  
G00 Z0.1000  
G00 X-2.7045 Y1.5916  
G01 Z-0.0070 F10    
G01 X-2.7045 Y1.6284  F20    
G01 X-2.6784 Y1.6545  
G01 X-2.6416 Y1.6545  
G01 X-2.6286 Y1.6415  
G01 X-2.5315 Y1.6415  
G01 X-2.5315 Y1.7037  
G01 X-2.5315 Y1.7047  
G01 X-2.5315 Y1.7163  
G01 X-2.5315 Y1.7222  
G01 X-2.5221 Y1.7448  
G01 X-2.5048 Y1.7621  
G01 X-2.4822 Y1.7715  
G01 X-2.4763 Y1.7715  
G01 X-2.4714 Y1.7715  
G01 X-2.4584 Y1.7845  
G01 X-2.4216 Y1.7845  
G01 X-2.3955 Y1.7584  
G01 X-2.3955 Y1.7216  
G01 X-2.4076 Y1.7095  
G01 X-2.3724 Y1.7095  
G01 X-2.3845 Y1.7216  
G01 X-2.3845 Y1.7584  
G01 X-2.3715 Y1.7714  
G01 X-2.3715 Y1.7800  
G01 X-2.3719 Y1.7836  
G01 X-2.3746 Y1.7903  
G01 X-2.3797 Y1.7954  
G01 X-2.3864 Y1.7981  
G01 X-2.3900 Y1.7985  
G01 X-2.5300 Y1.7985  
G01 X-2.5336 Y1.7981  
G01 X-2.5403 Y1.7954  
G01 X-2.5454 Y1.7903  
G01 X-2.5481 Y1.7836  
G01 X-2.5485 Y1.7800  
G01 X-2.5485 Y1.7763  
G01 X-2.5485 Y1.7733  
G01 X-2.5485 Y1.7637  
G01 X-2.5485 Y1.7538  
G01 X-2.5609 Y1.7238  
G01 X-2.5838 Y1.7009  
G01 X-2.6138 Y1.6885  
G01 X-2.6237 Y1.6885  
G01 X-2.6386 Y1.6885  
G01 X-2.6516 Y1.6755  
G01 X-2.6884 Y1.6755  
G01 X-2.7014 Y1.6885  
G01 X-2.7300 Y1.6885  
G01 X-2.7336 Y1.6881  
G01 X-2.7403 Y1.6854  
G01 X-2.7454 Y1.6803  
G01 X-2.7481 Y1.6736  
G01 X-2.7485 Y1.6700  
G01 X-2.7485 Y1.6651  
G01 X-2.7485 Y1.6637  
G01 X-2.7485 Y1.5937  
G01 X-2.7485 Y1.5858  
G01 X-2.7594 Y1.5595  
G01 X-2.7795 Y1.5394  
G01 X-2.8058 Y1.5285  
G01 X-2.8137 Y1.5285  
G01 X-2.8198 Y1.5285  
G01 X-2.8200 Y1.5285  
G01 X-2.8263 Y1.5285  
G01 X-2.9585 Y1.5285  
G01 X-2.9585 Y1.5237  
G01 X-2.9585 Y1.3745  
G01 X-2.9316 Y1.3745  
G01 X-2.9055 Y1.3484  
G01 X-2.9055 Y1.3116  
G01 X-2.9316 Y1.2855  
G01 X-2.9684 Y1.2855  
G01 X-2.9945 Y1.3116  
G01 X-2.9945 Y1.3134  
G01 X-3.0106 Y1.3295  
G01 X-3.0215 Y1.3558  
G01 X-3.0215 Y1.3637  
G01 X-3.0215 Y1.3664  
G01 X-3.0215 Y1.3700  
G01 X-3.0215 Y1.5237  
G01 X-3.0215 Y1.5300  
G01 X-3.0215 Y1.5422  
G01 X-3.0121 Y1.5648  
G01 X-2.9948 Y1.5821  
G01 X-2.9722 Y1.5915  
G01 X-2.9663 Y1.5915  
G01 X-2.8263 Y1.5915  
G01 X-2.8200 Y1.5915  
G01 X-2.8183 Y1.5917  
G01 X-2.8153 Y1.5929  
G01 X-2.8129 Y1.5953  
G01 X-2.8117 Y1.5983  
G01 X-2.8115 Y1.6000  
G01 X-2.8115 Y1.6637  
G01 X-2.8115 Y1.6651  
G01 X-2.8115 Y1.6763  
G01 X-2.8115 Y1.6862  
G01 X-2.7991 Y1.7162  
G01 X-2.7762 Y1.7391  
G01 X-2.7462 Y1.7515  
G01 X-2.7363 Y1.7515  
G01 X-2.7014 Y1.7515  
G01 X-2.6884 Y1.7645  
G01 X-2.6516 Y1.7645  
G01 X-2.6386 Y1.7515  
G01 X-2.6300 Y1.7515  
G01 X-2.6264 Y1.7519  
G01 X-2.6197 Y1.7546  
G01 X-2.6146 Y1.7597  
G01 X-2.6119 Y1.7664  
G01 X-2.6115 Y1.7700  
G01 X-2.6115 Y1.7733  
G01 X-2.6115 Y1.7763  
G01 X-2.6115 Y1.7863  
G01 X-2.6115 Y1.7962  
G01 X-2.5991 Y1.8262  
G01 X-2.5762 Y1.8491  
G01 X-2.5462 Y1.8615  
G01 X-2.5363 Y1.8615  
G01 X-2.3837 Y1.8615  
G01 X-2.3738 Y1.8615  
G01 X-2.3438 Y1.8491  
G01 X-2.3209 Y1.8262  
G01 X-2.3085 Y1.7962  
G01 X-2.3085 Y1.7863  
G01 X-2.3085 Y1.7715  
G01 X-2.2468 Y1.7715  
G01 X-2.2300 Y1.7883  
G01 X-2.1900 Y1.7883  
G01 X-2.1617 Y1.7600  
G01 X-2.1617 Y1.7200  
G01 X-2.1900 Y1.6917  
G01 X-2.2300 Y1.6917  
G01 X-2.2468 Y1.7085  
G01 X-2.3086 Y1.7085  
G01 X-2.3216 Y1.6955  
G01 X-2.3576 Y1.6955  
G01 X-2.3455 Y1.6834  
G01 X-2.3455 Y1.6466  
G01 X-2.3585 Y1.6336  
G01 X-2.3585 Y1.6300  
G01 X-2.3581 Y1.6264  
G01 X-2.3554 Y1.6197  
G01 X-2.3503 Y1.6146  
G01 X-2.3436 Y1.6119  
G01 X-2.3400 Y1.6115  
G01 X-2.3355 Y1.6115  
G01 X-2.3337 Y1.6115  
G01 X-1.8563 Y1.6115  
G01 X-1.8437 Y1.6115  
G01 X-1.8358 Y1.6115  
G01 X-1.8095 Y1.6006  
G01 X-1.7894 Y1.5805  
G01 X-1.7785 Y1.5542  
G01 X-1.7785 Y1.5463  
G01 X-1.7785 Y1.5401  
G01 X-1.7785 Y1.5400  
G01 X-1.7785 Y1.5337  
G01 X-1.7785 Y1.3415  
G01 X-1.7763 Y1.3415  
G01 X-1.7637 Y1.3415  
G01 X-1.6463 Y1.3415  
G01 X-1.6337 Y1.3415  
G01 X-1.5399 Y1.3415  
G01 X-1.5286 Y1.3528  
G01 X-1.5100 Y1.3605  
G01 X-1.4900 Y1.3605  
G01 X-1.4714 Y1.3528  
G01 X-1.4572 Y1.3386  
G01 X-1.4495 Y1.3200  
G01 X-1.4495 Y1.3000  
G01 X-1.4572 Y1.2814  
G01 X-1.4714 Y1.2672  
G01 X-1.4900 Y1.2595  
G01 X-1.5100 Y1.2595  
G01 X-1.5286 Y1.2672  
G01 X-1.5399 Y1.2785  
G01 X-1.5917 Y1.2785  
G01 X-1.5917 Y1.2500  
G01 X-1.6200 Y1.2217  
G01 X-1.6600 Y1.2217  
G01 X-1.6883 Y1.2500  
G01 X-1.6883 Y1.2785  
G01 X-1.7385 Y1.2785  
G01 X-1.7385 Y1.2314  
G01 X-1.7255 Y1.2184  
G01 X-1.7255 Y1.1816  
G01 X-1.7516 Y1.1555  
G01 X-1.7884 Y1.1555  
G01 X-1.8014 Y1.1685  
G01 X-1.8869 Y1.1685  
G01 X-1.8941 Y1.1655  
G01 X-2.0259 Y1.1655  
G01 X-2.0422 Y1.1723  
G01 X-2.0547 Y1.1848  
G01 X-2.0615 Y1.2011  
G01 X-2.0615 Y1.2189  
G01 X-2.0547 Y1.2352  
G01 X-2.0422 Y1.2477  
G01 X-2.0259 Y1.2545  
G01 X-1.8941 Y1.2545  
G01 X-1.8778 Y1.2477  
G01 X-1.8653 Y1.2352  
G01 X-1.8637 Y1.2315  
G01 X-1.8015 Y1.2315  
G01 X-1.8015 Y1.2785  
G01 X-1.8037 Y1.2785  
G01 X-1.8163 Y1.2785  
G01 X-1.8278 Y1.2833  
G01 X-1.8367 Y1.2922  
G01 X-1.8415 Y1.3037  
G01 X-1.8415 Y1.5337  
G01 X-1.8415 Y1.5400  
G01 X-1.8417 Y1.5417  
G01 X-1.8429 Y1.5447  
G01 X-1.8453 Y1.5471  
G01 X-1.8483 Y1.5483  
G01 X-1.8500 Y1.5485  
G01 X-1.8563 Y1.5485  
G01 X-2.3337 Y1.5485  
G01 X-2.3355 Y1.5485  
G01 X-2.3463 Y1.5485  
G01 X-2.3562 Y1.5485  
G01 X-2.3862 Y1.5609  
G01 X-2.4091 Y1.5838  
G01 X-2.4215 Y1.6138  
G01 X-2.4215 Y1.6237  
G01 X-2.4215 Y1.6336  
G01 X-2.4345 Y1.6466  
G01 X-2.4345 Y1.6834  
G01 X-2.4224 Y1.6955  
G01 X-2.4584 Y1.6955  
G01 X-2.4685 Y1.7056  
G01 X-2.4685 Y1.7047  
G01 X-2.4685 Y1.7037  
G01 X-2.4685 Y1.6037  
G01 X-2.4733 Y1.5922  
G01 X-2.4822 Y1.5833  
G01 X-2.4885 Y1.5807  
G01 X-2.4885 Y1.4463  
G01 X-2.4885 Y1.4337  
G01 X-2.4885 Y1.2600  
G01 X-2.4881 Y1.2564  
G01 X-2.4854 Y1.2497  
G01 X-2.4803 Y1.2446  
G01 X-2.4736 Y1.2419  
G01 X-2.4700 Y1.2415  
G01 X-2.4658 Y1.2415  
G01 X-2.4637 Y1.2415  
G01 X-2.3484 Y1.2415  
G01 X-2.3422 Y1.2477  
G01 X-2.3259 Y1.2545  
G01 X-2.1941 Y1.2545  
G01 X-2.1778 Y1.2477  
G01 X-2.1653 Y1.2352  
G01 X-2.1585 Y1.2189  
G01 X-2.1585 Y1.2011  
G01 X-2.1653 Y1.1848  
G01 X-2.1778 Y1.1723  
G01 X-2.1941 Y1.1655  
G01 X-2.2285 Y1.1655  
G01 X-2.2285 Y1.1545  
G01 X-2.1941 Y1.1545  
G01 X-2.1778 Y1.1477  
G01 X-2.1653 Y1.1352  
G01 X-2.1585 Y1.1189  
G01 X-2.1585 Y1.1011  
G01 X-2.1653 Y1.0848  
G01 X-2.1778 Y1.0723  
G01 X-2.1941 Y1.0655  
G01 X-2.3259 Y1.0655  
G01 X-2.3422 Y1.0723  
G01 X-2.3547 Y1.0848  
G01 X-2.3615 Y1.1011  
G01 X-2.3615 Y1.1189  
G01 X-2.3547 Y1.1352  
G01 X-2.3422 Y1.1477  
G01 X-2.3259 Y1.1545  
G01 X-2.2915 Y1.1545  
G01 X-2.2915 Y1.1655  
G01 X-2.3259 Y1.1655  
G01 X-2.3422 Y1.1723  
G01 X-2.3484 Y1.1785  
G01 X-2.4637 Y1.1785  
G01 X-2.4658 Y1.1785  
G01 X-2.4763 Y1.1785  
G01 X-2.4862 Y1.1785  
G01 X-2.5162 Y1.1909  
G01 X-2.5391 Y1.2138  
G01 X-2.5515 Y1.2438  
G01 X-2.5515 Y1.2537  
G01 X-2.5515 Y1.4085  
G01 X-2.8622 Y1.4085  
G01 X-2.8722 Y1.3985  
G01 X-2.8903 Y1.3910  
G01 X-2.9097 Y1.3910  
G01 X-2.9278 Y1.3985  
G01 X-2.9415 Y1.4122  
G01 X-2.9490 Y1.4303  
G01 X-2.9490 Y1.4497  
G01 X-2.9415 Y1.4678  
G01 X-2.9278 Y1.4815  
G01 X-2.9097 Y1.4890  
G01 X-2.8903 Y1.4890  
G01 X-2.8722 Y1.4815  
G01 X-2.8622 Y1.4715  
G01 X-2.5515 Y1.4715  
G01 X-2.5515 Y1.5785  
G01 X-2.6286 Y1.5785  
G01 X-2.6416 Y1.5655  
G01 X-2.6784 Y1.5655  
G01 X-2.7045 Y1.5916  
G00 Z0.1000  
G00 X-2.0605 Y0.2500  
G01 Z-0.0070 F10    
G01 X-2.0605 Y0.2700  F20    
G01 X-2.0528 Y0.2886  
G01 X-2.0415 Y0.2999  
G01 X-2.0415 Y0.3062  
G01 X-2.0291 Y0.3362  
G01 X-2.0062 Y0.3591  
G01 X-1.9762 Y0.3715  
G01 X-1.9663 Y0.3715  
G01 X-1.8599 Y0.3715  
G01 X-1.8515 Y0.3799  
G01 X-1.8515 Y0.4601  
G01 X-1.8599 Y0.4685  
G01 X-1.8662 Y0.4685  
G01 X-1.8962 Y0.4809  
G01 X-1.9191 Y0.5038  
G01 X-1.9311 Y0.5327  
G01 X-1.9483 Y0.5500  
G01 X-1.9483 Y0.5900  
G01 X-1.9200 Y0.6183  
G01 X-1.8800 Y0.6183  
G01 X-1.8517 Y0.5900  
G01 X-1.8517 Y0.5500  
G01 X-1.8637 Y0.5380  
G01 X-1.8603 Y0.5346  
G01 X-1.8578 Y0.5336  
G01 X-1.8486 Y0.5428  
G01 X-1.8300 Y0.5505  
G01 X-1.8100 Y0.5505  
G01 X-1.7914 Y0.5428  
G01 X-1.7772 Y0.5286  
G01 X-1.7695 Y0.5100  
G01 X-1.7695 Y0.4900  
G01 X-1.7772 Y0.4714  
G01 X-1.7885 Y0.4601  
G01 X-1.7885 Y0.3799  
G01 X-1.7772 Y0.3686  
G01 X-1.7695 Y0.3500  
G01 X-1.7695 Y0.3300  
G01 X-1.7772 Y0.3114  
G01 X-1.7914 Y0.2972  
G01 X-1.8100 Y0.2895  
G01 X-1.8300 Y0.2895  
G01 X-1.8486 Y0.2972  
G01 X-1.8599 Y0.3085  
G01 X-1.9600 Y0.3085  
G01 X-1.9636 Y0.3081  
G01 X-1.9703 Y0.3054  
G01 X-1.9754 Y0.3003  
G01 X-1.9764 Y0.2978  
G01 X-1.9672 Y0.2886  
G01 X-1.9595 Y0.2700  
G01 X-1.9595 Y0.2500  
G01 X-1.9672 Y0.2314  
G01 X-1.9814 Y0.2172  
G01 X-2.0000 Y0.2095  
G01 X-2.0200 Y0.2095  
G01 X-2.0386 Y0.2172  
G01 X-2.0528 Y0.2314  
G01 X-2.0605 Y0.2500  
G00 Z0.1000  
G00 X-0.5862 Y1.5685  
G01 Z-0.0070 F10    
G01 X-0.5862 Y1.5685  F20    
G01 X-0.6162 Y1.5809  
G01 X-0.6391 Y1.6038  
G01 X-0.6515 Y1.6338  
G01 X-0.6515 Y1.6437  
G01 X-0.6515 Y1.6500  
G01 X-0.6515 Y1.6563  
G01 X-0.6515 Y1.7200  
G01 X-0.6517 Y1.7217  
G01 X-0.6529 Y1.7247  
G01 X-0.6553 Y1.7271  
G01 X-0.6583 Y1.7283  
G01 X-0.6600 Y1.7285  
G01 X-1.3037 Y1.7285  
G01 X-1.3050 Y1.7285  
G01 X-1.3163 Y1.7285  
G01 X-1.3262 Y1.7285  
G01 X-1.3562 Y1.7409  
G01 X-1.3791 Y1.7638  
G01 X-1.3915 Y1.7938  
G01 X-1.3915 Y1.8037  
G01 X-1.3915 Y1.8222  
G01 X-1.4090 Y1.8397  
G01 X-1.4090 Y1.8803  
G01 X-1.3915 Y1.8978  
G01 X-1.3915 Y1.9537  
G01 X-1.3915 Y1.9589  
G01 X-1.3915 Y1.9600  
G01 X-1.3919 Y1.9636  
G01 X-1.3946 Y1.9703  
G01 X-1.3997 Y1.9754  
G01 X-1.4064 Y1.9781  
G01 X-1.4100 Y1.9785  
G01 X-1.4163 Y1.9785  
G01 X-1.5637 Y1.9785  
G01 X-1.5700 Y1.9785  
G01 X-1.5736 Y1.9781  
G01 X-1.5803 Y1.9754  
G01 X-1.5854 Y1.9703  
G01 X-1.5881 Y1.9636  
G01 X-1.5885 Y1.9600  
G01 X-1.5885 Y1.7963  
G01 X-1.5885 Y1.7737  
G01 X-1.5885 Y1.6363  
G01 X-1.5885 Y1.6300  
G01 X-1.5881 Y1.6264  
G01 X-1.5854 Y1.6197  
G01 X-1.5803 Y1.6146  
G01 X-1.5736 Y1.6119  
G01 X-1.5700 Y1.6115  
G01 X-1.5693 Y1.6115  
G01 X-1.5637 Y1.6115  
G01 X-1.1437 Y1.6115  
G01 X-1.1338 Y1.6115  
G01 X-1.1038 Y1.5991  
G01 X-1.0809 Y1.5762  
G01 X-1.0685 Y1.5462  
G01 X-1.0685 Y1.5363  
G01 X-1.0685 Y1.5304  
G01 X-1.0685 Y1.5300  
G01 X-1.0685 Y1.5237  
G01 X-1.0685 Y0.8600  
G01 X-1.0681 Y0.8564  
G01 X-1.0654 Y0.8497  
G01 X-1.0603 Y0.8446  
G01 X-1.0536 Y0.8419  
G01 X-1.0500 Y0.8415  
G01 X-1.0445 Y0.8415  
G01 X-1.0437 Y0.8415  
G01 X-1.0384 Y0.8415  
G01 X-1.0322 Y0.8477  
G01 X-1.0159 Y0.8545  
G01 X-0.8841 Y0.8545  
G01 X-0.8678 Y0.8477  
G01 X-0.8553 Y0.8352  
G01 X-0.8485 Y0.8189  
G01 X-0.8485 Y0.8011  
G01 X-0.8553 Y0.7848  
G01 X-0.8678 Y0.7723  
G01 X-0.8841 Y0.7655  
G01 X-1.0159 Y0.7655  
G01 X-1.0322 Y0.7723  
G01 X-1.0384 Y0.7785  
G01 X-1.0437 Y0.7785  
G01 X-1.0445 Y0.7785  
G01 X-1.0563 Y0.7785  
G01 X-1.0662 Y0.7785  
G01 X-1.0962 Y0.7909  
G01 X-1.1191 Y0.8138  
G01 X-1.1315 Y0.8438  
G01 X-1.1315 Y0.8537  
G01 X-1.1315 Y1.5237  
G01 X-1.1315 Y1.5300  
G01 X-1.1319 Y1.5336  
G01 X-1.1346 Y1.5403  
G01 X-1.1397 Y1.5454  
G01 X-1.1464 Y1.5481  
G01 X-1.1500 Y1.5485  
G01 X-1.5637 Y1.5485  
G01 X-1.5694 Y1.5485  
G01 X-1.5763 Y1.5485  
G01 X-1.5862 Y1.5485  
G01 X-1.6162 Y1.5609  
G01 X-1.6391 Y1.5838  
G01 X-1.6515 Y1.6138  
G01 X-1.6515 Y1.6237  
G01 X-1.6515 Y1.6299  
G01 X-1.6515 Y1.6363  
G01 X-1.6515 Y1.7585  
G01 X-1.9332 Y1.7585  
G01 X-1.9500 Y1.7417  
G01 X-1.9900 Y1.7417  
G01 X-2.0183 Y1.7700  
G01 X-2.0183 Y1.8100  
G01 X-1.9900 Y1.8383  
G01 X-1.9500 Y1.8383  
G01 X-1.9332 Y1.8215  
G01 X-1.6515 Y1.8215  
G01 X-1.6515 Y1.9663  
G01 X-1.6515 Y1.9762  
G01 X-1.6391 Y2.0062  
G01 X-1.6162 Y2.0291  
G01 X-1.5862 Y2.0415  
G01 X-1.5763 Y2.0415  
G01 X-1.5707 Y2.0415  
G01 X-1.5700 Y2.0415  
G01 X-1.5637 Y2.0415  
G01 X-1.4163 Y2.0415  
G01 X-1.4100 Y2.0415  
G01 X-1.4063 Y2.0415  
G01 X-1.4037 Y2.0415  
G01 X-1.3938 Y2.0415  
G01 X-1.3638 Y2.0291  
G01 X-1.3409 Y2.0062  
G01 X-1.3285 Y1.9762  
G01 X-1.3285 Y1.9663  
G01 X-1.3285 Y1.9589  
G01 X-1.3285 Y1.9537  
G01 X-1.3285 Y1.8978  
G01 X-1.3110 Y1.8803  
G01 X-1.3110 Y1.8397  
G01 X-1.3285 Y1.8222  
G01 X-1.3285 Y1.8100  
G01 X-1.3281 Y1.8064  
G01 X-1.3254 Y1.7997  
G01 X-1.3203 Y1.7946  
G01 X-1.3136 Y1.7919  
G01 X-1.3100 Y1.7915  
G01 X-1.3050 Y1.7915  
G01 X-1.3037 Y1.7915  
G01 X-0.6537 Y1.7915  
G01 X-0.6458 Y1.7915  
G01 X-0.6195 Y1.7806  
G01 X-0.5994 Y1.7605  
G01 X-0.5885 Y1.7342  
G01 X-0.5885 Y1.7263  
G01 X-0.5885 Y1.6563  
G01 X-0.5885 Y1.6500  
G01 X-0.5881 Y1.6464  
G01 X-0.5854 Y1.6397  
G01 X-0.5803 Y1.6346  
G01 X-0.5736 Y1.6319  
G01 X-0.5700 Y1.6315  
G01 X-0.3019 Y1.6315  
G01 X-0.2977 Y1.6357  
G01 X-0.2786 Y1.6436  
G01 X-0.1214 Y1.6436  
G01 X-0.1023 Y1.6357  
G01 X-0.0877 Y1.6210  
G01 X-0.0798 Y1.6019  
G01 X-0.0798 Y1.5812  
G01 X-0.0877 Y1.5621  
G01 X-0.1023 Y1.5475  
G01 X-0.1214 Y1.5396  
G01 X-0.2786 Y1.5396  
G01 X-0.2977 Y1.5475  
G01 X-0.3123 Y1.5621  
G01 X-0.3150 Y1.5685  
G01 X-0.5763 Y1.5685  
G01 X-0.5862 Y1.5685  
G00 Z0.1000  
G00 X-2.9185 Y1.7658  
G01 Z-0.0070 F10    
G01 X-2.9185 Y1.7658  F20    
G01 X-2.9294 Y1.7395  
G01 X-2.9495 Y1.7194  
G01 X-2.9758 Y1.7085  
G01 X-2.9837 Y1.7085  
G01 X-2.9896 Y1.7085  
G01 X-2.9900 Y1.7085  
G01 X-2.9963 Y1.7085  
G01 X-3.1100 Y1.7085  
G01 X-3.1136 Y1.7081  
G01 X-3.1203 Y1.7054  
G01 X-3.1254 Y1.7003  
G01 X-3.1281 Y1.6936  
G01 X-3.1285 Y1.6900  
G01 X-3.1285 Y1.6845  
G01 X-3.1285 Y1.6837  
G01 X-3.1285 Y1.6414  
G01 X-3.1155 Y1.6284  
G01 X-3.1155 Y1.5916  
G01 X-3.1285 Y1.5786  
G01 X-3.1285 Y0.9600  
G01 X-3.1281 Y0.9564  
G01 X-3.1254 Y0.9497  
G01 X-3.1203 Y0.9446  
G01 X-3.1136 Y0.9419  
G01 X-3.1100 Y0.9415  
G01 X-3.1052 Y0.9415  
G01 X-3.1037 Y0.9415  
G01 X-2.5468 Y0.9415  
G01 X-2.5300 Y0.9583  
G01 X-2.4900 Y0.9583  
G01 X-2.4732 Y0.9415  
G01 X-2.1663 Y0.9415  
G01 X-2.1600 Y0.9415  
G01 X-2.1564 Y0.9419  
G01 X-2.1497 Y0.9446  
G01 X-2.1446 Y0.9497  
G01 X-2.1419 Y0.9564  
G01 X-2.1415 Y0.9600  
G01 X-2.1415 Y1.0663  
G01 X-2.1415 Y1.2769  
G01 X-2.1430 Y1.2785  
G01 X-2.1716 Y1.2785  
G01 X-2.1778 Y1.2723  
G01 X-2.1941 Y1.2655  
G01 X-2.3259 Y1.2655  
G01 X-2.3422 Y1.2723  
G01 X-2.3547 Y1.2848  
G01 X-2.3615 Y1.3011  
G01 X-2.3615 Y1.3189  
G01 X-2.3547 Y1.3352  
G01 X-2.3422 Y1.3477  
G01 X-2.3259 Y1.3545  
G01 X-2.1941 Y1.3545  
G01 X-2.1778 Y1.3477  
G01 X-2.1716 Y1.3415  
G01 X-2.1237 Y1.3415  
G01 X-2.1198 Y1.3415  
G01 X-2.1008 Y1.3337  
G01 X-2.0863 Y1.3192  
G01 X-2.0785 Y1.3002  
G01 X-2.0785 Y1.2963  
G01 X-2.0785 Y1.2837  
G01 X-2.0785 Y1.0663  
G01 X-2.0785 Y1.0530  
G01 X-2.0669 Y1.0415  
G01 X-2.0484 Y1.0415  
G01 X-2.0422 Y1.0477  
G01 X-2.0259 Y1.0545  
G01 X-1.8941 Y1.0545  
G01 X-1.8778 Y1.0477  
G01 X-1.8653 Y1.0352  
G01 X-1.8585 Y1.0189  
G01 X-1.8585 Y1.0011  
G01 X-1.8653 Y0.9848  
G01 X-1.8778 Y0.9723  
G01 X-1.8941 Y0.9655  
G01 X-2.0259 Y0.9655  
G01 X-2.0422 Y0.9723  
G01 X-2.0484 Y0.9785  
G01 X-2.0737 Y0.9785  
G01 X-2.0785 Y0.9785  
G01 X-2.0785 Y0.9537  
G01 X-2.0785 Y0.9438  
G01 X-2.0909 Y0.9138  
G01 X-2.1138 Y0.8909  
G01 X-2.1438 Y0.8785  
G01 X-2.1537 Y0.8785  
G01 X-2.1588 Y0.8785  
G01 X-2.1600 Y0.8785  
G01 X-2.1663 Y0.8785  
G01 X-2.4732 Y0.8785  
G01 X-2.4900 Y0.8617  
G01 X-2.5300 Y0.8617  
G01 X-2.5468 Y0.8785  
G01 X-3.1037 Y0.8785  
G01 X-3.1052 Y0.8785  
G01 X-3.1163 Y0.8785  
G01 X-3.1262 Y0.8785  
G01 X-3.1562 Y0.8909  
G01 X-3.1791 Y0.9138  
G01 X-3.1915 Y0.9438  
G01 X-3.1915 Y0.9537  
G01 X-3.1915 Y1.5786  
G01 X-3.2045 Y1.5916  
G01 X-3.2045 Y1.6284  
G01 X-3.1915 Y1.6414  
G01 X-3.1915 Y1.6837  
G01 X-3.1915 Y1.6845  
G01 X-3.1915 Y1.6963  
G01 X-3.1915 Y1.7062  
G01 X-3.1791 Y1.7362  
G01 X-3.1562 Y1.7591  
G01 X-3.1262 Y1.7715  
G01 X-3.1163 Y1.7715  
G01 X-2.9963 Y1.7715  
G01 X-2.9900 Y1.7715  
G01 X-2.9883 Y1.7717  
G01 X-2.9853 Y1.7729  
G01 X-2.9829 Y1.7753  
G01 X-2.9817 Y1.7783  
G01 X-2.9815 Y1.7800  
G01 X-2.9815 Y1.8537  
G01 X-2.9815 Y1.8554  
G01 X-2.9815 Y1.8663  
G01 X-2.9815 Y1.8762  
G01 X-2.9691 Y1.9062  
G01 X-2.9462 Y1.9291  
G01 X-2.9162 Y1.9415  
G01 X-2.9063 Y1.9415  
G01 X-2.0963 Y1.9415  
G01 X-2.0837 Y1.9415  
G01 X-2.0314 Y1.9415  
G01 X-2.0184 Y1.9545  
G01 X-1.9816 Y1.9545  
G01 X-1.9686 Y1.9415  
G01 X-1.7700 Y1.9415  
G01 X-1.7664 Y1.9419  
G01 X-1.7597 Y1.9446  
G01 X-1.7546 Y1.9497  
G01 X-1.7519 Y1.9564  
G01 X-1.7515 Y1.9600  
G01 X-1.7515 Y1.9649  
G01 X-1.7515 Y1.9663  
G01 X-1.7515 Y2.0663  
G01 X-1.7515 Y2.0762  
G01 X-1.7391 Y2.1062  
G01 X-1.7162 Y2.1291  
G01 X-1.6862 Y2.1415  
G01 X-1.6763 Y2.1415  
G01 X-1.6703 Y2.1415  
G01 X-1.6700 Y2.1415  
G01 X-1.6637 Y2.1415  
G01 X-1.2537 Y2.1415  
G01 X-1.2438 Y2.1415  
G01 X-1.2138 Y2.1291  
G01 X-1.1909 Y2.1062  
G01 X-1.1785 Y2.0762  
G01 X-1.1785 Y2.0663  
G01 X-1.1785 Y2.0607  
G01 X-1.1785 Y2.0600  
G01 X-1.1785 Y2.0537  
G01 X-1.1785 Y1.9163  
G01 X-1.1785 Y1.9100  
G01 X-1.1781 Y1.9064  
G01 X-1.1754 Y1.8997  
G01 X-1.1703 Y1.8946  
G01 X-1.1636 Y1.8919  
G01 X-1.1600 Y1.8915  
G01 X-1.1554 Y1.8915  
G01 X-1.1537 Y1.8915  
G01 X-0.7978 Y1.8915  
G01 X-0.7878 Y1.9015  
G01 X-0.7697 Y1.9090  
G01 X-0.7503 Y1.9090  
G01 X-0.7322 Y1.9015  
G01 X-0.7222 Y1.8915  
G01 X-0.2653 Y1.8915  
G01 X-0.2552 Y1.8915  
G01 X-0.2242 Y1.8814  
G01 X-0.1978 Y1.8622  
G01 X-0.1819 Y1.8404  
G01 X-0.1214 Y1.8404  
G01 X-0.1023 Y1.8325  
G01 X-0.0877 Y1.8179  
G01 X-0.0798 Y1.7988  
G01 X-0.0798 Y1.7781  
G01 X-0.0877 Y1.7590  
G01 X-0.1023 Y1.7443  
G01 X-0.1214 Y1.7364  
G01 X-0.2786 Y1.7364  
G01 X-0.2977 Y1.7443  
G01 X-0.3123 Y1.7590  
G01 X-0.3202 Y1.7781  
G01 X-0.3202 Y1.7988  
G01 X-0.3123 Y1.8179  
G01 X-0.3017 Y1.8285  
G01 X-0.7222 Y1.8285  
G01 X-0.7322 Y1.8185  
G01 X-0.7503 Y1.8110  
G01 X-0.7697 Y1.8110  
G01 X-0.7878 Y1.8185  
G01 X-0.7978 Y1.8285  
G01 X-1.1537 Y1.8285  
G01 X-1.1555 Y1.8285  
G01 X-1.1663 Y1.8285  
G01 X-1.1762 Y1.8285  
G01 X-1.2062 Y1.8409  
G01 X-1.2291 Y1.8638  
G01 X-1.2415 Y1.8938  
G01 X-1.2415 Y1.9037  
G01 X-1.2415 Y1.9059  
G01 X-1.2415 Y1.9100  
G01 X-1.2415 Y1.9163  
G01 X-1.2415 Y2.0537  
G01 X-1.2415 Y2.0600  
G01 X-1.2419 Y2.0636  
G01 X-1.2446 Y2.0703  
G01 X-1.2497 Y2.0754  
G01 X-1.2564 Y2.0781  
G01 X-1.2600 Y2.0785  
G01 X-1.6637 Y2.0785  
G01 X-1.6700 Y2.0785  
G01 X-1.6736 Y2.0781  
G01 X-1.6803 Y2.0754  
G01 X-1.6854 Y2.0703  
G01 X-1.6881 Y2.0636  
G01 X-1.6885 Y2.0600  
G01 X-1.6885 Y1.9663  
G01 X-1.6885 Y1.9649  
G01 X-1.6885 Y1.9537  
G01 X-1.6885 Y1.9438  
G01 X-1.7009 Y1.9138  
G01 X-1.7238 Y1.8909  
G01 X-1.7538 Y1.8785  
G01 X-1.7637 Y1.8785  
G01 X-1.9686 Y1.8785  
G01 X-1.9816 Y1.8655  
G01 X-2.0184 Y1.8655  
G01 X-2.0314 Y1.8785  
G01 X-2.0585 Y1.8785  
G01 X-2.0585 Y1.7500  
G01 X-2.0581 Y1.7464  
G01 X-2.0554 Y1.7397  
G01 X-2.0503 Y1.7346  
G01 X-2.0436 Y1.7319  
G01 X-2.0400 Y1.7315  
G01 X-2.0349 Y1.7315  
G01 X-2.0337 Y1.7315  
G01 X-1.8014 Y1.7315  
G01 X-1.7884 Y1.7445  
G01 X-1.7516 Y1.7445  
G01 X-1.7386 Y1.7315  
G01 X-1.7337 Y1.7315  
G01 X-1.7278 Y1.7315  
G01 X-1.7052 Y1.7221  
G01 X-1.6879 Y1.7048  
G01 X-1.6785 Y1.6822  
G01 X-1.6785 Y1.6763  
G01 X-1.6785 Y1.5100  
G01 X-1.6781 Y1.5064  
G01 X-1.6754 Y1.4997  
G01 X-1.6703 Y1.4946  
G01 X-1.6636 Y1.4919  
G01 X-1.6600 Y1.4915  
G01 X-1.6575 Y1.4915  
G01 X-1.6537 Y1.4915  
G01 X-1.4663 Y1.4915  
G01 X-1.4600 Y1.4915  
G01 X-1.4566 Y1.4915  
G01 X-1.4537 Y1.4915  
G01 X-1.4438 Y1.4915  
G01 X-1.4138 Y1.4791  
G01 X-1.3909 Y1.4562  
G01 X-1.3836 Y1.4384  
G01 X-1.3762 Y1.4415  
G01 X-1.3663 Y1.4415  
G01 X-1.3595 Y1.4415  
G01 X-1.3537 Y1.4415  
G01 X-1.3384 Y1.4415  
G01 X-1.3322 Y1.4477  
G01 X-1.3159 Y1.4545  
G01 X-1.1841 Y1.4545  
G01 X-1.1678 Y1.4477  
G01 X-1.1553 Y1.4352  
G01 X-1.1485 Y1.4189  
G01 X-1.1485 Y1.4011  
G01 X-1.1553 Y1.3848  
G01 X-1.1678 Y1.3723  
G01 X-1.1841 Y1.3655  
G01 X-1.3159 Y1.3655  
G01 X-1.3322 Y1.3723  
G01 X-1.3384 Y1.3785  
G01 X-1.3537 Y1.3785  
G01 X-1.3596 Y1.3785  
G01 X-1.3600 Y1.3785  
G01 X-1.3636 Y1.3781  
G01 X-1.3703 Y1.3754  
G01 X-1.3754 Y1.3703  
G01 X-1.3781 Y1.3636  
G01 X-1.3785 Y1.3600  
G01 X-1.3785 Y1.2537  
G01 X-1.3785 Y1.2444  
G01 X-1.3785 Y1.2345  
G01 X-1.3855 Y1.2176  
G01 X-1.3855 Y1.1916  
G01 X-1.4116 Y1.1655  
G01 X-1.4484 Y1.1655  
G01 X-1.4745 Y1.1916  
G01 X-1.4745 Y1.2284  
G01 X-1.4484 Y1.2545  
G01 X-1.4415 Y1.2545  
G01 X-1.4415 Y1.4100  
G01 X-1.4419 Y1.4136  
G01 X-1.4446 Y1.4203  
G01 X-1.4497 Y1.4254  
G01 X-1.4564 Y1.4281  
G01 X-1.4600 Y1.4285  
G01 X-1.4663 Y1.4285  
G01 X-1.6537 Y1.4285  
G01 X-1.6576 Y1.4285  
G01 X-1.6663 Y1.4285  
G01 X-1.6762 Y1.4285  
G01 X-1.7062 Y1.4409  
G01 X-1.7291 Y1.4638  
G01 X-1.7415 Y1.4938  
G01 X-1.7415 Y1.5037  
G01 X-1.7415 Y1.6656  
G01 X-1.7516 Y1.6555  
G01 X-1.7884 Y1.6555  
G01 X-1.8014 Y1.6685  
G01 X-2.0337 Y1.6685  
G01 X-2.0349 Y1.6685  
G01 X-2.0463 Y1.6685  
G01 X-2.0562 Y1.6685  
G01 X-2.0862 Y1.6809  
G01 X-2.1091 Y1.7038  
G01 X-2.1215 Y1.7338  
G01 X-2.1215 Y1.7437  
G01 X-2.1215 Y1.8785  
G01 X-2.9000 Y1.8785  
G01 X-2.9036 Y1.8781  
G01 X-2.9103 Y1.8754  
G01 X-2.9154 Y1.8703  
G01 X-2.9181 Y1.8636  
G01 X-2.9185 Y1.8600  
G01 X-2.9185 Y1.8554  
G01 X-2.9185 Y1.8537  
G01 X-2.9185 Y1.7737  
G01 X-2.9185 Y1.7658  
G00 Z0.1000  
G00 X-0.5285 Y0.4738  
G01 Z-0.0070 F10    
G01 X-0.5285 Y0.4738  F20    
G01 X-0.5409 Y0.4438  
G01 X-0.5638 Y0.4209  
G01 X-0.5938 Y0.4085  
G01 X-0.6037 Y0.4085  
G01 X-0.6100 Y0.4085  
G01 X-0.6163 Y0.4085  
G01 X-1.3763 Y0.4085  
G01 X-1.3862 Y0.4085  
G01 X-1.4162 Y0.4209  
G01 X-1.4391 Y0.4438  
G01 X-1.4438 Y0.4552  
G01 X-1.4486 Y0.4572  
G01 X-1.4628 Y0.4714  
G01 X-1.4705 Y0.4900  
G01 X-1.4705 Y0.5100  
G01 X-1.4628 Y0.5286  
G01 X-1.4615 Y0.5299  
G01 X-1.4615 Y0.6786  
G01 X-1.4745 Y0.6916  
G01 X-1.4745 Y0.7284  
G01 X-1.4484 Y0.7545  
G01 X-1.4116 Y0.7545  
G01 X-1.3855 Y0.7284  
G01 X-1.3855 Y0.6916  
G01 X-1.3985 Y0.6786  
G01 X-1.3985 Y0.5457  
G01 X-1.3914 Y0.5428  
G01 X-1.3772 Y0.5286  
G01 X-1.3695 Y0.5100  
G01 X-1.3695 Y0.4900  
G01 X-1.3765 Y0.4731  
G01 X-1.3736 Y0.4719  
G01 X-1.3700 Y0.4715  
G01 X-0.6163 Y0.4715  
G01 X-0.6100 Y0.4715  
G01 X-0.6064 Y0.4719  
G01 X-0.5997 Y0.4746  
G01 X-0.5946 Y0.4797  
G01 X-0.5919 Y0.4864  
G01 X-0.5915 Y0.4900  
G01 X-0.5915 Y0.8786  
G01 X-0.6045 Y0.8916  
G01 X-0.6045 Y0.9284  
G01 X-0.5784 Y0.9545  
G01 X-0.5416 Y0.9545  
G01 X-0.5155 Y0.9284  
G01 X-0.5155 Y0.8916  
G01 X-0.5285 Y0.8786  
G01 X-0.5285 Y0.4837  
G01 X-0.5285 Y0.4738  
G00 Z0.1000  
G00 X-1.6985 Y0.7838  
G01 Z-0.0070 F10    
G01 X-1.6985 Y0.7838  F20    
G01 X-1.7109 Y0.7538  
G01 X-1.7338 Y0.7309  
G01 X-1.7638 Y0.7185  
G01 X-1.7737 Y0.7185  
G01 X-1.7766 Y0.7185  
G01 X-1.7800 Y0.7185  
G01 X-1.7863 Y0.7185  
G01 X-2.1837 Y0.7185  
G01 X-2.1900 Y0.7185  
G01 X-2.1917 Y0.7183  
G01 X-2.1947 Y0.7171  
G01 X-2.1971 Y0.7147  
G01 X-2.1983 Y0.7117  
G01 X-2.1985 Y0.7100  
G01 X-2.1985 Y0.5963  
G01 X-2.1985 Y0.5938  
G01 X-2.1985 Y0.5837  
G01 X-2.1985 Y0.5758  
G01 X-2.2094 Y0.5495  
G01 X-2.2295 Y0.5294  
G01 X-2.2558 Y0.5185  
G01 X-2.2637 Y0.5185  
G01 X-2.2688 Y0.5185  
G01 X-2.2700 Y0.5185  
G01 X-2.2763 Y0.5185  
G01 X-2.8113 Y0.5185  
G01 X-2.8223 Y0.5075  
G01 X-2.8414 Y0.4996  
G01 X-2.9986 Y0.4996  
G01 X-3.0177 Y0.5075  
G01 X-3.0323 Y0.5221  
G01 X-3.0402 Y0.5412  
G01 X-3.0402 Y0.5619  
G01 X-3.0323 Y0.5810  
G01 X-3.0177 Y0.5957  
G01 X-2.9986 Y0.6036  
G01 X-2.8414 Y0.6036  
G01 X-2.8223 Y0.5957  
G01 X-2.8081 Y0.5815  
G01 X-2.2763 Y0.5815  
G01 X-2.2700 Y0.5815  
G01 X-2.2683 Y0.5817  
G01 X-2.2653 Y0.5829  
G01 X-2.2629 Y0.5853  
G01 X-2.2617 Y0.5883  
G01 X-2.2615 Y0.5900  
G01 X-2.2615 Y0.5938  
G01 X-2.2615 Y0.5963  
G01 X-2.2615 Y0.7163  
G01 X-2.2615 Y0.7242  
G01 X-2.2506 Y0.7505  
G01 X-2.2305 Y0.7706  
G01 X-2.2042 Y0.7815  
G01 X-2.1963 Y0.7815  
G01 X-2.1906 Y0.7815  
G01 X-2.1900 Y0.7815  
G01 X-2.1837 Y0.7815  
G01 X-1.7863 Y0.7815  
G01 X-1.7800 Y0.7815  
G01 X-1.7764 Y0.7819  
G01 X-1.7697 Y0.7846  
G01 X-1.7646 Y0.7897  
G01 X-1.7619 Y0.7964  
G01 X-1.7615 Y0.8000  
G01 X-1.7615 Y0.9637  
G01 X-1.7615 Y0.9645  
G01 X-1.7615 Y0.9763  
G01 X-1.7615 Y0.9842  
G01 X-1.7506 Y1.0105  
G01 X-1.7305 Y1.0306  
G01 X-1.7042 Y1.0415  
G01 X-1.6963 Y1.0415  
G01 X-1.6901 Y1.0415  
G01 X-1.6837 Y1.0415  
G01 X-1.3384 Y1.0415  
G01 X-1.3322 Y1.0477  
G01 X-1.3159 Y1.0545  
G01 X-1.1841 Y1.0545  
G01 X-1.1678 Y1.0477  
G01 X-1.1553 Y1.0352  
G01 X-1.1485 Y1.0189  
G01 X-1.1485 Y1.0011  
G01 X-1.1553 Y0.9848  
G01 X-1.1678 Y0.9723  
G01 X-1.1841 Y0.9655  
G01 X-1.3159 Y0.9655  
G01 X-1.3322 Y0.9723  
G01 X-1.3384 Y0.9785  
G01 X-1.6837 Y0.9785  
G01 X-1.6900 Y0.9785  
G01 X-1.6917 Y0.9783  
G01 X-1.6947 Y0.9771  
G01 X-1.6971 Y0.9747  
G01 X-1.6983 Y0.9717  
G01 X-1.6985 Y0.9700  
G01 X-1.6985 Y0.9645  
G01 X-1.6985 Y0.9637  
G01 X-1.6985 Y0.7937  
G01 X-1.6985 Y0.7838  
G00 Z0.1000  
G00 X-0.5738 Y1.4415  
G01 Z-0.0070 F10    
G01 X-0.5738 Y1.4415  F20    
G01 X-0.5438 Y1.4291  
G01 X-0.5209 Y1.4062  
G01 X-0.5085 Y1.3762  
G01 X-0.5085 Y1.3663  
G01 X-0.5085 Y1.3601  
G01 X-0.5085 Y1.3600  
G01 X-0.5085 Y1.3584  
G01 X-0.5081 Y1.3548  
G01 X-0.5054 Y1.3481  
G01 X-0.5003 Y1.3430  
G01 X-0.4936 Y1.3403  
G01 X-0.4900 Y1.3399  
G01 X-0.4882 Y1.3399  
G01 X-0.4837 Y1.3399  
G01 X-0.3103 Y1.3399  
G01 X-0.2977 Y1.3525  
G01 X-0.2786 Y1.3604  
G01 X-0.1214 Y1.3604  
G01 X-0.1023 Y1.3525  
G01 X-0.0877 Y1.3379  
G01 X-0.0798 Y1.3188  
G01 X-0.0798 Y1.2981  
G01 X-0.0877 Y1.2790  
G01 X-0.1023 Y1.2643  
G01 X-0.1214 Y1.2564  
G01 X-0.2786 Y1.2564  
G01 X-0.2977 Y1.2643  
G01 X-0.3103 Y1.2769  
G01 X-0.4837 Y1.2769  
G01 X-0.4882 Y1.2769  
G01 X-0.4900 Y1.2769  
G01 X-0.4963 Y1.2769  
G01 X-0.5062 Y1.2769  
G01 X-0.5362 Y1.2893  
G01 X-0.5591 Y1.3123  
G01 X-0.5715 Y1.3422  
G01 X-0.5715 Y1.3522  
G01 X-0.5715 Y1.3537  
G01 X-0.5715 Y1.3600  
G01 X-0.5719 Y1.3636  
G01 X-0.5746 Y1.3703  
G01 X-0.5797 Y1.3754  
G01 X-0.5864 Y1.3781  
G01 X-0.5900 Y1.3785  
G01 X-0.8616 Y1.3785  
G01 X-0.8678 Y1.3723  
G01 X-0.8841 Y1.3655  
G01 X-1.0159 Y1.3655  
G01 X-1.0322 Y1.3723  
G01 X-1.0447 Y1.3848  
G01 X-1.0515 Y1.4011  
G01 X-1.0515 Y1.4189  
G01 X-1.0447 Y1.4352  
G01 X-1.0322 Y1.4477  
G01 X-1.0159 Y1.4545  
G01 X-0.8841 Y1.4545  
G01 X-0.8678 Y1.4477  
G01 X-0.8616 Y1.4415  
G01 X-0.5837 Y1.4415  
G01 X-0.5738 Y1.4415  
G00 Z0.1000  
G00 X-0.4463 Y1.2415  
G01 Z-0.0070 F10    
G01 X-0.4400 Y1.2415  F20    
G01 X-0.4368 Y1.2415  
G01 X-0.4337 Y1.2415  
G01 X-0.4258 Y1.2415  
G01 X-0.3995 Y1.2306  
G01 X-0.3794 Y1.2105  
G01 X-0.3685 Y1.1842  
G01 X-0.3685 Y1.1763  
G01 X-0.3685 Y1.1616  
G01 X-0.3681 Y1.1580  
G01 X-0.3654 Y1.1513  
G01 X-0.3603 Y1.1462  
G01 X-0.3536 Y1.1434  
G01 X-0.3500 Y1.1431  
G01 X-0.3449 Y1.1431  
G01 X-0.3437 Y1.1431  
G01 X-0.3103 Y1.1431  
G01 X-0.2977 Y1.1557  
G01 X-0.2786 Y1.1636  
G01 X-0.1214 Y1.1636  
G01 X-0.1023 Y1.1557  
G01 X-0.0877 Y1.1410  
G01 X-0.0798 Y1.1219  
G01 X-0.0798 Y1.1012  
G01 X-0.0877 Y1.0821  
G01 X-0.1023 Y1.0675  
G01 X-0.1214 Y1.0596  
G01 X-0.2786 Y1.0596  
G01 X-0.2977 Y1.0675  
G01 X-0.3103 Y1.0801  
G01 X-0.3437 Y1.0801  
G01 X-0.3449 Y1.0801  
G01 X-0.3563 Y1.0801  
G01 X-0.3662 Y1.0801  
G01 X-0.3962 Y1.0925  
G01 X-0.4191 Y1.1154  
G01 X-0.4315 Y1.1454  
G01 X-0.4315 Y1.1553  
G01 X-0.4315 Y1.1700  
G01 X-0.4317 Y1.1717  
G01 X-0.4329 Y1.1747  
G01 X-0.4353 Y1.1771  
G01 X-0.4383 Y1.1783  
G01 X-0.4400 Y1.1785  
G01 X-0.4463 Y1.1785  
G01 X-0.8616 Y1.1785  
G01 X-0.8678 Y1.1723  
G01 X-0.8841 Y1.1655  
G01 X-1.0159 Y1.1655  
G01 X-1.0322 Y1.1723  
G01 X-1.0447 Y1.1848  
G01 X-1.0515 Y1.2011  
G01 X-1.0515 Y1.2189  
G01 X-1.0447 Y1.2352  
G01 X-1.0322 Y1.2477  
G01 X-1.0159 Y1.2545  
G01 X-0.8841 Y1.2545  
G01 X-0.8678 Y1.2477  
G01 X-0.8616 Y1.2415  
G01 X-0.4463 Y1.2415  
G00 Z0.1000  
G00 X-0.4042 Y0.8785  
G01 Z-0.0070 F10    
G01 X-0.4042 Y0.8785  F20    
G01 X-0.4305 Y0.8894  
G01 X-0.4506 Y0.9095  
G01 X-0.4615 Y0.9358  
G01 X-0.4615 Y0.9437  
G01 X-0.4615 Y0.9497  
G01 X-0.4615 Y0.9500  
G01 X-0.4615 Y0.9563  
G01 X-0.4615 Y0.9600  
G01 X-0.4619 Y0.9636  
G01 X-0.4646 Y0.9703  
G01 X-0.4697 Y0.9754  
G01 X-0.4764 Y0.9781  
G01 X-0.4800 Y0.9785  
G01 X-0.4863 Y0.9785  
G01 X-0.8616 Y0.9785  
G01 X-0.8678 Y0.9723  
G01 X-0.8841 Y0.9655  
G01 X-1.0159 Y0.9655  
G01 X-1.0322 Y0.9723  
G01 X-1.0447 Y0.9848  
G01 X-1.0515 Y1.0011  
G01 X-1.0515 Y1.0189  
G01 X-1.0447 Y1.0352  
G01 X-1.0322 Y1.0477  
G01 X-1.0159 Y1.0545  
G01 X-0.8841 Y1.0545  
G01 X-0.8678 Y1.0477  
G01 X-0.8616 Y1.0415  
G01 X-0.4863 Y1.0415  
G01 X-0.4800 Y1.0415  
G01 X-0.4799 Y1.0415  
G01 X-0.4737 Y1.0415  
G01 X-0.4638 Y1.0415  
G01 X-0.4338 Y1.0291  
G01 X-0.4109 Y1.0062  
G01 X-0.3985 Y0.9762  
G01 X-0.3985 Y0.9663  
G01 X-0.3985 Y0.9563  
G01 X-0.3985 Y0.9500  
G01 X-0.3983 Y0.9483  
G01 X-0.3971 Y0.9453  
G01 X-0.3947 Y0.9429  
G01 X-0.3917 Y0.9417  
G01 X-0.3900 Y0.9415  
G01 X-0.3087 Y0.9415  
G01 X-0.2977 Y0.9525  
G01 X-0.2786 Y0.9604  
G01 X-0.1214 Y0.9604  
G01 X-0.1023 Y0.9525  
G01 X-0.0877 Y0.9379  
G01 X-0.0798 Y0.9188  
G01 X-0.0798 Y0.8981  
G01 X-0.0877 Y0.8790  
G01 X-0.1023 Y0.8643  
G01 X-0.1214 Y0.8564  
G01 X-0.2786 Y0.8564  
G01 X-0.2977 Y0.8643  
G01 X-0.3119 Y0.8785  
G01 X-0.3963 Y0.8785  
G01 X-0.4042 Y0.8785  
G00 Z0.1000  
G00 X-0.4255 Y0.2832  
G01 Z-0.0070 F10    
G01 X-0.4255 Y0.2832  F20    
G01 X-0.4384 Y0.2521  
G01 X-0.4621 Y0.2284  
G01 X-0.4932 Y0.2155  
G01 X-0.5031 Y0.2155  
G01 X-0.5100 Y0.2155  
G01 X-0.5169 Y0.2155  
G01 X-1.0400 Y0.2155  
G01 X-1.0430 Y0.2152  
G01 X-1.0486 Y0.2129  
G01 X-1.0529 Y0.2086  
G01 X-1.0552 Y0.2030  
G01 X-1.0555 Y0.2000  
G01 X-1.0555 Y0.1958  
G01 X-1.0555 Y0.1931  
G01 X-1.0555 Y0.1431  
G01 X-1.0555 Y0.1332  
G01 X-1.0684 Y0.1021  
G01 X-1.0921 Y0.0784  
G01 X-1.1232 Y0.0655  
G01 X-1.1400 Y0.0655  
G01 X-1.1469 Y0.0655  
G01 X-1.5931 Y0.0655  
G01 X-1.6000 Y0.0655  
G01 X-1.6168 Y0.0655  
G01 X-1.6479 Y0.0784  
G01 X-1.6716 Y0.1021  
G01 X-1.6845 Y0.1332  
G01 X-1.6845 Y0.1431  
G01 X-1.6845 Y0.8669  
G01 X-1.6845 Y0.8768  
G01 X-1.6716 Y0.9079  
G01 X-1.6479 Y0.9316  
G01 X-1.6168 Y0.9445  
G01 X-1.6069 Y0.9445  
G01 X-1.6000 Y0.9445  
G01 X-1.5931 Y0.9445  
G01 X-1.3397 Y0.9445  
G01 X-1.3339 Y0.9503  
G01 X-1.3164 Y0.9575  
G01 X-1.1835 Y0.9575  
G01 X-1.1661 Y0.9503  
G01 X-1.1527 Y0.9369  
G01 X-1.1455 Y0.9194  
G01 X-1.1455 Y0.9005  
G01 X-1.1527 Y0.8831  
G01 X-1.1661 Y0.8697  
G01 X-1.1835 Y0.8625  
G01 X-1.3164 Y0.8625  
G01 X-1.3339 Y0.8697  
G01 X-1.3397 Y0.8755  
G01 X-1.5931 Y0.8755  
G01 X-1.6000 Y0.8755  
G01 X-1.6030 Y0.8752  
G01 X-1.6086 Y0.8729  
G01 X-1.6129 Y0.8686  
G01 X-1.6152 Y0.8630  
G01 X-1.6155 Y0.8600  
G01 X-1.6155 Y0.1500  
G01 X-1.6152 Y0.1470  
G01 X-1.6129 Y0.1414  
G01 X-1.6086 Y0.1371  
G01 X-1.6030 Y0.1348  
G01 X-1.6000 Y0.1345  
G01 X-1.5931 Y0.1345  
G01 X-1.1469 Y0.1345  
G01 X-1.1400 Y0.1345  
G01 X-1.1370 Y0.1348  
G01 X-1.1314 Y0.1371  
G01 X-1.1271 Y0.1414  
G01 X-1.1248 Y0.1470  
G01 X-1.1245 Y0.1500  
G01 X-1.1245 Y0.1931  
G01 X-1.1245 Y0.1958  
G01 X-1.1245 Y0.2069  
G01 X-1.1245 Y0.2168  
G01 X-1.1116 Y0.2479  
G01 X-1.0879 Y0.2716  
G01 X-1.0568 Y0.2845  
G01 X-1.0469 Y0.2845  
G01 X-0.5169 Y0.2845  
G01 X-0.5100 Y0.2845  
G01 X-0.5070 Y0.2848  
G01 X-0.5014 Y0.2871  
G01 X-0.4971 Y0.2914  
G01 X-0.4948 Y0.2970  
G01 X-0.4945 Y0.3000  
G01 X-0.4945 Y0.6531  
G01 X-0.4945 Y0.6542  
G01 X-0.4945 Y0.6669  
G01 X-0.4945 Y0.6768  
G01 X-0.4816 Y0.7079  
G01 X-0.4579 Y0.7316  
G01 X-0.4268 Y0.7445  
G01 X-0.4100 Y0.7445  
G01 X-0.4031 Y0.7445  
G01 X-0.3131 Y0.7445  
G01 X-0.2994 Y0.7582  
G01 X-0.2792 Y0.7666  
G01 X-0.1208 Y0.7666  
G01 X-0.1006 Y0.7582  
G01 X-0.0851 Y0.7427  
G01 X-0.0768 Y0.7225  
G01 X-0.0768 Y0.7006  
G01 X-0.0851 Y0.6804  
G01 X-0.1006 Y0.6649  
G01 X-0.1208 Y0.6566  
G01 X-0.2792 Y0.6566  
G01 X-0.2994 Y0.6649  
G01 X-0.3100 Y0.6755  
G01 X-0.4031 Y0.6755  
G01 X-0.4100 Y0.6755  
G01 X-0.4130 Y0.6752  
G01 X-0.4186 Y0.6729  
G01 X-0.4229 Y0.6686  
G01 X-0.4252 Y0.6630  
G01 X-0.4255 Y0.6600  
G01 X-0.4255 Y0.6542  
G01 X-0.4255 Y0.6531  
G01 X-0.4255 Y0.2931  
G01 X-0.4255 Y0.2832  
G00 Z0.1000  
G00 X-0.5732 Y1.4445  
G01 Z-0.0070 F10    
G01 X-0.5732 Y1.4445  F20    
G01 X-0.5421 Y1.4316  
G01 X-0.5184 Y1.4079  
G01 X-0.5055 Y1.3768  
G01 X-0.5055 Y1.3669  
G01 X-0.5055 Y1.3650  
G01 X-0.5055 Y1.3600  
G01 X-0.5055 Y1.3584  
G01 X-0.5052 Y1.3554  
G01 X-0.5029 Y1.3498  
G01 X-0.4986 Y1.3455  
G01 X-0.4930 Y1.3432  
G01 X-0.4900 Y1.3429  
G01 X-0.4873 Y1.3429  
G01 X-0.4831 Y1.3429  
G01 X-0.3115 Y1.3429  
G01 X-0.2994 Y1.3550  
G01 X-0.2792 Y1.3634  
G01 X-0.1208 Y1.3634  
G01 X-0.1006 Y1.3550  
G01 X-0.0851 Y1.3396  
G01 X-0.0768 Y1.3194  
G01 X-0.0768 Y1.2975  
G01 X-0.0851 Y1.2773  
G01 X-0.1006 Y1.2618  
G01 X-0.1208 Y1.2534  
G01 X-0.2792 Y1.2534  
G01 X-0.2994 Y1.2618  
G01 X-0.3115 Y1.2739  
G01 X-0.4831 Y1.2739  
G01 X-0.4874 Y1.2739  
G01 X-0.4969 Y1.2739  
G01 X-0.5068 Y1.2739  
G01 X-0.5379 Y1.2868  
G01 X-0.5616 Y1.3106  
G01 X-0.5745 Y1.3416  
G01 X-0.5745 Y1.3516  
G01 X-0.5745 Y1.3531  
G01 X-0.5745 Y1.3600  
G01 X-0.5748 Y1.3630  
G01 X-0.5771 Y1.3686  
G01 X-0.5814 Y1.3729  
G01 X-0.5870 Y1.3752  
G01 X-0.5900 Y1.3755  
G01 X-0.8603 Y1.3755  
G01 X-0.8661 Y1.3697  
G01 X-0.8835 Y1.3625  
G01 X-1.0164 Y1.3625  
G01 X-1.0339 Y1.3697  
G01 X-1.0473 Y1.3831  
G01 X-1.0545 Y1.4005  
G01 X-1.0545 Y1.4194  
G01 X-1.0473 Y1.4369  
G01 X-1.0339 Y1.4503  
G01 X-1.0164 Y1.4575  
G01 X-0.8835 Y1.4575  
G01 X-0.8661 Y1.4503  
G01 X-0.8603 Y1.4445  
G01 X-0.5831 Y1.4445  
G01 X-0.5732 Y1.4445  
G00 Z0.1000  
G00 X-1.6955 Y0.7832  
G01 Z-0.0070 F10    
G01 X-1.6955 Y0.7832  F20    
G01 X-1.7084 Y0.7521  
G01 X-1.7321 Y0.7284  
G01 X-1.7632 Y0.7155  
G01 X-1.7800 Y0.7155  
G01 X-1.7869 Y0.7155  
G01 X-2.1831 Y0.7155  
G01 X-2.1900 Y0.7155  
G01 X-2.1911 Y0.7154  
G01 X-2.1931 Y0.7146  
G01 X-2.1946 Y0.7131  
G01 X-2.1954 Y0.7111  
G01 X-2.1955 Y0.7100  
G01 X-2.1955 Y0.5969  
G01 X-2.1955 Y0.5944  
G01 X-2.1955 Y0.5831  
G01 X-2.1955 Y0.5752  
G01 X-2.2068 Y0.5478  
G01 X-2.2278 Y0.5268  
G01 X-2.2552 Y0.5155  
G01 X-2.2631 Y0.5155  
G01 X-2.2688 Y0.5155  
G01 X-2.2700 Y0.5155  
G01 X-2.2769 Y0.5155  
G01 X-2.8100 Y0.5155  
G01 X-2.8206 Y0.5049  
G01 X-2.8408 Y0.4966  
G01 X-2.9992 Y0.4966  
G01 X-3.0194 Y0.5049  
G01 X-3.0349 Y0.5204  
G01 X-3.0432 Y0.5406  
G01 X-3.0432 Y0.5625  
G01 X-3.0349 Y0.5827  
G01 X-3.0194 Y0.5982  
G01 X-2.9992 Y0.6066  
G01 X-2.8408 Y0.6066  
G01 X-2.8206 Y0.5982  
G01 X-2.8069 Y0.5845  
G01 X-2.2769 Y0.5845  
G01 X-2.2700 Y0.5845  
G01 X-2.2689 Y0.5846  
G01 X-2.2669 Y0.5854  
G01 X-2.2654 Y0.5869  
